input/21bf75.cube
# VEGAS Pro LUT
TITLE "X_Got_Sunflowered"
LUT_3D_SIZE 33
0.00000000 0.00000000 0.00000000
0.03125000 0.00000000 0.00000000
0.06250000 0.00000000 0.00000000
0.09375000 0.00000000 0.00000000
0.12500000 0.00000000 0.00000000
0.15625000 0.00000000 0.00000000
0.18750000 0.00000000 0.00000000
0.21875000 0.00000000 0.00000000
0.25000000 0.00000000 0.00000000
0.28125000 0.00000000 0.00000000
0.31250000 0.00000000 0.00000000
0.34375000 0.00000000 0.00000000
0.37500000 0.00000000 0.00000000
0.40625000 0.00000000 0.00000000
0.43750000 0.00000000 0.00000000
0.46875000 0.00000000 0.00000000
0.50000000 0.00000000 0.00000000
0.53125000 0.00000000 0.00000000
0.56250000 0.00000000 0.00000000
0.59375000 0.00000000 0.00000000
0.62500000 0.00000000 0.00000000
0.65625000 0.00000000 0.00000000
0.68750000 0.00000000 0.00000000
0.71875000 0.00000000 0.00000000
0.75000000 0.00000000 0.00000000
0.78125000 0.00000000 0.00000000
0.81250000 0.00000000 0.00000000
0.84375000 0.00000000 0.00000000
0.87500000 0.00000000 0.00000000
0.90625000 0.00000000 0.00000000
0.93750000 0.00000000 0.00000000
0.96875000 0.00000000 0.00000000
1.00000000 0.00000000 0.00000000
0.00000000 0.03125000 0.00000000
0.03125000 0.03125000 0.00000000
0.06250000 0.03125000 0.00000000
0.09375000 0.03125000 0.00000000
0.12500000 0.03125000 0.00000000
0.15625000 0.03125000 0.00000000
0.18750000 0.03125000 0.00000000
0.21875000 0.03125000 0.00000000
0.25000000 0.03125000 0.00000000
0.28125000 0.03125000 0.00000000
0.31250000 0.03125000 0.00000000
0.34375000 0.03125000 0.00000000
0.37500000 0.03125000 0.00000000
0.40625000 0.03125000 0.00000000
0.43750000 0.03125000 0.00000000
0.46875000 0.03125000 0.00000000
0.50000000 0.03125000 0.00000000
0.53125000 0.03125000 0.00000000
0.56250000 0.03125000 0.00000000
0.59375000 0.03125000 0.00000000
0.62500000 0.03125000 0.00000000
0.65625000 0.03125000 0.00000000
0.68750000 0.03125000 0.00000000
0.71875000 0.03125000 0.00000000
0.75000000 0.03125000 0.00000000
0.78125000 0.03125000 0.00000000
0.81250000 0.03125000 0.00000000
0.84375000 0.03125000 0.00000000
0.87500000 0.03125000 0.00000000
0.90625000 0.03125000 0.00000000
0.93750000 0.03125000 0.00000000
0.96875000 0.03125000 0.00000000
1.00000000 0.03125000 0.00000000
0.00000000 0.06250000 0.00000000
0.03125000 0.06250000 0.00000000
0.06250000 0.06250000 0.00000000
0.09375000 0.06250000 0.00000000
0.12500000 0.06250000 0.00000000
0.15625000 0.06250000 0.00000000
0.18750000 0.06250000 0.00000000
0.21875000 0.06250000 0.00000000
0.25000000 0.06250000 0.00000000
0.28125000 0.06250000 0.00000000
0.31250000 0.06250000 0.00000000
0.34375000 0.06250000 0.00000000
0.37500000 0.06250000 0.00000000
0.40625000 0.06250000 0.00000000
0.43750000 0.06250000 0.00000000
0.46875000 0.06250000 0.00000000
0.50000000 0.06250000 0.00000000
0.53125000 0.06250000 0.00000000
0.56250000 0.06250000 0.00000000
0.59375000 0.06250000 0.00000000
0.62500000 0.06250000 0.00000000
0.65625000 0.06250000 0.00000000
0.68750000 0.06250000 0.00000000
0.71875000 0.06250000 0.00000000
0.75000000 0.06250000 0.00000000
0.78125000 0.06250000 0.00000000
0.81250000 0.06250000 0.00000000
0.84375000 0.06250000 0.00000000
0.87500000 0.06250000 0.00000000
0.90625000 0.06250000 0.00000000
0.93750000 0.06250000 0.00000000
0.96875000 0.06250000 0.00000000
1.00000000 0.06250000 0.00000000
0.00000000 0.09375000 0.00000000
0.03125000 0.09375000 0.00000000
0.06250000 0.09375000 0.00000000
0.09375000 0.09375000 0.00000000
0.12500000 0.09375000 0.00000000
0.15625000 0.09375000 0.00000000
0.18750000 0.09375000 0.00000000
0.21875000 0.09375000 0.00000000
0.25000000 0.09375000 0.00000000
0.28125000 0.09375000 0.00000000
0.31250000 0.09375000 0.00000000
0.34375000 0.09375000 0.00000000
0.37500000 0.09375000 0.00000000
0.40625000 0.09375000 0.00000000
0.43750000 0.09375000 0.00000000
0.46875000 0.09375000 0.00000000
0.50000000 0.09375000 0.00000000
0.53125000 0.09375000 0.00000000
0.56250000 0.09375000 0.00000000
0.59375000 0.09375000 0.00000000
0.62500000 0.09375000 0.00000000
0.65625000 0.09375000 0.00000000
0.68750000 0.09375000 0.00000000
0.71875000 0.09375000 0.00000000
0.75000000 0.09375000 0.00000000
0.78125000 0.09375000 0.00000000
0.81250000 0.09375000 0.00000000
0.84375000 0.09375000 0.00000000
0.87500000 0.09375000 0.00000000
0.90625000 0.09375000 0.00000000
0.93750000 0.09375000 0.00000000
0.96875000 0.09375000 0.00000000
0.99515533 0.09329581 0.00000000
0.00000000 0.12500000 0.00000000
0.03125000 0.12500000 0.00000000
0.06250000 0.12500000 0.00000000
0.09375000 0.12500000 0.00000000
0.12500000 0.12500000 0.00000000
0.15625000 0.12500000 0.00000000
0.18750000 0.12500000 0.00000000
0.21875000 0.12500000 0.00000000
0.25000000 0.12500000 0.00000000
0.28125000 0.12500000 0.00000000
0.31250000 0.12500000 0.00000000
0.34375000 0.12500000 0.00000000
0.37500000 0.12500000 0.00000000
0.40625000 0.12500000 0.00000000
0.43750000 0.12500000 0.00000000
0.46875000 0.12500000 0.00000000
0.50000000 0.12500000 0.00000000
0.53125000 0.12500000 0.00000000
0.56250000 0.12500000 0.00000000
0.59375000 0.12500000 0.00000000
0.62500000 0.12500000 0.00000000
0.65625000 0.12500000 0.00000000
0.68750000 0.12500000 0.00000000
0.71875000 0.12500000 0.00000000
0.75000000 0.12500000 0.00000000
0.78125000 0.12500000 0.00000000
0.81250000 0.12500000 0.00000000
0.84375000 0.12500000 0.00000000
0.87500000 0.12500000 0.00000000
0.90625000 0.12500000 0.00000000
0.93324196 0.12443227 0.00000000
0.95467526 0.12318391 0.00000000
0.97198224 0.12149778 0.00000000
0.00000000 0.15625000 0.00000000
0.03125000 0.15625000 0.00000000
0.06250000 0.15625000 0.00000000
0.09375000 0.15625000 0.00000000
0.12500000 0.15625000 0.00000000
0.15625000 0.15625000 0.00000000
0.18750000 0.15625000 0.00000000
0.21875000 0.15625000 0.00000000
0.25000000 0.15625000 0.00000000
0.28125000 0.15625000 0.00000000
0.31250000 0.15625000 0.00000000
0.34375000 0.15625000 0.00000000
0.37500000 0.15625000 0.00000000
0.40625000 0.15625000 0.00000000
0.43750000 0.15625000 0.00000000
0.46875000 0.15625000 0.00000000
0.50000000 0.15625000 0.00000000
0.53125000 0.15625000 0.00000000
0.56250000 0.15625000 0.00000000
0.59375000 0.15625000 0.00000000
0.62500000 0.15625000 0.00000000
0.65625000 0.15625000 0.00000000
0.68750000 0.15625000 0.00000000
0.71875000 0.15625000 0.00000000
0.75000000 0.15625000 0.00000000
0.78125000 0.15625000 0.00000000
0.81250000 0.15625000 0.00000000
0.84375000 0.15625000 0.00000000
0.87128639 0.15558687 0.00000000
0.89347374 0.15404719 0.00000000
0.91175437 0.15195906 0.00000000
0.92601186 0.14935675 0.00000000
0.93615699 0.14627454 0.00000000
0.00000000 0.18750000 0.00000000
0.03125000 0.18750000 0.00000000
0.06250000 0.18750000 0.00000000
0.09375000 0.18750000 0.00000000
0.12500000 0.18750000 0.00000000
0.15625000 0.18750000 0.00000000
0.18750000 0.18750000 0.00000000
0.21875000 0.18750000 0.00000000
0.25000000 0.18750000 0.00000000
0.28125000 0.18750000 0.00000000
0.31250000 0.18750000 0.00000000
0.34375000 0.18750000 0.00000000
0.37500000 0.18750000 0.00000000
0.40625000 0.18750000 0.00000000
0.43750000 0.18750000 0.00000000
0.46875000 0.18750000 0.00000000
0.50000000 0.18750000 0.00000000
0.53125000 0.18750000 0.00000000
0.56250000 0.18750000 0.00000000
0.59375000 0.18750000 0.00000000
0.62500000 0.18750000 0.00000000
0.65625000 0.18750000 0.00000000
0.68750000 0.18750000 0.00000000
0.71875000 0.18750000 0.00000000
0.75000000 0.18750000 0.00000000
0.78125000 0.18750000 0.00000000
0.80928952 0.18675911 0.00000000
0.83221436 0.18493652 0.00000000
0.85145319 0.18245426 0.00000000
0.86687493 0.17935345 0.00000000
0.87837619 0.17567524 0.00000000
0.88588053 0.17146075 0.00000000
0.88933933 0.16675112 0.00000000
0.00000000 0.21875000 0.00000000
0.03125000 0.21875000 0.00000000
0.06250000 0.21875000 0.00000000
0.09375000 0.21875000 0.00000000
0.12500000 0.21875000 0.00000000
0.15625000 0.21875000 0.00000000
0.18750000 0.21875000 0.00000000
0.21875000 0.21875000 0.00000000
0.25000000 0.21875000 0.00000000
0.28125000 0.21875000 0.00000000
0.31250000 0.21875000 0.00000000
0.34375000 0.21875000 0.00000000
0.37500000 0.21875000 0.00000000
0.40625000 0.21875000 0.00000000
0.43750000 0.21875000 0.00000000
0.46875000 0.21875000 0.00000000
0.50000000 0.21875000 0.00000000
0.53125000 0.21875000 0.00000000
0.56250000 0.21875000 0.00000000
0.59375000 0.21875000 0.00000000
0.62500000 0.21875000 0.00000000
0.65625000 0.21875000 0.00000000
0.68750000 0.21875000 0.00000000
0.71875000 0.21875000 0.00000000
0.74725223 0.21794857 0.00000000
0.77089798 0.21585143 0.00000000
0.79107940 0.21298291 0.00000000
0.80765104 0.20939100 0.00000000
0.82049471 0.20512368 0.00000000
0.82951999 0.20022896 0.00000000
0.83466345 0.19475481 0.00000000
0.83588934 0.18874921 0.00000000
0.83318937 0.18226017 0.00000000
0.00000000 0.25000000 0.00000000
0.03125000 0.25000000 0.00000000
0.06250000 0.25000000 0.00000000
0.09375000 0.25000000 0.00000000
0.12500000 0.25000000 0.00000000
0.15625000 0.25000000 0.00000000
0.18750000 0.25000000 0.00000000
0.21875000 0.25000000 0.00000000
0.25000000 0.25000000 0.00000000
0.28125000 0.25000000 0.00000000
0.31250000 0.25000000 0.00000000
0.34375000 0.25000000 0.00000000
0.37500000 0.25000000 0.00000000
0.40625000 0.25000000 0.00000000
0.43750000 0.25000000 0.00000000
0.46875000 0.25000000 0.00000000
0.50000000 0.25000000 0.00000000
0.53125000 0.25000000 0.00000000
0.56250000 0.25000000 0.00000000
0.59375000 0.25000000 0.00000000
0.62500000 0.25000000 0.00000000
0.65625000 0.25000000 0.00000000
0.68517554 0.24915473 0.00000000
0.70952553 0.24679148 0.00000000
0.73063385 0.24354462 0.00000000
0.74834073 0.23946904 0.00000000
0.76251346 0.23461953 0.00000000
0.77304703 0.22905096 0.00000000
0.77986366 0.22281818 0.00000000
0.78291303 0.21597601 0.00000000
0.78217244 0.20857932 0.00000000
0.77764636 0.20068294 0.00000000
0.76936680 0.19234170 0.00000000
0.00000000 0.28125000 0.00000000
0.03125000 0.28125000 0.00000000
0.06250000 0.28125000 0.00000000
0.09375000 0.28125000 0.00000000
0.12500000 0.28125000 0.00000000
0.15625000 0.28125000 0.00000000
0.18750000 0.28125000 0.00000000
0.21875000 0.28125000 0.00000000
0.25000000 0.28125000 0.00000000
0.28125000 0.28125000 0.00000000
0.31250000 0.28125000 0.00000000
0.34375000 0.28125000 0.00000000
0.37500000 0.28125000 0.00000000
0.40625000 0.28125000 0.00000000
0.43750000 0.28125000 0.00000000
0.46875000 0.28125000 0.00000000
0.50000000 0.28125000 0.00000000
0.53125000 0.28125000 0.00000000
0.56250000 0.28125000 0.00000000
0.59375000 0.28125000 0.00000000
0.62306029 0.28037712 0.00000000
0.64809781 0.27775621 0.00000000
0.67011756 0.27413899 0.00000000
0.68894494 0.26958716 0.00000000
0.70443302 0.26416239 0.00000000
0.71646225 0.25792640 0.00000000
0.72494048 0.25094095 0.00000000
0.72980291 0.24326764 0.00000000
0.73101223 0.23496822 0.00000000
0.72855848 0.22610435 0.00000000
0.72245932 0.21673779 0.00000000
0.71275961 0.20693022 0.00000000
0.69953173 0.19674329 0.00000000
0.00000000 0.31250000 0.00000000
0.03125000 0.31250000 0.00000000
0.06250000 0.31250000 0.00000000
0.09375000 0.31250000 0.00000000
0.12500000 0.31250000 0.00000000
0.15625000 0.31250000 0.00000000
0.18750000 0.31250000 0.00000000
0.21875000 0.31250000 0.00000000
0.25000000 0.31250000 0.00000000
0.28125000 0.31250000 0.00000000
0.31250000 0.31250000 0.00000000
0.34375000 0.31250000 0.00000000
0.37500000 0.31250000 0.00000000
0.40625000 0.31250000 0.00000000
0.43750000 0.31250000 0.00000000
0.46875000 0.31250000 0.00000000
0.50000000 0.31250000 0.00000000
0.53125000 0.31250000 0.00000000
0.56090748 0.31161529 0.00000000
0.58661586 0.30874518 0.00000000
0.60953110 0.30476555 0.00000000
0.62946439 0.29974493 0.00000000
0.64625418 0.29375190 0.00000000
0.65976650 0.28685498 0.00000000
0.66989470 0.27912277 0.00000000
0.67655945 0.27062377 0.00000000
0.67970908 0.26142657 0.00000000
0.67931926 0.25159973 0.00000000
0.67539287 0.24121174 0.00000000
0.66796058 0.23033124 0.00000000
0.65708023 0.21902674 0.00000000
0.64283711 0.20736681 0.00000000
0.62534392 0.19541997 0.00000000
0.00000000 0.34375000 0.00000000
0.03125000 0.34375000 0.00000000
0.06250000 0.34375000 0.00000000
0.09375000 0.34375000 0.00000000
0.12500000 0.34375000 0.00000000
0.15625000 0.34375000 0.00000000
0.18750000 0.34375000 0.00000000
0.21875000 0.34375000 0.00000000
0.25000000 0.34375000 0.00000000
0.28125000 0.34375000 0.00000000
0.31250000 0.34375000 0.00000000
0.34375000 0.34375000 0.00000000
0.37500000 0.34375000 0.00000000
0.40625000 0.34375000 0.00000000
0.43750000 0.34375000 0.00000000
0.46875000 0.34375000 0.00000000
0.49871811 0.34286872 0.00000000
0.52508044 0.33975792 0.00000000
0.54887551 0.33542392 0.00000000
0.56989986 0.32994202 0.00000000
0.58797765 0.32338771 0.00000000
0.60296029 0.31583634 0.00000000
0.61472672 0.30736336 0.00000000
0.62318325 0.29804415 0.00000000
0.62826359 0.28795415 0.00000000
0.62992901 0.27716875 0.00000000
0.62816799 0.26576337 0.00000000
0.62299651 0.25381339 0.00000000
0.61445814 0.24139428 0.00000000
0.60262370 0.22858140 0.00000000
0.58759135 0.21545017 0.00000000
0.56948692 0.20207602 0.00000000
0.54846346 0.18853432 0.00000000
0.00000000 0.37500000 0.00000000
0.03125000 0.37500000 0.00000000
0.06250000 0.37500000 0.00000000
0.09375000 0.37500000 0.00000000
0.12500000 0.37500000 0.00000000
0.15625000 0.37500000 0.00000000
0.18750000 0.37500000 0.00000000
0.21875000 0.37500000 0.00000000
0.25000000 0.37500000 0.00000000
0.28125000 0.37500000 0.00000000
0.31250000 0.37500000 0.00000000
0.34375000 0.37500000 0.00000000
0.37500000 0.37500000 0.00000000
0.40625000 0.37500000 0.00000000
0.43649307 0.37413692 0.00000000
0.46349251 0.37079400 0.00000000
0.48815149 0.36611360 0.00000000
0.51025218 0.36017799 0.00000000
0.52960414 0.35306942 0.00000000
0.54604435 0.34487012 0.00000000
0.55943733 0.33566239 0.00000000
0.56967485 0.32552850 0.00000000
0.57667625 0.31455070 0.00000000
0.58038825 0.30281126 0.00000000
0.58078492 0.29039246 0.00000000
0.57786775 0.27737653 0.00000000
0.57166582 0.26384577 0.00000000
0.56223541 0.24988241 0.00000000
0.54966044 0.23556876 0.00000000
0.53405201 0.22098705 0.00000000
0.51554888 0.20621955 0.00000000
0.49431708 0.19134855 0.00000000
0.47055012 0.17645630 0.00000000
0.00000000 0.40625000 0.00000000
0.03125000 0.40625000 0.00000000
0.06250000 0.40625000 0.00000000
0.09375000 0.40625000 0.00000000
0.12500000 0.40625000 0.00000000
0.15625000 0.40625000 0.00000000
0.18750000 0.40625000 0.00000000
0.21875000 0.40625000 0.00000000
0.25000000 0.40625000 0.00000000
0.28125000 0.40625000 0.00000000
0.31250000 0.40625000 0.00000000
0.34375000 0.40625000 0.00000000
0.37423331 0.40541941 0.00000000
0.40185297 0.40185297 0.00000000
0.42735997 0.39683425 0.00000000
0.45052207 0.39045247 0.00000000
0.47113433 0.38279665 0.00000000
0.48901936 0.37395597 0.00000000
0.50402707 0.36401954 0.00000000
0.51603490 0.35307652 0.00000000
0.52494758 0.34121594 0.00000000
0.53069746 0.32852700 0.00000000
0.53324407 0.31509876 0.00000000
0.53257459 0.30102041 0.00000000
0.52870345 0.28638104 0.00000000
0.52167255 0.27126974 0.00000000
0.51155132 0.25577566 0.00000000
0.49843645 0.23998791 0.00000000
0.48245209 0.22399563 0.00000000
0.46374992 0.20788790 0.00000000
0.44250894 0.19175388 0.00000000
0.41893566 0.17568269 0.00000000
0.39326382 0.15976343 0.00000000
0.00000000 0.43750000 0.00000000
0.03125000 0.43750000 0.00000000
0.06250000 0.43750000 0.00000000
0.09375000 0.43750000 0.00000000
0.12500000 0.43750000 0.00000000
0.15625000 0.43750000 0.00000000
0.18750000 0.43750000 0.00000000
0.21875000 0.43750000 0.00000000
0.25000000 0.43750000 0.00000000
0.28125000 0.43750000 0.00000000
0.31193984 0.43671575 0.00000000
0.34016269 0.43293434 0.00000000
0.36650178 0.42758542 0.00000000
0.39071035 0.42076501 0.00000000
0.41256905 0.41256905 0.00000000
0.43188599 0.40309361 0.00000000
0.44849661 0.39243454 0.00000000
0.46226388 0.38068789 0.00000000
0.47307810 0.36794963 0.00000000
0.48085707 0.35431573 0.00000000
0.48554593 0.33988214 0.00000000
0.48711735 0.32474488 0.00000000
0.48557130 0.30899993 0.00000000
0.48093528 0.29274321 0.00000000
0.47326416 0.27607077 0.00000000
0.46264017 0.25907850 0.00000000
0.44917309 0.24186245 0.00000000
0.43300006 0.22451855 0.00000000
0.41428560 0.20714280 0.00000000
0.39322171 0.18983117 0.00000000
0.37002778 0.17267963 0.00000000
0.34495065 0.15578416 0.00000000
0.31826454 0.13924074 0.00000000
0.00000000 0.46875000 0.00000000
0.03125000 0.46875000 0.00000000
0.06250000 0.46875000 0.00000000
0.09375000 0.46875000 0.00000000
0.12500000 0.46875000 0.00000000
0.15625000 0.46875000 0.00000000
0.18750000 0.46875000 0.00000000
0.21875000 0.46875000 0.00000000
0.24961357 0.46802545 0.00000000
0.27842259 0.46403763 0.00000000
0.30557775 0.45836663 0.00000000
0.33081785 0.45111522 0.00000000
0.35390902 0.44238627 0.00000000
0.37464491 0.43228257 0.00000000
0.39284652 0.42090699 0.00000000
0.40836236 0.40836236 0.00000000
0.42106825 0.39475149 0.00000000
0.43086749 0.38017720 0.00000000
0.43769085 0.36474237 0.00000000
0.44149640 0.34854978 0.00000000
0.44226974 0.33170229 0.00000000
0.44002387 0.31430277 0.00000000
0.43479916 0.29645398 0.00000000
0.42666343 0.27825877 0.00000000
0.41571200 0.25981998 0.00000000
0.40206742 0.24124044 0.00000000
0.38587987 0.22262302 0.00000000
0.36732686 0.20407048 0.00000000
0.34661335 0.18568572 0.00000000
0.32397160 0.16757151 0.00000000
0.29966149 0.14983074 0.00000000
0.27397013 0.13256620 0.00000000
0.24721223 0.11588074 0.00000000
0.00000000 0.50000000 0.00000000
0.03125000 0.50000000 0.00000000
0.06250000 0.50000000 0.00000000
0.09375000 0.50000000 0.00000000
0.12500000 0.50000000 0.00000000
0.15625000 0.50000000 0.00000000
0.18725549 0.49934795 0.00000000
0.21663357 0.49516246 0.00000000
0.24458875 0.48917750 0.00000000
0.27084529 0.48150274 0.00000000
0.29515493 0.47224787 0.00000000
0.31729680 0.46152261 0.00000000
0.33707747 0.44943663 0.00000000
0.35433093 0.43609962 0.00000000
0.36891857 0.42162123 0.00000000
0.38072926 0.40611121 0.00000000
0.38967922 0.38967922 0.00000000
0.39571211 0.37243491 0.00000000
0.39879900 0.35448802 0.00000000
0.39893854 0.33594823 0.00000000
0.39615655 0.31692523 0.00000000
0.39050633 0.29752862 0.00000000
0.38206878 0.27786821 0.00000000
0.37095213 0.25805366 0.00000000
0.35729188 0.23819458 0.00000000
0.34125113 0.21840072 0.00000000
0.32302040 0.19878179 0.00000000
0.30281752 0.17944741 0.00000000
0.28088775 0.16050729 0.00000000
0.25750399 0.14207116 0.00000000
0.23296623 0.12424865 0.00000000
0.20760211 0.10714948 0.00000000
0.18176669 0.09088334 0.00000000
0.00000000 0.53125000 0.00000000
0.03125000 0.53125000 0.00000000
0.06250000 0.53125000 0.00000000
0.09375000 0.53125000 0.00000000
0.12486655 0.53068286 0.00000000
0.15479656 0.52630830 0.00000000
0.18353561 0.52001756 0.00000000
0.21079352 0.51192713 0.00000000
0.23630755 0.50215352 0.00000000
0.25984234 0.49081331 0.00000000
0.28119004 0.47802308 0.00000000
0.30017018 0.46389937 0.00000000
0.31662965 0.44855866 0.00000000
0.33044279 0.43211749 0.00000000
0.34151143 0.41469246 0.00000000
0.34976479 0.39640012 0.00000000
0.35515946 0.37735692 0.00000000
0.35767949 0.35767949 0.00000000
0.35733640 0.33748436 0.00000000
0.35416901 0.31688803 0.00000000
0.34824365 0.29600710 0.00000000
0.33965409 0.27495807 0.00000000
0.32852149 0.25385749 0.00000000
0.31499434 0.23282190 0.00000000
0.29924875 0.21196786 0.00000000
0.28148809 0.19141191 0.00000000
0.26194325 0.17127058 0.00000000
0.24087241 0.15166041 0.00000000
0.21856131 0.13269794 0.00000000
0.19532306 0.11449973 0.00000000
0.17149821 0.09718232 0.00000000
0.14745471 0.08086225 0.00000000
0.12358791 0.06565607 0.00000000
0.00000000 0.56250000 0.00000000
0.03125000 0.56250000 0.00000000
0.06244773 0.56202960 0.00000000
0.09291246 0.55747473 0.00000000
0.12241919 0.55088639 0.00000000
0.15066332 0.54238796 0.00000000
0.17736761 0.53210282 0.00000000
0.20228228 0.52015442 0.00000000
0.22518493 0.50666612 0.00000000
0.24588065 0.49176130 0.00000000
0.26420191 0.47556344 0.00000000
0.28000855 0.45819584 0.00000000
0.29318795 0.43978193 0.00000000
0.30365482 0.42044514 0.00000000
0.31135130 0.40030885 0.00000000
0.31624702 0.37949643 0.00000000
0.31833896 0.35813132 0.00000000
0.31765151 0.33633691 0.00000000
0.31423658 0.31423658 0.00000000
0.30817339 0.29195371 0.00000000
0.29956862 0.26961178 0.00000000
0.28855643 0.24733406 0.00000000
0.27529830 0.22524408 0.00000000
0.25998324 0.20346513 0.00000000
0.24282758 0.18212068 0.00000000
0.22407514 0.16133410 0.00000000
0.20399715 0.14122880 0.00000000
0.18289219 0.12192813 0.00000000
0.16108644 0.10355556 0.00000000
0.13893324 0.08623443 0.00000000
0.11681367 0.07008820 0.00000000
0.09513589 0.05524020 0.00000000
0.07433575 0.04181386 0.00000000
0.00000000 0.59338772 0.00000000
0.03098217 0.58866125 0.00000000
0.06124038 0.58178353 0.00000000
0.09045550 0.57288486 0.00000000
0.11833587 0.56209540 0.00000000
0.14461723 0.54954547 0.00000000
0.16906273 0.53536528 0.00000000
0.19146295 0.51968515 0.00000000
0.21163592 0.50263530 0.00000000
0.22942704 0.48434597 0.00000000
0.24470916 0.46494740 0.00000000
0.25738257 0.44456989 0.00000000
0.26737493 0.42334366 0.00000000
0.27464136 0.40139893 0.00000000
0.27916443 0.37886602 0.00000000
0.28095406 0.35587516 0.00000000
0.28004766 0.33255661 0.00000000
0.27651003 0.30904061 0.00000000
0.27043331 0.28545740 0.00000000
0.26193723 0.26193723 0.00000000
0.25116888 0.23861043 0.00000000
0.23830268 0.21560718 0.00000000
0.22354054 0.19305775 0.00000000
0.20711181 0.17109236 0.00000000
0.18927325 0.14984132 0.00000000
0.17030905 0.12943488 0.00000000
0.15053077 0.11000326 0.00000000
0.13027741 0.09167670 0.00000000
0.10991547 0.07458550 0.00000000
0.08983881 0.05885991 0.00000000
0.07046862 0.04463013 0.00000000
0.05225374 0.03202648 0.00000000
0.03567016 0.02117916 0.00000000
0.00000000 0.61270857 0.00000000
0.03017087 0.60341740 0.00000000
0.05921309 0.59213090 0.00000000
0.08684793 0.57898617 0.00000000
0.11282407 0.56412035 0.00000000
0.13691765 0.54767060 0.00000000
0.15893221 0.52977401 0.00000000
0.17869867 0.51056767 0.00000000
0.19607545 0.49018863 0.00000000
0.21094833 0.46877408 0.00000000
0.22323056 0.44646111 0.00000000
0.23286277 0.42338684 0.00000000
0.23981300 0.39968833 0.00000000
0.24407676 0.37550271 0.00000000
0.24567699 0.35096711 0.00000000
0.24466401 0.32621866 0.00000000
0.24111554 0.30139443 0.00000000
0.23513676 0.27663147 0.00000000
0.22686033 0.25206703 0.00000000
0.21644622 0.22783813 0.00000000
0.20408186 0.20408186 0.00000000
0.18998215 0.18093538 0.00000000
0.17438933 0.15853576 0.00000000
0.15757315 0.13702013 0.00000000
0.13983075 0.11652563 0.00000000
0.12148660 0.09718928 0.00000000
0.10289279 0.07914830 0.00000000
0.08442863 0.06253973 0.00000000
0.06650092 0.04750066 0.00000000
0.04954396 0.03416825 0.00000000
0.03401935 0.02267957 0.00000000
0.02041624 0.01317177 0.00000000
0.00925112 0.00578195 0.00000000
0.00000000 0.62220883 0.00000000
0.02897505 0.60847616 0.00000000
0.05646962 0.59293103 0.00000000
0.08224534 0.57571739 0.00000000
0.10609129 0.55697930 0.00000000
0.12782396 0.53686064 0.00000000
0.14728726 0.51550543 0.00000000
0.16435254 0.49305758 0.00000000
0.17891853 0.46966112 0.00000000
0.19091143 0.44545999 0.00000000
0.20028484 0.42059815 0.00000000
0.20701975 0.39521950 0.00000000
0.21112463 0.36946809 0.00000000
0.21263534 0.34348786 0.00000000
0.21161519 0.31742278 0.00000000
0.20815487 0.29141682 0.00000000
0.20237249 0.26561388 0.00000000
0.19441366 0.24015805 0.00000000
0.18445128 0.21519317 0.00000000
0.17268580 0.19086327 0.00000000
0.15934500 0.16731226 0.00000000
0.14468415 0.14468415 0.00000000
0.12898591 0.12312292 0.00000000
0.11256036 0.10277250 0.00000000
0.09574498 0.08377686 0.00000000
0.07890467 0.06627993 0.00000000
0.06243191 0.05042577 0.00000000
0.04674633 0.03635825 0.00000000
0.03229515 0.02422136 0.00000000
0.01955308 0.01415912 0.00000000
0.00902206 0.00631544 0.00000000
0.00123152 0.00083426 0.00000000
