input/21bf75.cube
# VEGAS Pro LUT
TITLE "X_Got_Sunflowered"
LUT_3D_SIZE 9
0.00000000 0.00000000 0.00000000
0.12500000 0.00000000 0.00000000
0.25000000 0.00000000 0.00000000
0.37500000 0.00000000 0.00000000
0.50000000 0.00000000 0.00000000
0.62500000 0.00000000 0.00000000
0.75000000 0.00000000 0.00000000
0.87500000 0.00000000 0.00000000
1.00000000 0.00000000 0.00000000
0.00000000 0.12500000 0.00000000
0.12500000 0.12500000 0.00000000
0.25000000 0.12500000 0.00000000
0.37500000 0.12500000 0.00000000
0.50000000 0.12500000 0.00000000
0.62500000 0.12500000 0.00000000
0.75000000 0.12500000 0.00000000
0.87500000 0.12500000 0.00000000
0.97198224 0.12149778 0.00000000
0.00000000 0.25000000 0.00000000
0.12500000 0.25000000 0.00000000
0.25000000 0.25000000 0.00000000
0.37500000 0.25000000 0.00000000
0.50000000 0.25000000 0.00000000
0.62500000 0.25000000 0.00000000
0.73063385 0.24354462 0.00000000
0.77986366 0.22281818 0.00000000
0.76936680 0.19234170 0.00000000
0.00000000 0.37500000 0.00000000
0.12500000 0.37500000 0.00000000
0.25000000 0.37500000 0.00000000
0.37500000 0.37500000 0.00000000
0.48815149 0.36611360 0.00000000
0.55943733 0.33566239 0.00000000
0.58078492 0.29039246 0.00000000
0.54966044 0.23556876 0.00000000
0.47055012 0.17645630 0.00000000
0.00000000 0.50000000 0.00000000
0.12500000 0.50000000 0.00000000
0.24458875 0.48917750 0.00000000
0.33707747 0.44943663 0.00000000
0.38967922 0.38967922 0.00000000
0.39615655 0.31692523 0.00000000
0.35729188 0.23819458 0.00000000
0.28088775 0.16050729 0.00000000
0.18176669 0.09088334 0.00000000
0.00000000 0.61270857 0.00000000
0.11282407 0.56412035 0.00000000
0.19607545 0.49018863 0.00000000
0.23981300 0.39968833 0.00000000
0.24111554 0.30139443 0.00000000
0.20408186 0.20408186 0.00000000
0.13983075 0.11652563 0.00000000
0.06650092 0.04750066 0.00000000
0.00925112 0.00578195 0.00000000
0.00000000 0.59190696 0.00000000
0.08064191 0.48385146 0.00000000
0.12201877 0.36605632 0.00000000
0.12452567 0.24905133 0.00000000
0.09557772 0.14336658 0.00000000
0.04960995 0.05953194 0.00000000
0.00807743 0.00807743 0.00000000
0.02917022 0.02470890 0.00000000
0.11663818 0.09879940 0.00000000
0.00000000 0.43218043 0.00000000
0.04220330 0.29542309 0.00000000
0.04897733 0.17142066 0.00000000
0.03105348 0.07245811 0.00000000
0.00618306 0.01082035 0.00000000
0.02689603 0.02278252 0.00000000
0.11263128 0.09540532 0.00000000
0.23831268 0.20186485 0.00000000
0.38909048 0.32958254 0.00000000
0.00000000 0.20070189 0.00000000
0.01078754 0.08630031 0.00000000
0.00350977 0.01403910 0.00000000
0.02469599 0.02091896 0.00000000
0.10867845 0.09205704 0.00000000
0.23315336 0.19749461 0.00000000
0.38327101 0.32465309 0.00000000
0.54418164 0.46095383 0.00000000
0.70103550 0.59381831 0.00000000
0.00000000 0.00000000 0.12500000
0.12500000 0.00000000 0.12500000
0.25000000 0.00000000 0.12500000
0.37500000 0.00000000 0.12500000
0.50000000 0.00000000 0.12500000
0.62500000 0.00000000 0.12500000
0.75000000 0.00000000 0.12500000
0.87500000 0.00000000 0.12500000
1.00000000 0.00000000 0.12500000
0.00000000 0.12500000 0.12500000
0.12500000 0.12500000 0.12500000
0.25000000 0.12500000 0.12500000
0.37500000 0.12500000 0.12500000
0.50000000 0.12500000 0.12500000
0.62500000 0.12500000 0.12500000
0.75000000 0.12500000 0.12500000
0.87404728 0.12486389 0.12486389
0.94516355 0.11814544 0.11814544
0.00000000 0.25000000 0.12500000
0.12500000 0.25000000 0.12500000
0.25000000 0.25000000 0.12500000
0.37500000 0.25000000 0.12500000
0.50000000 0.25000000 0.12500000
0.62487942 0.24995176 0.12497588
0.71104699 0.23701566 0.11850783
0.74255228 0.21215780 0.10607890
0.71555269 0.17888817 0.08944409
0.00000000 0.37500000 0.12500000
0.12500000 0.37500000 0.12500000
0.25000000 0.37500000 0.12500000
0.37500000 0.37500000 0.12500000
0.47544858 0.35658643 0.11886214
0.53310704 0.31986424 0.10662141
0.54066145 0.27033073 0.09011024
0.49758524 0.21325082 0.07108361
0.41037214 0.15388955 0.05129652
0.00000000 0.50000000 0.12500000
0.12500000 0.50000000 0.12500000
0.23841661 0.47683322 0.11920831
0.32147446 0.42863262 0.10715815
0.36309195 0.36309195 0.09077299
0.35903901 0.28723121 0.07180780
0.31210554 0.20807037 0.05201759
0.23210144 0.13262939 0.03315735
0.13585645 0.06792822 0.01698206
0.00000000 0.59773111 0.11954622
0.10768902 0.53844512 0.10768902
0.18286449 0.45716122 0.09143224
0.21759264 0.36265439 0.07253088
0.21095973 0.26369965 0.05273993
0.16907188 0.16907188 0.03381438
0.10505529 0.08754607 0.01750921
0.03905604 0.02789717 0.00557943
0.00228753 0.00193767 0.00000000
0.00000000 0.55252755 0.09208792
0.07325277 0.43951660 0.07325277
0.10692689 0.32078066 0.05346344
0.10342486 0.20684972 0.03447495
0.07216915 0.10825373 0.01804229
0.02960224 0.03552268 0.00592045
0.00127312 0.00107841 0.00000000
0.05692684 0.04822038 0.00000000
0.16116835 0.13651907 0.00000000
0.00000000 0.37931624 0.05418804
0.03513899 0.24597290 0.03513899
0.03716241 0.13006842 0.01858120
0.01880904 0.04388775 0.00626968
0.00034457 0.00029187 0.00000000
0.05392757 0.04567983 0.00000000
0.15664469 0.13268726 0.00000000
0.29364616 0.24873558 0.00000000
0.45008227 0.38124618 0.00000000
0.00000000 0.15300691 0.01912586
0.00662702 0.05301619 0.00662702
0.00012973 0.00051892 0.00006486
0.05099481 0.04319560 0.00000000
0.15216741 0.12889475 0.00000000
0.28817070 0.24409755 0.00000000
0.44415495 0.37622535 0.00000000
0.60527039 0.51269960 0.00000000
0.75666732 0.64094174 0.00000000
0.00000000 0.00000000 0.25000000
0.12500000 0.00000000 0.25000000
0.25000000 0.00000000 0.25000000
0.37500000 0.00000000 0.25000000
0.50000000 0.00000000 0.25000000
0.62500000 0.00000000 0.25000000
0.75000000 0.00000000 0.25000000
0.87500000 0.00000000 0.25000000
1.00000000 0.00000000 0.25000000
0.00000000 0.12500000 0.25000000
0.12500000 0.12500000 0.25000000
0.25000000 0.12500000 0.25000000
0.37500000 0.12500000 0.25000000
0.50000000 0.12500000 0.25000000
0.62500000 0.12500000 0.25000000
0.75000000 0.12500000 0.25000000
0.86176664 0.12310952 0.24621904
0.91148782 0.11393598 0.22787195
0.00000000 0.25000000 0.25000000
0.12500000 0.25000000 0.25000000
0.25000000 0.25000000 0.25000000
0.37500000 0.25000000 0.25000000
0.50000000 0.25000000 0.25000000
0.61662298 0.24664919 0.24664919
0.68626094 0.22875366 0.22875366
0.70096117 0.20027462 0.20027462
0.65888834 0.16472208 0.16472208
0.00000000 0.37500000 0.25000000
0.12500000 0.37500000 0.25000000
0.25000000 0.37500000 0.25000000
0.37059039 0.37059039 0.24706025
0.45924205 0.34443152 0.22962102
0.50367290 0.30220374 0.20146917
0.49834397 0.24917199 0.16611466
0.44473627 0.19060126 0.12706751
0.35135072 0.13175651 0.08783768
0.00000000 0.50000000 0.25000000
0.12372604 0.49490416 0.24745208
0.23047391 0.46094781 0.23047391
0.30398095 0.40530792 0.20265396
0.33500451 0.33500451 0.16750225
0.32132190 0.25705752 0.12852876
0.26773036 0.17848691 0.08924346
0.18604721 0.10631269 0.05315635
0.09510958 0.04755479 0.02377740
0.00000000 0.57828021 0.23131210
0.10191441 0.50957209 0.20382883
0.16888466 0.42221165 0.16888466
0.19498438 0.32497394 0.12998958
0.18130714 0.22663392 0.09065357
0.13596651 0.13596651 0.05438660
0.07409602 0.06174669 0.02469867
0.01784921 0.01274943 0.00509977
0.01767684 0.01497332 0.00000000
0.00000000 0.51078516 0.17026173
0.06572491 0.39434946 0.13144982
0.09206782 0.27620345 0.09206782
0.08343865 0.16687730 0.05562577
0.05126724 0.07690085 0.02563362
0.01400337 0.01680404 0.00560135
0.01581615 0.01339721 0.00000000
0.09174654 0.07771471 0.00000000
0.21060294 0.17839308 0.00000000
0.00000000 0.32720125 0.09348607
0.02843683 0.19905782 0.05687366
0.02658203 0.09303711 0.02658203
0.00918174 0.02142406 0.00612116
0.01403366 0.01188734 0.00000000
0.08810162 0.07462726 0.00000000
0.20564191 0.17419080 0.00000000
0.35180482 0.29799938 0.00000000
0.51174057 0.43347436 0.00000000
0.00000000 0.11017501 0.02754375
0.00332952 0.02663612 0.00665903
0.01233011 0.01044433 0.00000000
0.08451554 0.07158964 0.00000000
0.20071962 0.17002134 0.00000000
0.34609261 0.29316083 0.00000000
0.50578481 0.42842948 0.00000000
0.66494638 0.56324869 0.00000000
0.80872768 0.68503994 0.00000000
0.00000000 0.00000000 0.37500000
0.12500000 0.00000000 0.37500000
0.25000000 0.00000000 0.37500000
0.37500000 0.00000000 0.37500000
0.50000000 0.00000000 0.37500000
0.62500000 0.00000000 0.37500000
0.75000000 0.00000000 0.37500000
0.87500000 0.00000000 0.37500000
1.00000000 0.00000000 0.37500000
0.00000000 0.12500000 0.37500000
0.12500000 0.12500000 0.37500000
0.25000000 0.12500000 0.37500000
0.37500000 0.12500000 0.37500000
0.50000000 0.12500000 0.37500000
0.62500000 0.12500000 0.37500000
0.75000000 0.12500000 0.37500000
0.84238112 0.12034016 0.36102048
0.87173313 0.10896664 0.32689992
0.00000000 0.25000000 0.37500000
0.12500000 0.25000000 0.37500000
0.25000000 0.25000000 0.37500000
0.37500000 0.25000000 0.37500000
0.50000000 0.25000000 0.37500000
0.60324466 0.24129787 0.36194682
0.65685946 0.21895315 0.32842973
0.65577114 0.18736318 0.28104478
0.60015190 0.15003797 0.22505696
0.00000000 0.37500000 0.37500000
0.12500000 0.37500000 0.37500000
0.25000000 0.37500000 0.37500000
0.36284721 0.36284721 0.36284721
0.43992099 0.32994074 0.32994074
0.47162116 0.28297269 0.28297269
0.45441619 0.22720809 0.22720809
0.39179438 0.16791187 0.16791187
0.29426408 0.11034903 0.11034903
0.00000000 0.50000000 0.37500000
0.12124050 0.48496199 0.36372149
0.22095515 0.44191030 0.33143273
0.28488874 0.37985164 0.28488874
0.30580592 0.30580592 0.22935444
0.28349143 0.22679314 0.17009485
0.22474994 0.14983329 0.11237497
0.14340605 0.08194631 0.06145974
0.06030434 0.03015217 0.02261413
0.00000000 0.55484235 0.33290541
0.09559752 0.47798759 0.28679258
0.15433049 0.38582623 0.23149574
0.17227994 0.28713322 0.17227994
0.15254682 0.19068353 0.11441012
0.10525208 0.10525208 0.06315125
0.04753666 0.03961388 0.02376833
0.00356139 0.00254385 0.00152631
0.04138546 0.03505592 0.00000000
0.00000000 0.46726352 0.23363176
0.05815561 0.34893367 0.17446683
0.07763614 0.23290841 0.11645421
0.06485885 0.12971771 0.06485885
0.03326097 0.04989146 0.02494573
0.00329971 0.00395966 0.00197983
0.03875791 0.03283023 0.00000000
0.13280629 0.11249474 0.00000000
0.26411891 0.22372426 0.00000000
0.00000000 0.27651632 0.11850699
0.02219409 0.15535861 0.06658226
0.01743072 0.06100753 0.02614608
0.00246343 0.00574800 0.00246343
0.03620089 0.03066428 0.00000000
0.12859513 0.10892764 0.00000000
0.25879994 0.21921878 0.00000000
0.41196558 0.34895909 0.00000000
0.57324231 0.48556995 0.00000000
0.00000000 0.07298428 0.02736910
0.00099227 0.00793815 0.00297680
0.03371514 0.02855871 0.00000000
0.12443516 0.10540390 0.00000000
0.25351205 0.21473962 0.00000000
0.40609610 0.34398729 0.00000000
0.56733751 0.48056826 0.00000000
0.72238660 0.61190397 0.00000000
0.85639364 0.72541577 0.00000000
0.00000000 0.00000000 0.50000000
0.12500000 0.00000000 0.50000000
0.25000000 0.00000000 0.50000000
0.37500000 0.00000000 0.50000000
0.50000000 0.00000000 0.50000000
0.62500000 0.00000000 0.50000000
0.75000000 0.00000000 0.50000000
0.87500000 0.00000000 0.50000000
0.99332452 0.00000000 0.49666226
0.00000000 0.12500000 0.50000000
0.12500000 0.12500000 0.50000000
0.25000000 0.12500000 0.50000000
0.37500000 0.12500000 0.50000000
0.50000000 0.12500000 0.50000000
0.62500000 0.12500000 0.50000000
0.74596536 0.12432756 0.49731022
0.81657171 0.11665310 0.46661240
0.82667774 0.10333472 0.41333887
0.00000000 0.25000000 0.50000000
0.12500000 0.25000000 0.50000000
0.25000000 0.25000000 0.50000000
0.37500000 0.25000000 0.50000000
0.49791813 0.24895906 0.49791813
0.58523089 0.23409235 0.46818471
0.62342608 0.20780869 0.41561738
0.60766304 0.17361802 0.34723604
0.54012150 0.13503037 0.27006075
0.00000000 0.37500000 0.50000000
0.12500000 0.37500000 0.50000000
0.24924281 0.37386423 0.49848562
0.35229462 0.35229462 0.46972615
0.41787446 0.31340584 0.41787446
0.43743819 0.26246291 0.34995055
0.40946156 0.20473078 0.27297437
0.33944041 0.14547446 0.19396594
0.23989028 0.08995885 0.11994514
0.00000000 0.49901238 0.49901238
0.11780908 0.47123632 0.47123632
0.21005490 0.42010981 0.42010981
0.26448959 0.35265279 0.35265279
0.27588528 0.27588528 0.27588528
0.24603400 0.19682720 0.19682720
0.18374786 0.12249857 0.12249857
0.10485877 0.05991930 0.05991930
0.03221875 0.01610938 0.01610938
0.00000000 0.52790380 0.42232305
0.08883561 0.44417804 0.35534245
0.13939653 0.34849134 0.27879307
0.14977118 0.24961862 0.19969490
0.12506786 0.15633482 0.12506786
0.07741496 0.07741496 0.06193197
0.02596074 0.02163395 0.01730716
0.00706280 0.00598260 0.00000000
0.07259034 0.06148829 0.00000000
0.00000000 0.42254615 0.28169742
0.05064216 0.30385292 0.20256862
0.06382637 0.19147910 0.12765273
0.04797728 0.09595455 0.06396970
0.01853949 0.02780923 0.01853949
0.00571985 0.00484505 0.00000000
0.06927533 0.05868028 0.00000000
0.17928304 0.15186328 0.00000000
0.32089323 0.27181545 0.00000000
0.00000000 0.22794241 0.13025281
0.01650804 0.11555625 0.06603214
0.00990303 0.03466060 0.01980606
0.00445987 0.00377777 0.00000000
0.06602321 0.05592554 0.00000000
0.17458507 0.14788383 0.00000000
0.31529573 0.26707405 0.00000000
0.47330543 0.40091756 0.00000000
0.63376445 0.53683579 0.00000000
0.00000000 0.04221290 0.02110645
0.00328360 0.00278140 0.00000000
0.06283469 0.05322468 0.00000000
0.16993062 0.14394124 0.00000000
0.30972165 0.26235247 0.00000000
0.46735805 0.39587978 0.00000000
0.62799007 0.53194457 0.00000000
0.77676797 0.65796816 0.00000000
0.89884204 0.76137209 0.00000000
0.00000000 0.00000000 0.62500000
0.12500000 0.00000000 0.62500000
0.25000000 0.00000000 0.62500000
0.37500000 0.00000000 0.62500000
0.50000000 0.00000000 0.62500000
0.62500000 0.00000000 0.62500000
0.75000000 0.00000000 0.62500000
0.87500000 0.00000000 0.62500000
0.97534627 0.00000000 0.60959142
0.00000000 0.12500000 0.62500000
0.12500000 0.12500000 0.62500000
0.25000000 0.12500000 0.62500000
0.37500000 0.12500000 0.62500000
0.50000000 0.12500000 0.62500000
0.62500000 0.12500000 0.62500000
0.73307347 0.12217891 0.61089456
0.78501910 0.11214559 0.56072795
0.77709973 0.09713747 0.48568732
0.00000000 0.25000000 0.62500000
0.12500000 0.25000000 0.62500000
0.25000000 0.25000000 0.62500000
0.37500000 0.25000000 0.62500000
0.48972172 0.24486086 0.61215216
0.56306797 0.22522719 0.56306797
0.58654439 0.19551480 0.48878700
0.55731791 0.15923369 0.39808422
0.47957534 0.11989383 0.29973459
0.00000000 0.37500000 0.62500000
0.12500000 0.37500000 0.62500000
0.24534550 0.36801827 0.61336374
0.33922434 0.33922434 0.56537390
0.39349157 0.29511869 0.49186444
0.40161037 0.24096622 0.40161037
0.36406386 0.18203193 0.30338657
0.28835523 0.12358081 0.20596802
0.18900758 0.07087784 0.11812974
0.00000000 0.49162316 0.61452895
0.11352906 0.45411626 0.56764531
0.19796769 0.39593539 0.49491924
0.24307542 0.32410055 0.40512568
0.24563166 0.24563166 0.30703959
0.20943597 0.16754878 0.20943597
0.14530769 0.09687179 0.12108974
0.07108625 0.04062071 0.05077589
0.01163101 0.00581551 0.00726938
0.00000000 0.49795091 0.49795091
0.08172596 0.40862978 0.40862978
0.12427732 0.31069332 0.31069332
0.12774986 0.21291643 0.21291643
0.09925935 0.12407418 0.12407418
0.05294148 0.05294148 0.05294148
0.00995189 0.00829324 0.00829324
0.02568677 0.02175820 0.00000000
0.11046844 0.09357327 0.00000000
0.00000000 0.37721667 0.31434721
0.04328180 0.25969082 0.21640900
0.05083303 0.15249909 0.12708259
0.03308572 0.06617144 0.05514286
0.00749186 0.01123779 0.00936482
0.02352749 0.01992917 0.00000000
0.10654541 0.09025023 0.00000000
0.23035377 0.19512320 0.00000000
0.38010284 0.32196948 0.00000000
0.00000000 0.18216032 0.13011453
0.01147594 0.08033155 0.05737968
0.00419348 0.01467720 0.01048371
0.02144353 0.01816393 0.00000000
0.10267759 0.08697396 0.00000000
0.22524841 0.19079866 0.00000000
0.37430623 0.31705940 0.00000000
0.53500134 0.45317763 0.00000000
0.69248402 0.58657473 0.00000000
0.00000000 0.01863909 0.01164943
0.01943561 0.01646310 0.00000000
0.09886572 0.08374508 0.00000000
0.22017889 0.18650447 0.00000000
0.36852539 0.31216270 0.00000000
0.52905548 0.44814113 0.00000000
0.68691945 0.58186120 0.00000000
0.82726753 0.70074427 0.00000000
0.93524992 0.79221171 0.00000000
0.00000000 0.00000000 0.75000000
0.12500000 0.00000000 0.75000000
0.25000000 0.00000000 0.75000000
0.37500000 0.00000000 0.75000000
0.50000000 0.00000000 0.75000000
0.62500000 0.00000000 0.75000000
0.75000000 0.00000000 0.75000000
0.87500000 0.00000000 0.75000000
0.94961679 0.00000000 0.71221256
0.00000000 0.12500000 0.75000000
0.12500000 0.12500000 0.75000000
0.25000000 0.12500000 0.75000000
0.37500000 0.12500000 0.75000000
0.50000000 0.12500000 0.75000000
0.62500000 0.12500000 0.75000000
0.71431184 0.11905198 0.71431184
0.74840438 0.10691491 0.64148945
0.72377735 0.09047217 0.54283303
0.00000000 0.25000000 0.75000000
0.12500000 0.25000000 0.75000000
0.25000000 0.25000000 0.75000000
0.37500000 0.25000000 0.75000000
0.47757462 0.23878731 0.71636194
0.53724223 0.21489690 0.64469069
0.54679817 0.18226606 0.54679817
0.50541651 0.14440471 0.43321413
0.41929156 0.10482289 0.31446868
0.00000000 0.37500000 0.75000000
0.12500000 0.37500000 0.75000000
0.23945408 0.35918111 0.71836221
0.32392827 0.32392827 0.64785653
0.36716136 0.27537102 0.55074203
0.36462396 0.21877438 0.43754876
0.31880659 0.15940329 0.31880659
0.23921978 0.10252277 0.20504554
0.14239407 0.05339777 0.10679555
0.00000000 0.48020819 0.72031230
0.10849772 0.43399087 0.65098631
0.18488806 0.36977613 0.55466419
0.22093794 0.29458392 0.44187587
0.21543416 0.21543416 0.32315123
0.17418367 0.13934693 0.20902039
0.11001317 0.07334211 0.11001317
0.04276946 0.02443969 0.03665954
0.00075595 0.00064033 0.00000000
0.00000000 0.46547002 0.55856407
0.07436582 0.37182909 0.44619489
0.10916738 0.27291846 0.32750213
0.10650786 0.17751309 0.21301572
0.07551035 0.09438794 0.11326553
0.03231797 0.03231797 0.03878157
0.00009374 0.00007812 0.00009374
0.05231959 0.04431777 0.00000000
0.15419674 0.13061371 0.00000000
0.00000000 0.33185872 0.33185872
0.03617182 0.21703094 0.21703094
0.03885069 0.11655208 0.11655208
0.02047601 0.04095201 0.04095201
0.00050715 0.00076072 0.00076072
0.04942341 0.04186454 0.00000000
0.14974509 0.12684290 0.00000000
0.28519544 0.24157731 0.00000000
0.44092473 0.37348917 0.00000000
0.00000000 0.13985102 0.11987230
0.00719506 0.05036544 0.04317038
0.00049663 0.00173819 0.00148988
0.04659488 0.03946860 0.00000000
0.14534099 0.12311237 0.00000000
0.27976209 0.23697495 0.00000000
0.43500844 0.36847773 0.00000000
0.59623027 0.50504214 0.00000000
0.74857789 0.63408953 0.00000000
0.00000000 0.00304091 0.00228068
0.04383472 0.03713059 0.00000000
0.14098518 0.11942274 0.00000000
0.27435693 0.23239645 0.00000000
0.42910022 0.36347315 0.00000000
0.59036535 0.50007421 0.00000000
0.74330258 0.62962097 0.00000000
0.87306213 0.73953497 0.00000000
0.96479428 0.81723750 0.00000000
0.00000000 0.00000000 0.87500000
0.12500000 0.00000000 0.87500000
0.25000000 0.00000000 0.87500000
0.37500000 0.00000000 0.87500000
0.50000000 0.00000000 0.87500000
0.62500000 0.00000000 0.87500000
0.75000000 0.00000000 0.87500000
0.86406523 0.00000000 0.86406523
0.91691422 0.00000000 0.80229998
0.00000000 0.12500000 0.87500000
0.12500000 0.12500000 0.87500000
0.25000000 0.12500000 0.87500000
0.37500000 0.12500000 0.87500000
0.50000000 0.12500000 0.87500000
0.61819094 0.12363819 0.86546731
0.69026411 0.11504402 0.80530816
0.70740825 0.10105832 0.70740825
0.66748863 0.08343608 0.58405256
0.00000000 0.25000000 0.87500000
0.12500000 0.25000000 0.87500000
0.25000000 0.25000000 0.87500000
0.37148643 0.24765763 0.86680168
0.46186587 0.23093294 0.80826527
0.50824010 0.20329604 0.71153611
0.50477082 0.16825694 0.58889925
0.45263970 0.12932563 0.45263970
0.36004835 0.09001209 0.31504232
0.00000000 0.37500000 0.87500000
0.12400968 0.37202907 0.86806780
0.23176305 0.34764457 0.81117070
0.30669814 0.30669814 0.71562898
0.33927292 0.25445467 0.59372759
0.32696539 0.19617923 0.45775151
0.27427346 0.13713673 0.31998569
0.19271496 0.08259212 0.19271496
0.10082787 0.03781045 0.08822439
0.00000000 0.46515647 0.81402379
0.10281231 0.41124922 0.71968615
0.17101054 0.34202108 0.59853691
0.19836898 0.26449198 0.46286094
0.18568185 0.18568185 0.32494324
0.14076340 0.11261073 0.19706878
0.07844782 0.05229855 0.09152246
0.02058922 0.01176527 0.02058922
0.01483415 0.01256539 0.00000000
0.00000000 0.43094748 0.60332644
0.06685247 0.33426237 0.46796730
0.09426126 0.23565315 0.32991439
0.08633691 0.14389485 0.20145279
0.05420992 0.06776240 0.09486736
0.01603078 0.01603078 0.02244309
0.01309462 0.01109191 0.00000000
0.08613824 0.07296415 0.00000000
0.20295218 0.17191243 0.00000000
0.00000000 0.28705591 0.33489856
0.02940949 0.17645694 0.20586643
0.02807386 0.08422159 0.09825852
0.01043992 0.02087983 0.02435981
0.01143443 0.00968564 0.00000000
0.08258457 0.06995399 0.00000000
0.19805133 0.16776113 0.00000000
0.34298500 0.29052848 0.00000000
0.50253582 0.42567742 0.00000000
0.00000000 0.10169531 0.10169531
0.00376268 0.02633879 0.02633879
0.00985432 0.00834719 0.00000000
0.07909088 0.06699462 0.00000000
0.19319038 0.16364361 0.00000000
0.33730307 0.28571555 0.00000000
0.49657926 0.42063186 0.00000000
0.65616918 0.55581391 0.00000000
0.80122310 0.67868310 0.00000000
0.00835503 0.00707721 0.00000000
0.07565790 0.06408670 0.00000000
0.18837003 0.15956050 0.00000000
0.33164167 0.28092003 0.00000000
0.49062312 0.41558665 0.00000000
0.65046459 0.55098176 0.00000000
0.79631639 0.67452681 0.00000000
0.91332877 0.77364320 0.00000000
0.98665196 0.83575225 0.00000000
0.00000000 0.00000000 1.00000000
0.12500000 0.00000000 1.00000000
0.25000000 0.00000000 1.00000000
0.37500000 0.00000000 1.00000000
0.50000000 0.00000000 1.00000000
0.62500000 0.00000000 1.00000000
0.75000000 0.00000000 1.00000000
0.84569603 0.00000000 0.96650976
0.87801665 0.00000000 0.87801665
0.00000000 0.12500000 1.00000000
0.12500000 0.12500000 1.00000000
0.25000000 0.12500000 1.00000000
0.37500000 0.12500000 1.00000000
0.50000000 0.12500000 1.00000000
0.60554558 0.12110912 0.96887296
0.66151381 0.11025231 0.88201845
0.66271168 0.09467310 0.75738478
0.60901183 0.07612648 0.60901183
0.00000000 0.25000000 1.00000000
0.12500000 0.25000000 1.00000000
0.25000000 0.25000000 1.00000000
0.36418724 0.24279149 0.97116596
0.44298455 0.22149228 0.88596910
0.47654784 0.19061914 0.76247656
0.46104616 0.15368205 0.61472821
0.39966843 0.11419098 0.45676392
0.30262381 0.07565595 0.30262381
0.00000000 0.37500000 1.00000000
0.12167352 0.36502054 0.97338814
0.22246699 0.33370048 0.88986796
0.28782579 0.28782579 0.76753545
0.31021535 0.23266152 0.62043071
0.28912097 0.17347258 0.46259356
0.23104799 0.11552399 0.30806398
0.14952163 0.06408070 0.17088187
0.06508720 0.02440770 0.06508720
0.00000000 0.44685712 0.89371425
0.09657011 0.38628045 0.77256089
0.15652968 0.31305936 0.62611872
0.17566037 0.23421383 0.46842766
0.15676379 0.15676379 0.31352758
0.10966159 0.08772928 0.17545855
0.05119528 0.03413019 0.06826037
0.00522641 0.00298652 0.00597304
0.03735438 0.03164136 0.00000000
0.00000000 0.39486969 0.63179147
0.05928319 0.29641595 0.47426552
0.07975350 0.19938377 0.31901401
0.06752888 0.11254814 0.18007702
0.03574720 0.04468400 0.07149440
0.00456627 0.00456627 0.00730604
0.03483615 0.02950826 0.00000000
0.12631966 0.10700019 0.00000000
0.25591174 0.21677230 0.00000000
0.00000000 0.24339192 0.32452255
0.02309207 0.13855241 0.18473655
0.01869711 0.05609134 0.07478845
0.00326930 0.00653860 0.00871813
0.03238959 0.02743589 0.00000000
0.12218792 0.10350036 0.00000000
0.25064111 0.21230777 0.00000000
0.40289944 0.34127954 0.00000000
0.56411314 0.47783703 0.00000000
0.00000000 0.06837419 0.07814193
0.00127608 0.00893253 0.01020861
0.03001545 0.02542485 0.00000000
0.11810849 0.10004484 0.00000000
0.24540271 0.20787053 0.00000000
0.39704835 0.33632332 0.00000000
0.55819571 0.47282460 0.00000000
0.71399504 0.60479581 0.00000000
0.84959656 0.71965826 0.00000000
0.02771446 0.02347578 0.00000000
0.11408212 0.09663427 0.00000000
0.24019726 0.20346120 0.00000000
0.39121014 0.33137801 0.00000000
0.55227107 0.46780607 0.00000000
0.70853019 0.60016680 0.00000000
0.84513789 0.71588153 0.00000000
0.94724441 0.80237174 0.00000000
1.00000000 0.84705883 0.00000000
