input/21bf75.cube
# VEGAS Pro LUT
TITLE "X_Got_Sunflowered"
LUT_3D_SIZE 5
0.00000000 0.00000000 0.00000000
0.25000000 0.00000000 0.00000000
0.50000000 0.00000000 0.00000000
0.75000000 0.00000000 0.00000000
1.00000000 0.00000000 0.00000000
0.00000000 0.25000000 0.00000000
0.25000000 0.25000000 0.00000000
0.50000000 0.25000000 0.00000000
0.73063385 0.24354462 0.00000000
0.76936680 0.19234170 0.00000000
0.00000000 0.50000000 0.00000000
0.24458875 0.48917750 0.00000000
0.38967922 0.38967922 0.00000000
0.35729188 0.23819458 0.00000000
0.18176669 0.09088334 0.00000000
0.00000000 0.59190696 0.00000000
0.12201877 0.36605632 0.00000000
0.09557772 0.14336658 0.00000000
0.00807743 0.00807743 0.00000000
0.11663818 0.09879940 0.00000000
0.00000000 0.20070189 0.00000000
0.00350977 0.01403910 0.00000000
0.10867845 0.09205704 0.00000000
0.38327101 0.32465309 0.00000000
0.70103550 0.59381831 0.00000000
0.00000000 0.00000000 0.25000000
0.25000000 0.00000000 0.25000000
0.50000000 0.00000000 0.25000000
0.75000000 0.00000000 0.25000000
1.00000000 0.00000000 0.25000000
0.00000000 0.25000000 0.25000000
0.25000000 0.25000000 0.25000000
0.50000000 0.25000000 0.25000000
0.68626094 0.22875366 0.22875366
0.65888834 0.16472208 0.16472208
0.00000000 0.50000000 0.25000000
0.23047391 0.46094781 0.23047391
0.33500451 0.33500451 0.16750225
0.26773036 0.17848691 0.08924346
0.09510958 0.04755479 0.02377740
0.00000000 0.51078516 0.17026173
0.09206782 0.27620345 0.09206782
0.05126724 0.07690085 0.02563362
0.01581615 0.01339721 0.00000000
0.21060294 0.17839308 0.00000000
0.00000000 0.11017501 0.02754375
0.01233011 0.01044433 0.00000000
0.20071962 0.17002134 0.00000000
0.50578481 0.42842948 0.00000000
0.80872768 0.68503994 0.00000000
0.00000000 0.00000000 0.50000000
0.25000000 0.00000000 0.50000000
0.50000000 0.00000000 0.50000000
0.75000000 0.00000000 0.50000000
0.99332452 0.00000000 0.49666226
0.00000000 0.25000000 0.50000000
0.25000000 0.25000000 0.50000000
0.49791813 0.24895906 0.49791813
0.62342608 0.20780869 0.41561738
0.54012150 0.13503037 0.27006075
0.00000000 0.49901238 0.49901238
0.21005490 0.42010981 0.42010981
0.27588528 0.27588528 0.27588528
0.18374786 0.12249857 0.12249857
0.03221875 0.01610938 0.01610938
0.00000000 0.42254615 0.28169742
0.06382637 0.19147910 0.12765273
0.01853949 0.02780923 0.01853949
0.06927533 0.05868028 0.00000000
0.32089323 0.27181545 0.00000000
0.00000000 0.04221290 0.02110645
0.06283469 0.05322468 0.00000000
0.30972165 0.26235247 0.00000000
0.62799007 0.53194457 0.00000000
0.89884204 0.76137209 0.00000000
0.00000000 0.00000000 0.75000000
0.25000000 0.00000000 0.75000000
0.50000000 0.00000000 0.75000000
0.75000000 0.00000000 0.75000000
0.94961679 0.00000000 0.71221256
0.00000000 0.25000000 0.75000000
0.25000000 0.25000000 0.75000000
0.47757462 0.23878731 0.71636194
0.54679817 0.18226606 0.54679817
0.41929156 0.10482289 0.31446868
0.00000000 0.48020819 0.72031230
0.18488806 0.36977613 0.55466419
0.21543416 0.21543416 0.32315123
0.11001317 0.07334211 0.11001317
0.00075595 0.00064033 0.00000000
0.00000000 0.33185872 0.33185872
0.03885069 0.11655208 0.11655208
0.00050715 0.00076072 0.00076072
0.14974509 0.12684290 0.00000000
0.44092473 0.37348917 0.00000000
0.00000000 0.00304091 0.00228068
0.14098518 0.11942274 0.00000000
0.42910022 0.36347315 0.00000000
0.74330258 0.62962097 0.00000000
0.96479428 0.81723750 0.00000000
0.00000000 0.00000000 1.00000000
0.25000000 0.00000000 1.00000000
0.50000000 0.00000000 1.00000000
0.75000000 0.00000000 1.00000000
0.87801665 0.00000000 0.87801665
0.00000000 0.25000000 1.00000000
0.25000000 0.25000000 1.00000000
0.44298455 0.22149228 0.88596910
0.46104616 0.15368205 0.61472821
0.30262381 0.07565595 0.30262381
0.00000000 0.44685712 0.89371425
0.15652968 0.31305936 0.62611872
0.15676379 0.15676379 0.31352758
0.05119528 0.03413019 0.06826037
0.03735438 0.03164136 0.00000000
0.00000000 0.24339192 0.32452255
0.01869711 0.05609134 0.07478845
0.03238959 0.02743589 0.00000000
0.25064111 0.21230777 0.00000000
0.56411314 0.47783703 0.00000000
0.02771446 0.02347578 0.00000000
0.24019726 0.20346120 0.00000000
0.55227107 0.46780607 0.00000000
0.84513789 0.71588153 0.00000000
1.00000000 0.84705883 0.00000000
