input/hx63fz.cube
# VEGAS Pro LUT
TITLE "Pink!"
LUT_3D_SIZE 33
0.00000000 0.00000000 0.00000000
0.03125000 0.00000000 0.03125000
0.06250000 0.00000000 0.06250000
0.09375000 0.00000000 0.09375000
0.12500000 0.00000000 0.12500000
0.15625000 0.00000000 0.15625000
0.18750000 0.00000000 0.18750000
0.21875000 0.00000000 0.21875000
0.25000000 0.00000000 0.25000000
0.28125000 0.00000000 0.28125000
0.31250000 0.00000000 0.31250000
0.34375000 0.00000000 0.34375000
0.37500000 0.00000000 0.37500000
0.40625000 0.00000000 0.40625000
0.43750000 0.00000000 0.43750000
0.46875000 0.00000000 0.46875000
0.50000000 0.00000000 0.50000000
0.53125000 0.00000000 0.53125000
0.56250000 0.00000000 0.56250000
0.59375000 0.00000000 0.59375000
0.62500000 0.00000000 0.62500000
0.65625000 0.00000000 0.65625000
0.68750000 0.00000000 0.68750000
0.71875000 0.00000000 0.71875000
0.75000000 0.00000000 0.75000000
0.78125000 0.00000000 0.78125000
0.81250000 0.00000000 0.81250000
0.84375000 0.00000000 0.84375000
0.87500000 0.00000000 0.87500000
0.90625000 0.00000000 0.90625000
0.93750000 0.00000000 0.93750000
0.96875000 0.00000000 0.96875000
1.00000000 0.00000000 1.00000000
0.03125000 0.03125000 0.03125000
0.03125000 0.01427084 0.03125000
0.06250000 0.01156250 0.06250000
0.09375000 0.00885418 0.09375000
0.12500000 0.00614585 0.12500000
0.15625000 0.00343752 0.15625000
0.18750000 0.00072915 0.18750000
0.21875000 0.00000000 0.21875000
0.25000000 0.00000000 0.25000000
0.28125000 0.00000000 0.28125000
0.31250000 0.00000000 0.31250000
0.34375000 0.00000000 0.34375000
0.37500000 0.00000000 0.37500000
0.40625000 0.00000000 0.40625000
0.43750000 0.00000000 0.43750000
0.46875000 0.00000000 0.46875000
0.50000000 0.00000000 0.50000000
0.53125000 0.00000000 0.53125000
0.56250000 0.00000000 0.56250000
0.59375000 0.00000000 0.59375000
0.62500000 0.00000000 0.62500000
0.65625000 0.00000000 0.65625000
0.68750000 0.00000000 0.68750000
0.71875000 0.00000000 0.71875000
0.75000000 0.00000000 0.75000000
0.78125000 0.00000000 0.78125000
0.81250000 0.00000000 0.81250000
0.84375000 0.00000000 0.84375000
0.87500000 0.00000000 0.87500000
0.90625000 0.00000000 0.90625000
0.93750000 0.00000000 0.93750000
0.96875000 0.00000000 0.96875000
1.00000000 0.00000000 1.00000000
0.06250000 0.06250000 0.06250000
0.06250000 0.04552084 0.06250000
0.06250000 0.02854168 0.06250000
0.09375000 0.02583334 0.09375000
0.12500000 0.02312500 0.12500000
0.15625000 0.02041668 0.15625000
0.18750000 0.01770836 0.18750000
0.21875000 0.01500002 0.21875000
0.25000000 0.01229170 0.25000000
0.28125000 0.00958338 0.28125000
0.31250000 0.00687504 0.31250000
0.34375000 0.00416666 0.34375000
0.37500000 0.00145829 0.37500000
0.40625000 0.00000000 0.40625000
0.43750000 0.00000000 0.43750000
0.46875000 0.00000000 0.46875000
0.50000000 0.00000000 0.50000000
0.53125000 0.00000000 0.53125000
0.56250000 0.00000000 0.56250000
0.59375000 0.00000000 0.59375000
0.62500000 0.00000000 0.62500000
0.65625000 0.00000000 0.65625000
0.68750000 0.00000000 0.68750000
0.71875000 0.00000000 0.71875000
0.75000000 0.00000000 0.75000000
0.78125000 0.00000000 0.78125000
0.81250000 0.00000000 0.81250000
0.84375000 0.00000000 0.84375000
0.87500000 0.00000000 0.87500000
0.90625000 0.00000000 0.90625000
0.93750000 0.00000000 0.93750000
0.96875000 0.00000000 0.96875000
1.00000000 0.00000000 1.00000000
0.09375000 0.09375000 0.09375000
0.09375000 0.07677084 0.09375000
0.09375000 0.05979168 0.09375000
0.09375000 0.04281252 0.09375000
0.12500000 0.04010417 0.12500000
0.15625000 0.03739585 0.15625000
0.18750000 0.03468750 0.18750000
0.21875000 0.03197920 0.21875000
0.25000000 0.02927086 0.25000000
0.28125000 0.02656254 0.28125000
0.31250000 0.02385421 0.31250000
0.34375000 0.02114587 0.34375000
0.37500000 0.01843755 0.37500000
0.40625000 0.01572916 0.40625000
0.43750000 0.01302084 0.43750000
0.46875000 0.01031248 0.46875000
0.50000000 0.00760421 0.50000000
0.53125000 0.00489582 0.53125000
0.56250000 0.00218758 0.56250000
0.59375000 0.00000000 0.59375000
0.62500000 0.00000000 0.62500000
0.65625000 0.00000000 0.65625000
0.68750000 0.00000000 0.68750000
0.71875000 0.00000000 0.71875000
0.75000000 0.00000000 0.75000000
0.78125000 0.00000000 0.78125000
0.81250000 0.00000000 0.81250000
0.84375000 0.00000000 0.84375000
0.87500000 0.00000000 0.87500000
0.90625000 0.00000000 0.90625000
0.93750000 0.00000000 0.93750000
0.96875000 0.00000000 0.96875000
1.00000000 0.00000000 1.00000000
0.12500000 0.12500000 0.12500000
0.12500000 0.10802085 0.12500000
0.12500000 0.09104168 0.12500000
0.12500000 0.07406251 0.12500000
0.12500000 0.05708335 0.12500000
0.15625000 0.05437501 0.15625000
0.18750000 0.05166668 0.18750000
0.21875000 0.04895835 0.21875000
0.25000000 0.04625000 0.25000000
0.28125000 0.04354171 0.28125000
0.31250000 0.04083335 0.31250000
0.34375000 0.03812509 0.34375000
0.37500000 0.03541671 0.37500000
0.40625000 0.03270836 0.40625000
0.43750000 0.03000003 0.43750000
0.46875000 0.02729170 0.46875000
0.50000000 0.02458340 0.50000000
0.53125000 0.02187505 0.53125000
0.56250000 0.01916676 0.56250000
0.59375000 0.01645835 0.59375000
0.62500000 0.01375008 0.62500000
0.65625000 0.01104169 0.65625000
0.68750000 0.00833333 0.68750000
0.71875000 0.00562504 0.71875000
0.75000000 0.00291659 0.75000000
0.78125000 0.00020848 0.78125000
0.81250000 0.00000000 0.81250000
0.84375000 0.00000000 0.84375000
0.87500000 0.00000000 0.87500000
0.90625000 0.00000000 0.90625000
0.93750000 0.00000000 0.93750000
0.96875000 0.00000000 0.96875000
1.00000000 0.00000000 1.00000000
0.15625000 0.15625000 0.15625000
0.15625000 0.13927086 0.15625000
0.15625000 0.12229168 0.15625000
0.15625000 0.10531252 0.15625000
0.15625000 0.08833335 0.15625000
0.15625000 0.07135420 0.15625000
0.18750000 0.06864585 0.18750000
0.21875000 0.06593753 0.21875000
0.25000000 0.06322920 0.25000000
0.28125000 0.06052086 0.28125000
0.31250000 0.05781250 0.31250000
0.34375000 0.05510424 0.34375000
0.37500000 0.05239584 0.37500000
0.40625000 0.04968749 0.40625000
0.43750000 0.04697921 0.43750000
0.46875000 0.04427090 0.46875000
0.50000000 0.04156250 0.50000000
0.53125000 0.03885425 0.53125000
0.56250000 0.03614588 0.56250000
0.59375000 0.03343756 0.59375000
0.62500000 0.03072925 0.62500000
0.65625000 0.02802093 0.65625000
0.68750000 0.02531260 0.68750000
0.71875000 0.02260420 0.71875000
0.75000000 0.01989587 0.75000000
0.78125000 0.01718760 0.78125000
0.81250000 0.01447933 0.81250000
0.84375000 0.01177101 0.84375000
0.87500000 0.00906255 0.87500000
0.90625000 0.00635426 0.90625000
0.93750000 0.00364574 0.93750000
0.96875000 0.00093767 0.96875000
1.00000000 0.00000000 1.00000000
0.18750000 0.18750000 0.18750000
0.18750000 0.17052087 0.18750000
0.18750000 0.15354168 0.18750000
0.18750000 0.13656251 0.18750000
0.18750000 0.11958337 0.18750000
0.18750000 0.10260418 0.18750000
0.18750000 0.08562503 0.18750000
0.21875000 0.08291667 0.21875000
0.25000000 0.08020835 0.25000000
0.28125000 0.07750002 0.28125000
0.31250000 0.07479170 0.31250000
0.34375000 0.07208332 0.34375000
0.37500000 0.06937500 0.37500000
0.40625000 0.06666662 0.40625000
0.43750000 0.06395841 0.43750000
0.46875000 0.06125003 0.46875000
0.50000000 0.05854172 0.50000000
0.53125000 0.05583335 0.53125000
0.56250000 0.05312507 0.56250000
0.59375000 0.05041678 0.59375000
0.62500000 0.04770841 0.62500000
0.65625000 0.04500005 0.65625000
0.68750000 0.04229175 0.68750000
0.71875000 0.03958335 0.71875000
0.75000000 0.03687510 0.75000000
0.78125000 0.03416664 0.78125000
0.81250000 0.03145831 0.81250000
0.84375000 0.02875015 0.84375000
0.87500000 0.02604167 0.87500000
0.90625000 0.02333344 0.90625000
0.93750000 0.02062496 0.93750000
0.96875000 0.01791665 0.96875000
1.00000000 0.01520842 1.00000000
0.21875000 0.21875000 0.21875000
0.21875000 0.20177086 0.21875000
0.21875000 0.18479168 0.21875000
0.21875000 0.16781251 0.21875000
0.21875000 0.15083338 0.21875000
0.21875000 0.13385418 0.21875000
0.21875000 0.11687501 0.21875000
0.21875000 0.09989586 0.21875000
0.25000000 0.09718750 0.25000000
0.28125000 0.09447917 0.28125000
0.31250000 0.09177087 0.31250000
0.34375000 0.08906247 0.34375000
0.37500000 0.08635417 0.37500000
0.40625000 0.08364589 0.40625000
0.43750000 0.08093750 0.43750000
0.46875000 0.07822923 0.46875000
0.50000000 0.07552090 0.50000000
0.53125000 0.07281248 0.53125000
0.56250000 0.07010420 0.56250000
0.59375000 0.06739590 0.59375000
0.62500000 0.06468754 0.62500000
0.65625000 0.06197925 0.65625000
0.68750000 0.05927090 0.68750000
0.71875000 0.05656250 0.71875000
0.75000000 0.05385406 0.75000000
0.78125000 0.05114591 0.78125000
0.81250000 0.04843759 0.81250000
0.84375000 0.04572933 0.84375000
0.87500000 0.04302095 0.87500000
0.90625000 0.04031267 0.90625000
0.93750000 0.03760418 0.93750000
0.96875000 0.03489597 0.96875000
1.00000000 0.03218752 1.00000000
0.25000000 0.25000000 0.25000000
0.25000000 0.23302084 0.25000000
0.25000000 0.21604170 0.25000000
0.25000000 0.19906253 0.25000000
0.25000000 0.18208335 0.25000000
0.25000000 0.16510421 0.25000000
0.25000000 0.14812502 0.25000000
0.25000000 0.13114585 0.25000000
0.25000000 0.11416671 0.25000000
0.28125000 0.11145832 0.28125000
0.31250000 0.10875002 0.31250000
0.34375000 0.10604168 0.34375000
0.37500000 0.10333335 0.37500000
0.40625000 0.10062502 0.40625000
0.43750000 0.09791670 0.43750000
0.46875000 0.09520836 0.46875000
0.50000000 0.09250000 0.50000000
0.53125000 0.08979169 0.53125000
0.56250000 0.08708341 0.56250000
0.59375000 0.08437508 0.59375000
0.62500000 0.08166671 0.62500000
0.65625000 0.07895837 0.65625000
0.68750000 0.07625017 0.68750000
0.71875000 0.07354170 0.71875000
0.75000000 0.07083343 0.75000000
0.78125000 0.06812508 0.78125000
0.81250000 0.06541672 0.81250000
0.84375000 0.06270847 0.84375000
0.87500000 0.06000007 0.87500000
0.90625000 0.05729169 0.90625000
0.93750000 0.05458340 0.93750000
0.96875000 0.05187512 0.96875000
1.00000000 0.04916680 1.00000000
0.28125000 0.28125000 0.28125000
0.28125000 0.26427084 0.28125000
0.28125000 0.24729165 0.28125000
0.28125000 0.23031253 0.28125000
0.28125000 0.21333334 0.28125000
0.28125000 0.19635423 0.28125000
0.28125000 0.17937505 0.28125000
0.28125000 0.16239588 0.28125000
0.28125000 0.14541669 0.28125000
0.28125000 0.12843755 0.28125000
0.31250000 0.12572922 0.31250000
0.34375000 0.12302084 0.34375000
0.37500000 0.12031252 0.37500000
0.40625000 0.11760422 0.40625000
0.43750000 0.11489587 0.43750000
0.46875000 0.11218756 0.46875000
0.50000000 0.10947919 0.50000000
0.53125000 0.10677092 0.53125000
0.56250000 0.10406250 0.56250000
0.59375000 0.10135420 0.59375000
0.62500000 0.09864584 0.62500000
0.65625000 0.09593761 0.65625000
0.68750000 0.09322920 0.68750000
0.71875000 0.09052085 0.71875000
0.75000000 0.08781257 0.75000000
0.78125000 0.08510421 0.78125000
0.81250000 0.08239584 0.81250000
0.84375000 0.07968761 0.84375000
0.87500000 0.07697914 0.87500000
0.90625000 0.07427087 0.90625000
0.93750000 0.07156262 0.93750000
0.96875000 0.06885427 0.96875000
1.00000000 0.06614590 1.00000000
0.31250000 0.31250000 0.31250000
0.31250000 0.29552087 0.31250000
0.31250000 0.27854171 0.31250000
0.31250000 0.26156253 0.31250000
0.31250000 0.24458337 0.31250000
0.31250000 0.22760420 0.31250000
0.31250000 0.21062504 0.31250000
0.31250000 0.19364585 0.31250000
0.31250000 0.17666671 0.31250000
0.31250000 0.15968752 0.31250000
0.31250000 0.14270839 0.31250000
0.34375000 0.14000008 0.34375000
0.37500000 0.13729170 0.37500000
0.40625000 0.13458341 0.40625000
0.43750000 0.13187507 0.43750000
0.46875000 0.12916669 0.46875000
0.50000000 0.12645841 0.50000000
0.53125000 0.12375011 0.53125000
0.56250000 0.12104172 0.56250000
0.59375000 0.11833341 0.59375000
0.62500000 0.11562500 0.62500000
0.65625000 0.11291685 0.65625000
0.68750000 0.11020847 0.68750000
0.71875000 0.10750000 0.71875000
0.75000000 0.10479167 0.75000000
0.78125000 0.10208338 0.78125000
0.81250000 0.09937497 0.81250000
0.84375000 0.09666680 0.84375000
0.87500000 0.09395842 0.87500000
0.90625000 0.09125011 0.90625000
0.93750000 0.08854179 0.93750000
0.96875000 0.08583342 0.96875000
1.00000000 0.08312500 1.00000000
0.34375000 0.34375000 0.34375000
0.34375000 0.32677087 0.34375000
0.34375000 0.30979168 0.34375000
0.34375000 0.29281256 0.34375000
0.34375000 0.27583334 0.34375000
0.34375000 0.25885418 0.34375000
0.34375000 0.24187507 0.34375000
0.34375000 0.22489588 0.34375000
0.34375000 0.20791669 0.34375000
0.34375000 0.19093752 0.34375000
0.34375000 0.17395836 0.34375000
0.34375000 0.15697922 0.34375000
0.37500000 0.15427087 0.37500000
0.40625000 0.15156254 0.40625000
0.43750000 0.14885417 0.43750000
0.46875000 0.14614588 0.46875000
0.50000000 0.14343750 0.50000000
0.53125000 0.14072925 0.53125000
0.56250000 0.13802090 0.56250000
0.59375000 0.13531253 0.59375000
0.62500000 0.13260427 0.62500000
0.65625000 0.12989581 0.65625000
0.68750000 0.12718751 0.68750000
0.71875000 0.12447932 0.71875000
0.75000000 0.12177090 0.75000000
0.78125000 0.11906270 0.78125000
0.81250000 0.11635424 0.81250000
0.84375000 0.11364593 0.84375000
0.87500000 0.11093754 0.87500000
0.90625000 0.10822928 0.90625000
0.93750000 0.10552084 0.93750000
0.96875000 0.10281257 0.96875000
1.00000000 0.10010427 1.00000000
0.37500000 0.37500000 0.37500000
0.37500000 0.35802090 0.37500000
0.37500000 0.34104174 0.37500000
0.37500000 0.32406256 0.37500000
0.37500000 0.30708337 0.37500000
0.37500000 0.29010427 0.37500000
0.37500000 0.27312502 0.37500000
0.37500000 0.25614589 0.37500000
0.37500000 0.23916674 0.37500000
0.37500000 0.22218753 0.37500000
0.37500000 0.20520836 0.37500000
0.37500000 0.18822919 0.37500000
0.37500000 0.17125006 0.37500000
0.40625000 0.16854167 0.40625000
0.43750000 0.16583334 0.43750000
0.46875000 0.16312502 0.46875000
0.50000000 0.16041669 0.50000000
0.53125000 0.15770835 0.53125000
0.56250000 0.15500003 0.56250000
0.59375000 0.15229174 0.59375000
0.62500000 0.14958340 0.62500000
0.65625000 0.14687505 0.65625000
0.68750000 0.14416665 0.68750000
0.71875000 0.14145835 0.71875000
0.75000000 0.13875000 0.75000000
0.78125000 0.13604182 0.78125000
0.81250000 0.13333324 0.81250000
0.84375000 0.13062513 0.84375000
0.87500000 0.12791681 0.87500000
0.90625000 0.12520851 0.90625000
0.93750000 0.12250006 0.93750000
0.96875000 0.11979190 0.96875000
1.00000000 0.11708343 1.00000000
0.40625000 0.40625000 0.40625000
0.40625000 0.38927090 0.40625000
0.40625000 0.37229171 0.40625000
0.40625000 0.35531259 0.40625000
0.40625000 0.33833337 0.40625000
0.40625000 0.32135421 0.40625000
0.40625000 0.30437508 0.40625000
0.40625000 0.28739589 0.40625000
0.40625000 0.27041668 0.40625000
0.40625000 0.25343752 0.40625000
0.40625000 0.23645835 0.40625000
0.40625000 0.21947922 0.40625000
0.40625000 0.20250005 0.40625000
0.40625000 0.18552090 0.40625000
0.43750000 0.18281254 0.43750000
0.46875000 0.18010421 0.46875000
0.50000000 0.17739591 0.50000000
0.53125000 0.17468758 0.53125000
0.56250000 0.17197925 0.56250000
0.59375000 0.16927083 0.59375000
0.62500000 0.16656257 0.62500000
0.65625000 0.16385424 0.65625000
0.68750000 0.16114593 0.68750000
0.71875000 0.15843762 0.71875000
0.75000000 0.15572910 0.75000000
0.78125000 0.15302081 0.78125000
0.81250000 0.15031250 0.81250000
0.84375000 0.14760426 0.84375000
0.87500000 0.14489588 0.87500000
0.90625000 0.14218754 0.90625000
0.93750000 0.13947928 0.93750000
0.96875000 0.13677105 0.96875000
1.00000000 0.13406253 1.00000000
0.43750000 0.43750000 0.43750000
0.43750000 0.42052090 0.43750000
0.43750000 0.40354171 0.43750000
0.43750000 0.38656256 0.43750000
0.43750000 0.36958337 0.43750000
0.43750000 0.35260418 0.43750000
0.43750000 0.33562502 0.43750000
0.43750000 0.31864586 0.43750000
0.43750000 0.30166677 0.43750000
0.43750000 0.28468755 0.43750000
0.43750000 0.26770836 0.43750000
0.43750000 0.25072923 0.43750000
0.43750000 0.23375002 0.43750000
0.43750000 0.21677083 0.43750000
0.43750000 0.19979173 0.43750000
0.46875000 0.19708335 0.46875000
0.50000000 0.19437501 0.50000000
0.53125000 0.19166678 0.53125000
0.56250000 0.18895835 0.56250000
0.59375000 0.18625005 0.59375000
0.62500000 0.18354174 0.62500000
0.65625000 0.18083337 0.65625000
0.68750000 0.17812495 0.68750000
0.71875000 0.17541665 0.71875000
0.75000000 0.17270833 0.75000000
0.78125000 0.16999999 0.78125000
0.81250000 0.16729178 0.81250000
0.84375000 0.16458340 0.84375000
0.87500000 0.16187501 0.87500000
0.90625000 0.15916672 0.90625000
0.93750000 0.15645845 0.93750000
0.96875000 0.15375003 0.96875000
1.00000000 0.15104181 1.00000000
0.46875000 0.46875000 0.46875000
0.46875000 0.45177087 0.46875000
0.46875000 0.43479177 0.46875000
0.46875000 0.41781259 0.46875000
0.46875000 0.40083337 0.46875000
0.46875000 0.38385421 0.46875000
0.46875000 0.36687505 0.46875000
0.46875000 0.34989589 0.46875000
0.46875000 0.33291671 0.46875000
0.46875000 0.31593755 0.46875000
0.46875000 0.29895842 0.46875000
0.46875000 0.28197923 0.46875000
0.46875000 0.26500005 0.46875000
0.46875000 0.24802089 0.46875000
0.46875000 0.23104174 0.46875000
0.46875000 0.21406257 0.46875000
0.50000000 0.21135420 0.50000000
0.53125000 0.20864579 0.53125000
0.56250000 0.20593756 0.56250000
0.59375000 0.20322916 0.59375000
0.62500000 0.20052087 0.62500000
0.65625000 0.19781260 0.65625000
0.68750000 0.19510423 0.68750000
0.71875000 0.19239581 0.71875000
0.75000000 0.18968761 0.75000000
0.78125000 0.18697926 0.78125000
0.81250000 0.18427090 0.81250000
0.84375000 0.18156259 0.84375000
0.87500000 0.17885429 0.87500000
0.90625000 0.17614596 0.90625000
0.93750000 0.17343751 0.93750000
0.96875000 0.17072918 0.96875000
1.00000000 0.16802090 1.00000000
0.50000000 0.50000000 0.50000000
0.50000000 0.48302090 0.50000000
0.50000000 0.46604168 0.50000000
0.50000000 0.44906256 0.50000000
0.50000000 0.43208340 0.50000000
0.50000000 0.41510421 0.50000000
0.50000000 0.39812505 0.50000000
0.50000000 0.38114589 0.50000000
0.50000000 0.36416671 0.50000000
0.50000000 0.34718755 0.50000000
0.50000000 0.33020842 0.50000000
0.50000000 0.31322920 0.50000000
0.50000000 0.29625005 0.50000000
0.50000000 0.27927089 0.50000000
0.50000000 0.26229170 0.50000000
0.50000000 0.24531254 0.50000000
0.50000000 0.22833341 0.50000000
0.53125000 0.22562502 0.53125000
0.56250000 0.22291665 0.56250000
0.59375000 0.22020838 0.59375000
0.62500000 0.21750003 0.62500000
0.65625000 0.21479169 0.65625000
0.68750000 0.21208337 0.68750000
0.71875000 0.20937499 0.71875000
0.75000000 0.20666671 0.75000000
0.78125000 0.20395844 0.78125000
0.81250000 0.20125003 0.81250000
0.84375000 0.19854172 0.84375000
0.87500000 0.19583340 0.87500000
0.90625000 0.19312513 0.90625000
0.93750000 0.19041672 0.93750000
0.96875000 0.18770850 0.96875000
1.00000000 0.18500000 1.00000000
0.53125000 0.53125000 0.53125000
0.53125000 0.51427084 0.53125000
0.53125000 0.49729168 0.53125000
0.53125000 0.48031262 0.53125000
0.53125000 0.46333340 0.53125000
0.53125000 0.44635418 0.53125000
0.53125000 0.42937505 0.53125000
0.53125000 0.41239595 0.53125000
0.53125000 0.39541674 0.53125000
0.53125000 0.37843752 0.53125000
0.53125000 0.36145833 0.53125000
0.53125000 0.34447923 0.53125000
0.53125000 0.32750005 0.53125000
0.53125000 0.31052092 0.53125000
0.53125000 0.29354167 0.53125000
0.53125000 0.27656263 0.53125000
0.53125000 0.25958338 0.53125000
0.53125000 0.24260426 0.53125000
0.56250000 0.23989587 0.56250000
0.59375000 0.23718749 0.59375000
0.62500000 0.23447916 0.62500000
0.65625000 0.23177093 0.65625000
0.68750000 0.22906253 0.68750000
0.71875000 0.22635429 0.71875000
0.75000000 0.22364594 0.75000000
0.78125000 0.22093756 0.78125000
0.81250000 0.21822931 0.81250000
0.84375000 0.21552086 0.84375000
0.87500000 0.21281263 0.87500000
0.90625000 0.21010420 0.90625000
0.93750000 0.20739594 0.93750000
0.96875000 0.20468765 0.96875000
1.00000000 0.20197928 1.00000000
0.56250000 0.56250000 0.56250000
0.56250000 0.54552090 0.56250000
0.56250000 0.52854168 0.56250000
0.56250000 0.51156253 0.56250000
0.56250000 0.49458331 0.56250000
0.56250000 0.47760427 0.56250000
0.56250000 0.46062505 0.56250000
0.56250000 0.44364589 0.56250000
0.56250000 0.42666668 0.56250000
0.56250000 0.40968755 0.56250000
0.56250000 0.39270845 0.56250000
0.56250000 0.37572917 0.56250000
0.56250000 0.35875010 0.56250000
0.56250000 0.34177086 0.56250000
0.56250000 0.32479176 0.56250000
0.56250000 0.30781254 0.56250000
0.56250000 0.29083338 0.56250000
0.56250000 0.27385417 0.56250000
0.56250000 0.25687510 0.56250000
0.59375000 0.25416672 0.59375000
0.62500000 0.25145844 0.62500000
0.65625000 0.24875000 0.65625000
0.68750000 0.24604169 0.68750000
0.71875000 0.24333343 0.71875000
0.75000000 0.24062504 0.75000000
0.78125000 0.23791674 0.78125000
0.81250000 0.23520844 0.81250000
0.84375000 0.23250005 0.84375000
0.87500000 0.22979175 0.87500000
0.90625000 0.22708338 0.90625000
0.93750000 0.22437511 0.93750000
0.96875000 0.22166663 0.96875000
1.00000000 0.21895838 1.00000000
0.59375000 0.59375000 0.59375000
0.59375000 0.57677090 0.59375000
0.59375000 0.55979168 0.59375000
0.59375000 0.54281259 0.59375000
0.59375000 0.52583343 0.59375000
0.59375000 0.50885421 0.59375000
0.59375000 0.49187505 0.59375000
0.59375000 0.47489583 0.59375000
0.59375000 0.45791668 0.59375000
0.59375000 0.44093755 0.59375000
0.59375000 0.42395842 0.59375000
0.59375000 0.40697929 0.59375000
0.59375000 0.39000010 0.59375000
0.59375000 0.37302092 0.59375000
0.59375000 0.35604170 0.59375000
0.59375000 0.33906260 0.59375000
0.59375000 0.32208335 0.59375000
0.59375000 0.30510423 0.59375000
0.59375000 0.28812507 0.59375000
0.59375000 0.27114594 0.59375000
0.62500000 0.26843759 0.62500000
0.65625000 0.26572913 0.65625000
0.68750000 0.26302099 0.68750000
0.71875000 0.26031262 0.71875000
0.75000000 0.25760412 0.75000000
0.78125000 0.25489587 0.78125000
0.81250000 0.25218755 0.81250000
0.84375000 0.24947919 0.84375000
0.87500000 0.24677102 0.87500000
0.90625000 0.24406239 0.90625000
0.93750000 0.24135417 0.93750000
0.96875000 0.23864578 0.96875000
1.00000000 0.23593748 1.00000000
0.62500000 0.62500000 0.62500000
0.62500000 0.60802090 0.62500000
0.62500000 0.59104174 0.62500000
0.62500000 0.57406253 0.62500000
0.62500000 0.55708343 0.62500000
0.62500000 0.54010427 0.62500000
0.62500000 0.52312505 0.62500000
0.62500000 0.50614589 0.62500000
0.62500000 0.48916674 0.62500000
0.62500000 0.47218758 0.62500000
0.62500000 0.45520839 0.62500000
0.62500000 0.43822920 0.62500000
0.62500000 0.42125008 0.62500000
0.62500000 0.40427092 0.62500000
0.62500000 0.38729170 0.62500000
0.62500000 0.37031257 0.62500000
0.62500000 0.35333341 0.62500000
0.62500000 0.33635420 0.62500000
0.62500000 0.31937504 0.62500000
0.62500000 0.30239588 0.62500000
0.62500000 0.28541678 0.62500000
0.65625000 0.28270838 0.65625000
0.68750000 0.28000015 0.68750000
0.71875000 0.27729177 0.71875000
0.75000000 0.27458340 0.75000000
0.78125000 0.27187502 0.78125000
0.81250000 0.26916683 0.81250000
0.84375000 0.26645836 0.84375000
0.87500000 0.26375014 0.87500000
0.90625000 0.26104179 0.90625000
0.93750000 0.25833338 0.93750000
0.96875000 0.25562510 0.96875000
1.00000000 0.25291681 1.00000000
0.65625000 0.65625000 0.65625000
0.65625000 0.63927090 0.65625000
0.65625000 0.62229168 0.65625000
0.65625000 0.60531259 0.65625000
0.65625000 0.58833343 0.65625000
0.65625000 0.57135415 0.65625000
0.65625000 0.55437505 0.65625000
0.65625000 0.53739589 0.65625000
0.65625000 0.52041668 0.65625000
0.65625000 0.50343752 0.65625000
0.65625000 0.48645833 0.65625000
0.65625000 0.46947929 0.65625000
0.65625000 0.45250013 0.65625000
0.65625000 0.43552092 0.65625000
0.65625000 0.41854179 0.65625000
0.65625000 0.40156251 0.65625000
0.65625000 0.38458341 0.65625000
0.65625000 0.36760426 0.65625000
0.65625000 0.35062504 0.65625000
0.65625000 0.33364594 0.65625000
0.65625000 0.31666675 0.65625000
0.65625000 0.29968759 0.65625000
0.68750000 0.29697931 0.68750000
0.71875000 0.29427093 0.71875000
0.75000000 0.29156250 0.75000000
0.78125000 0.28885436 0.78125000
0.81250000 0.28614581 0.81250000
0.84375000 0.28343752 0.84375000
0.87500000 0.28072920 0.87500000
0.90625000 0.27802083 0.90625000
0.93750000 0.27531260 0.93750000
0.96875000 0.27260426 0.96875000
