input/hx63fz.cube
# VEGAS Pro LUT
TITLE "Pink!"
LUT_3D_SIZE 5
0.00000000 0.00000000 0.00000000
0.25000000 0.00000000 0.25000000
0.50000000 0.00000000 0.50000000
0.75000000 0.00000000 0.75000000
1.00000000 0.00000000 1.00000000
0.25000000 0.25000000 0.25000000
0.25000000 0.11416671 0.25000000
0.50000000 0.09250000 0.50000000
0.75000000 0.07083343 0.75000000
1.00000000 0.04916680 1.00000000
0.50000000 0.50000000 0.50000000
0.50000000 0.36416671 0.50000000
0.50000000 0.22833341 0.50000000
0.75000000 0.20666671 0.75000000
1.00000000 0.18500000 1.00000000
0.75000000 0.75000000 0.75000000
0.75000000 0.61416674 0.75000000
0.75000000 0.47833347 0.75000000
0.75000000 0.34250012 0.75000000
1.00000000 0.32083338 1.00000000
1.00000000 1.00000000 1.00000000
1.00000000 0.86416680 1.00000000
1.00000000 0.72833341 1.00000000
1.00000000 0.59250009 1.00000000
1.00000000 0.45666683 1.00000000
0.25000000 0.00000000 0.25000000
0.25000000 0.00000000 0.25000000
0.50000000 0.00000000 0.50000000
0.75000000 0.00000000 0.75000000
1.00000000 0.00000000 1.00000000
0.25000000 0.11416665 0.25000000
0.25000000 0.25000000 0.25000000
0.50000000 0.22833335 0.50000000
0.75000000 0.20666666 0.75000000
1.00000000 0.18500006 1.00000000
0.50000000 0.36416662 0.50000000
0.50000000 0.50000000 0.50000000
0.50000000 0.36416671 0.50000000
0.75000000 0.34249997 0.75000000
1.00000000 0.32083344 1.00000000
0.75000000 0.61416662 0.75000000
0.75000000 0.75000000 0.75000000
0.75000000 0.61416668 0.75000000
0.75000000 0.47833341 0.75000000
1.00000000 0.45666671 1.00000000
1.00000000 0.86416662 1.00000000
1.00000000 1.00000000 1.00000000
1.00000000 0.86416674 1.00000000
1.00000000 0.72833347 1.00000000
1.00000000 0.59250009 1.00000000
0.50000000 0.00000000 0.50000000
0.50000000 0.00000000 0.50000000
0.50000000 0.00000000 0.50000000
0.75000000 0.00000000 0.75000000
1.00000000 0.00000000 1.00000000
0.50000000 0.09249991 0.50000000
0.50000000 0.22833329 0.50000000
0.50000000 0.09250000 0.50000000
0.75000000 0.07083338 0.75000000
1.00000000 0.04916668 1.00000000
0.50000000 0.22833329 0.50000000
0.50000000 0.36416665 0.50000000
0.50000000 0.50000000 0.50000000
0.75000000 0.47833332 0.75000000
1.00000000 0.45666671 1.00000000
0.75000000 0.47833320 0.75000000
0.75000000 0.61416662 0.75000000
0.75000000 0.75000000 0.75000000
0.75000000 0.61416668 0.75000000
1.00000000 0.59249997 1.00000000
1.00000000 0.72833323 1.00000000
1.00000000 0.86416662 1.00000000
1.00000000 1.00000000 1.00000000
1.00000000 0.86416674 1.00000000
1.00000000 0.72833341 1.00000000
0.75000000 0.00000000 0.75000000
0.75000000 0.00000000 0.75000000
0.75000000 0.00000000 0.75000000
0.75000000 0.00000000 0.75000000
1.00000000 0.00000000 1.00000000
0.75000000 0.07083330 0.75000000
0.75000000 0.20666657 0.75000000
0.75000000 0.07083330 0.75000000
0.75000000 0.00000000 0.75000000
1.00000000 0.00000000 1.00000000
0.75000000 0.20666657 0.75000000
0.75000000 0.34249991 0.75000000
0.75000000 0.47833329 0.75000000
0.75000000 0.34249997 0.75000000
1.00000000 0.32083338 1.00000000
0.75000000 0.34249994 0.75000000
0.75000000 0.47833329 0.75000000
0.75000000 0.61416662 0.75000000
0.75000000 0.75000000 0.75000000
1.00000000 0.72833335 1.00000000
1.00000000 0.59249997 1.00000000
1.00000000 0.72833323 1.00000000
1.00000000 0.86416662 1.00000000
1.00000000 1.00000000 1.00000000
1.00000000 0.86416674 1.00000000
1.00000000 0.00000000 1.00000000
1.00000000 0.00000000 1.00000000
1.00000000 0.00000000 1.00000000
1.00000000 0.00000000 1.00000000
1.00000000 0.00000000 1.00000000
1.00000000 0.04916662 1.00000000
1.00000000 0.18499994 1.00000000
1.00000000 0.04916668 1.00000000
1.00000000 0.00000000 1.00000000
1.00000000 0.00000000 1.00000000
1.00000000 0.18499982 1.00000000
1.00000000 0.32083333 1.00000000
1.00000000 0.45666659 1.00000000
1.00000000 0.32083333 1.00000000
1.00000000 0.18500000 1.00000000
1.00000000 0.32083321 1.00000000
1.00000000 0.45666659 1.00000000
1.00000000 0.59249991 1.00000000
1.00000000 0.72833329 1.00000000
1.00000000 0.59249997 1.00000000
1.00000000 0.45666659 1.00000000
1.00000000 0.59249997 1.00000000
1.00000000 0.72833329 1.00000000
1.00000000 0.86416662 1.00000000
1.00000000 1.00000000 1.00000000
