input/hx63fz.cube
# VEGAS Pro LUT
TITLE "Pink!"
LUT_3D_SIZE 9
0.00000000 0.00000000 0.00000000
0.12500000 0.00000000 0.12500000
0.25000000 0.00000000 0.25000000
0.37500000 0.00000000 0.37500000
0.50000000 0.00000000 0.50000000
0.62500000 0.00000000 0.62500000
0.75000000 0.00000000 0.75000000
0.87500000 0.00000000 0.87500000
1.00000000 0.00000000 1.00000000
0.12500000 0.12500000 0.12500000
0.12500000 0.05708335 0.12500000
0.25000000 0.04625000 0.25000000
0.37500000 0.03541671 0.37500000
0.50000000 0.02458340 0.50000000
0.62500000 0.01375008 0.62500000
0.75000000 0.00291659 0.75000000
0.87500000 0.00000000 0.87500000
1.00000000 0.00000000 1.00000000
0.25000000 0.25000000 0.25000000
0.25000000 0.18208335 0.25000000
0.25000000 0.11416671 0.25000000
0.37500000 0.10333335 0.37500000
0.50000000 0.09250000 0.50000000
0.62500000 0.08166671 0.62500000
0.75000000 0.07083343 0.75000000
0.87500000 0.06000007 0.87500000
1.00000000 0.04916680 1.00000000
0.37500000 0.37500000 0.37500000
0.37500000 0.30708337 0.37500000
0.37500000 0.23916674 0.37500000
0.37500000 0.17125006 0.37500000
0.50000000 0.16041669 0.50000000
0.62500000 0.14958340 0.62500000
0.75000000 0.13875000 0.75000000
0.87500000 0.12791681 0.87500000
1.00000000 0.11708343 1.00000000
0.50000000 0.50000000 0.50000000
0.50000000 0.43208340 0.50000000
0.50000000 0.36416671 0.50000000
0.50000000 0.29625005 0.50000000
0.50000000 0.22833341 0.50000000
0.62500000 0.21750003 0.62500000
0.75000000 0.20666671 0.75000000
0.87500000 0.19583340 0.87500000
1.00000000 0.18500000 1.00000000
0.62500000 0.62500000 0.62500000
0.62500000 0.55708343 0.62500000
0.62500000 0.48916674 0.62500000
0.62500000 0.42125008 0.62500000
0.62500000 0.35333341 0.62500000
0.62500000 0.28541678 0.62500000
0.75000000 0.27458340 0.75000000
0.87500000 0.26375014 0.87500000
1.00000000 0.25291681 1.00000000
0.75000000 0.75000000 0.75000000
0.75000000 0.68208349 0.75000000
0.75000000 0.61416674 0.75000000
0.75000000 0.54625005 0.75000000
0.75000000 0.47833347 0.75000000
0.75000000 0.41041672 0.75000000
0.75000000 0.34250012 0.75000000
0.87500000 0.33166668 0.87500000
1.00000000 0.32083338 1.00000000
0.87500000 0.87500000 0.87500000
0.87500000 0.80708343 0.87500000
0.87500000 0.73916674 0.87500000
0.87500000 0.67125005 0.87500000
0.87500000 0.60333353 0.87500000
0.87500000 0.53541672 0.87500000
0.87500000 0.46750003 0.87500000
0.87500000 0.39958346 0.87500000
1.00000000 0.38875002 1.00000000
1.00000000 1.00000000 1.00000000
1.00000000 0.93208337 1.00000000
1.00000000 0.86416680 1.00000000
1.00000000 0.79625010 1.00000000
1.00000000 0.72833341 1.00000000
1.00000000 0.66041684 1.00000000
1.00000000 0.59250009 1.00000000
1.00000000 0.52458340 1.00000000
1.00000000 0.45666683 1.00000000
0.12500000 0.00000000 0.12500000
0.12500000 0.00000000 0.12500000
0.25000000 0.00000000 0.25000000
0.37500000 0.00000000 0.37500000
0.50000000 0.00000000 0.50000000
0.62500000 0.00000000 0.62500000
0.75000000 0.00000000 0.75000000
0.87500000 0.00000000 0.87500000
1.00000000 0.00000000 1.00000000
0.12500000 0.05708332 0.12500000
0.12500000 0.12500000 0.12500000
0.25000000 0.11416668 0.25000000
0.37500000 0.10333333 0.37500000
0.50000000 0.09250003 0.50000000
0.62500000 0.08166671 0.62500000
0.75000000 0.07083338 0.75000000
0.87500000 0.05999997 0.87500000
1.00000000 0.04916674 1.00000000
0.25000000 0.18208331 0.25000000
0.25000000 0.25000000 0.25000000
0.25000000 0.18208335 0.25000000
0.37500000 0.17124999 0.37500000
0.50000000 0.16041672 0.50000000
0.62500000 0.14958340 0.62500000
0.75000000 0.13875009 0.75000000
0.87500000 0.12791650 0.87500000
1.00000000 0.11708331 1.00000000
0.37500000 0.30708331 0.37500000
0.37500000 0.37500000 0.37500000
0.37500000 0.30708334 0.37500000
0.37500000 0.23916671 0.37500000
0.50000000 0.22833335 0.50000000
0.62500000 0.21750000 0.62500000
0.75000000 0.20666671 0.75000000
0.87500000 0.19583340 0.87500000
1.00000000 0.18500006 1.00000000
0.50000000 0.43208331 0.50000000
0.50000000 0.50000000 0.50000000
0.50000000 0.43208337 0.50000000
0.50000000 0.36416674 0.50000000
0.50000000 0.29625005 0.50000000
0.62500000 0.28541669 0.62500000
0.75000000 0.27458340 0.75000000
0.87500000 0.26374993 0.87500000
1.00000000 0.25291681 1.00000000
0.62500000 0.55708325 0.62500000
0.62500000 0.62500000 0.62500000
0.62500000 0.55708343 0.62500000
0.62500000 0.48916671 0.62500000
0.62500000 0.42125005 0.62500000
0.62500000 0.35333338 0.62500000
0.75000000 0.34250003 0.75000000
0.87500000 0.33166662 0.87500000
1.00000000 0.32083338 1.00000000
0.75000000 0.68208331 0.75000000
0.75000000 0.75000000 0.75000000
0.75000000 0.68208343 0.75000000
0.75000000 0.61416674 0.75000000
0.75000000 0.54625005 0.75000000
0.75000000 0.47833341 0.75000000
0.75000000 0.41041672 0.75000000
0.87500000 0.39958337 0.87500000
1.00000000 0.38875014 1.00000000
0.87500000 0.80708325 0.87500000
0.87500000 0.87500000 0.87500000
0.87500000 0.80708349 0.87500000
0.87500000 0.73916674 0.87500000
0.87500000 0.67125005 0.87500000
0.87500000 0.60333347 0.87500000
0.87500000 0.53541672 0.87500000
0.87500000 0.46750006 0.87500000
1.00000000 0.45666671 1.00000000
1.00000000 0.93208319 1.00000000
1.00000000 1.00000000 1.00000000
1.00000000 0.93208343 1.00000000
1.00000000 0.86416674 1.00000000
1.00000000 0.79624999 1.00000000
1.00000000 0.72833353 1.00000000
1.00000000 0.66041672 1.00000000
1.00000000 0.59250003 1.00000000
1.00000000 0.52458346 1.00000000
0.25000000 0.00000000 0.25000000
0.25000000 0.00000000 0.25000000
0.25000000 0.00000000 0.25000000
0.37500000 0.00000000 0.37500000
0.50000000 0.00000000 0.50000000
0.62500000 0.00000000 0.62500000
0.75000000 0.00000000 0.75000000
0.87500000 0.00000000 0.87500000
1.00000000 0.00000000 1.00000000
0.25000000 0.04624996 0.25000000
0.25000000 0.11416665 0.25000000
0.25000000 0.04625000 0.25000000
0.37500000 0.03541669 0.37500000
0.50000000 0.02458334 0.50000000
0.62500000 0.01374997 0.62500000
0.75000000 0.00291677 0.75000000
0.87500000 0.00000000 0.87500000
1.00000000 0.00000000 1.00000000
0.25000000 0.11416665 0.25000000
0.25000000 0.18208332 0.25000000
0.25000000 0.25000000 0.25000000
0.37500000 0.23916666 0.37500000
0.50000000 0.22833335 0.50000000
0.62500000 0.21750000 0.62500000
0.75000000 0.20666666 0.75000000
0.87500000 0.19583336 0.87500000
1.00000000 0.18500006 1.00000000
0.37500000 0.23916660 0.37500000
0.37500000 0.30708331 0.37500000
0.37500000 0.37500000 0.37500000
0.37500000 0.30708334 0.37500000
0.50000000 0.29624999 0.50000000
0.62500000 0.28541669 0.62500000
0.75000000 0.27458337 0.75000000
0.87500000 0.26375005 0.87500000
1.00000000 0.25291663 1.00000000
0.50000000 0.36416662 0.50000000
0.50000000 0.43208331 0.50000000
0.50000000 0.50000000 0.50000000
0.50000000 0.43208337 0.50000000
0.50000000 0.36416671 0.50000000
0.62500000 0.35333332 0.62500000
0.75000000 0.34249997 0.75000000
0.87500000 0.33166668 0.87500000
1.00000000 0.32083344 1.00000000
0.62500000 0.48916656 0.62500000
0.62500000 0.55708331 0.62500000
0.62500000 0.62500000 0.62500000
0.62500000 0.55708337 0.62500000
0.62500000 0.48916674 0.62500000
0.62500000 0.42125005 0.62500000
0.75000000 0.41041669 0.75000000
0.87500000 0.39958343 0.87500000
1.00000000 0.38875002 1.00000000
0.75000000 0.61416662 0.75000000
0.75000000 0.68208325 0.75000000
0.75000000 0.75000000 0.75000000
0.75000000 0.68208337 0.75000000
0.75000000 0.61416668 0.75000000
0.75000000 0.54625005 0.75000000
0.75000000 0.47833341 0.75000000
0.87500000 0.46750000 0.87500000
1.00000000 0.45666671 1.00000000
0.87500000 0.73916650 0.87500000
0.87500000 0.80708331 0.87500000
0.87500000 0.87500000 0.87500000
0.87500000 0.80708337 0.87500000
0.87500000 0.73916674 0.87500000
0.87500000 0.67125005 0.87500000
0.87500000 0.60333341 0.87500000
0.87500000 0.53541672 0.87500000
1.00000000 0.52458340 1.00000000
1.00000000 0.86416662 1.00000000
1.00000000 0.93208325 1.00000000
1.00000000 1.00000000 1.00000000
1.00000000 0.93208355 1.00000000
1.00000000 0.86416674 1.00000000
1.00000000 0.79625005 1.00000000
1.00000000 0.72833347 1.00000000
1.00000000 0.66041672 1.00000000
1.00000000 0.59250009 1.00000000
0.37500000 0.00000000 0.37500000
0.37500000 0.00000000 0.37500000
0.37500000 0.00000000 0.37500000
0.37500000 0.00000000 0.37500000
0.50000000 0.00000000 0.50000000
0.62500000 0.00000000 0.62500000
0.75000000 0.00000000 0.75000000
0.87500000 0.00000000 0.87500000
1.00000000 0.00000000 1.00000000
0.37500000 0.03541665 0.37500000
0.37500000 0.10333329 0.37500000
0.37500000 0.03541665 0.37500000
0.37500000 0.00000000 0.37500000
0.50000000 0.00000000 0.50000000
0.62500000 0.00000000 0.62500000
0.75000000 0.00000000 0.75000000
0.87500000 0.00000000 0.87500000
1.00000000 0.00000000 1.00000000
0.37500000 0.10333329 0.37500000
0.37500000 0.17124996 0.37500000
0.37500000 0.23916665 0.37500000
0.37500000 0.17124999 0.37500000
0.50000000 0.16041669 0.50000000
0.62500000 0.14958329 0.62500000
0.75000000 0.13874996 0.75000000
0.87500000 0.12791671 0.87500000
1.00000000 0.11708349 1.00000000
0.37500000 0.17124997 0.37500000
0.37500000 0.23916665 0.37500000
0.37500000 0.30708331 0.37500000
0.37500000 0.37500000 0.37500000
0.50000000 0.36416668 0.50000000
0.62500000 0.35333335 0.62500000
0.75000000 0.34250003 0.75000000
0.87500000 0.33166668 0.87500000
1.00000000 0.32083338 1.00000000
0.50000000 0.29624999 0.50000000
0.50000000 0.36416662 0.50000000
0.50000000 0.43208331 0.50000000
0.50000000 0.50000000 0.50000000
0.50000000 0.43208337 0.50000000
0.62500000 0.42124999 0.62500000
0.75000000 0.41041672 0.75000000
0.87500000 0.39958337 0.87500000
1.00000000 0.38875014 1.00000000
0.62500000 0.42124996 0.62500000
0.62500000 0.48916662 0.62500000
0.62500000 0.55708331 0.62500000
0.62500000 0.62500000 0.62500000
0.62500000 0.55708337 0.62500000
0.62500000 0.48916671 0.62500000
0.75000000 0.47833335 0.75000000
0.87500000 0.46749997 0.87500000
1.00000000 0.45666671 1.00000000
0.75000000 0.54624993 0.75000000
0.75000000 0.61416656 0.75000000
0.75000000 0.68208331 0.75000000
0.75000000 0.75000000 0.75000000
0.75000000 0.68208337 0.75000000
0.75000000 0.61416674 0.75000000
0.75000000 0.54625005 0.75000000
0.87500000 0.53541666 0.87500000
1.00000000 0.52458346 1.00000000
0.87500000 0.67124993 0.87500000
0.87500000 0.73916662 0.87500000
0.87500000 0.80708325 0.87500000
0.87500000 0.87500000 0.87500000
0.87500000 0.80708337 0.87500000
0.87500000 0.73916668 0.87500000
0.87500000 0.67125005 0.87500000
0.87500000 0.60333341 0.87500000
1.00000000 0.59250003 1.00000000
1.00000000 0.79624999 1.00000000
1.00000000 0.86416650 1.00000000
1.00000000 0.93208331 1.00000000
1.00000000 1.00000000 1.00000000
1.00000000 0.93208337 1.00000000
1.00000000 0.86416674 1.00000000
1.00000000 0.79625010 1.00000000
1.00000000 0.72833341 1.00000000
1.00000000 0.66041672 1.00000000
0.50000000 0.00000000 0.50000000
0.50000000 0.00000000 0.50000000
0.50000000 0.00000000 0.50000000
0.50000000 0.00000000 0.50000000
0.50000000 0.00000000 0.50000000
0.62500000 0.00000000 0.62500000
0.75000000 0.00000000 0.75000000
0.87500000 0.00000000 0.87500000
1.00000000 0.00000000 1.00000000
0.50000000 0.02458331 0.50000000
0.50000000 0.09249997 0.50000000
0.50000000 0.02458334 0.50000000
0.50000000 0.00000000 0.50000000
0.50000000 0.00000000 0.50000000
0.62500000 0.00000000 0.62500000
0.75000000 0.00000000 0.75000000
0.87500000 0.00000000 0.87500000
1.00000000 0.00000000 1.00000000
0.50000000 0.09249991 0.50000000
0.50000000 0.16041666 0.50000000
0.50000000 0.22833329 0.50000000
0.50000000 0.16041666 0.50000000
0.50000000 0.09250000 0.50000000
0.62500000 0.08166667 0.62500000
0.75000000 0.07083338 0.75000000
0.87500000 0.06000002 0.87500000
1.00000000 0.04916668 1.00000000
0.50000000 0.16041660 0.50000000
0.50000000 0.22833329 0.50000000
0.50000000 0.29624996 0.50000000
0.50000000 0.36416665 0.50000000
0.50000000 0.29624999 0.50000000
0.62500000 0.28541669 0.62500000
0.75000000 0.27458334 0.75000000
0.87500000 0.26374999 0.87500000
1.00000000 0.25291681 1.00000000
0.50000000 0.22833329 0.50000000
0.50000000 0.29624999 0.50000000
0.50000000 0.36416665 0.50000000
0.50000000 0.43208331 0.50000000
0.50000000 0.50000000 0.50000000
0.62500000 0.48916668 0.62500000
0.75000000 0.47833332 0.75000000
0.87500000 0.46749997 0.87500000
1.00000000 0.45666671 1.00000000
0.62500000 0.35333323 0.62500000
0.62500000 0.42124999 0.62500000
0.62500000 0.48916659 0.62500000
0.62500000 0.55708331 0.62500000
0.62500000 0.62500000 0.62500000
0.62500000 0.55708337 0.62500000
0.75000000 0.54624999 0.75000000
0.87500000 0.53541672 0.87500000
1.00000000 0.52458340 1.00000000
0.75000000 0.47833320 0.75000000
0.75000000 0.54624993 0.75000000
0.75000000 0.61416662 0.75000000
0.75000000 0.68208331 0.75000000
0.75000000 0.75000000 0.75000000
0.75000000 0.68208337 0.75000000
0.75000000 0.61416668 0.75000000
0.87500000 0.60333329 0.87500000
1.00000000 0.59249997 1.00000000
0.87500000 0.60333335 0.87500000
0.87500000 0.67124987 0.87500000
0.87500000 0.73916656 0.87500000
0.87500000 0.80708331 0.87500000
0.87500000 0.87500000 0.87500000
0.87500000 0.80708337 0.87500000
0.87500000 0.73916674 0.87500000
0.87500000 0.67125005 0.87500000
1.00000000 0.66041672 1.00000000
1.00000000 0.72833323 1.00000000
1.00000000 0.79624993 1.00000000
1.00000000 0.86416662 1.00000000
1.00000000 0.93208325 1.00000000
1.00000000 1.00000000 1.00000000
1.00000000 0.93208337 1.00000000
1.00000000 0.86416674 1.00000000
1.00000000 0.79625005 1.00000000
1.00000000 0.72833341 1.00000000
0.62500000 0.00000000 0.62500000
0.62500000 0.00000000 0.62500000
0.62500000 0.00000000 0.62500000
0.62500000 0.00000000 0.62500000
0.62500000 0.00000000 0.62500000
0.62500000 0.00000000 0.62500000
0.75000000 0.00000000 0.75000000
0.87500000 0.00000000 0.87500000
1.00000000 0.00000000 1.00000000
0.62500000 0.01374986 0.62500000
0.62500000 0.08166660 0.62500000
0.62500000 0.01374997 0.62500000
0.62500000 0.00000000 0.62500000
0.62500000 0.00000000 0.62500000
0.62500000 0.00000000 0.62500000
0.75000000 0.00000000 0.75000000
0.87500000 0.00000000 0.87500000
1.00000000 0.00000000 1.00000000
0.62500000 0.08166660 0.62500000
0.62500000 0.14958329 0.62500000
0.62500000 0.21749991 0.62500000
0.62500000 0.14958329 0.62500000
0.62500000 0.08166660 0.62500000
0.62500000 0.01374997 0.62500000
0.75000000 0.00291668 0.75000000
0.87500000 0.00000000 0.87500000
1.00000000 0.00000000 1.00000000
0.62500000 0.14958329 0.62500000
0.62500000 0.21749988 0.62500000
0.62500000 0.28541660 0.62500000
0.62500000 0.35333329 0.62500000
0.62500000 0.28541666 0.62500000
0.62500000 0.21750000 0.62500000
0.75000000 0.20666671 0.75000000
0.87500000 0.19583336 0.87500000
1.00000000 0.18500006 1.00000000
0.62500000 0.21749991 0.62500000
0.62500000 0.28541657 0.62500000
0.62500000 0.35333326 0.62500000
0.62500000 0.42124993 0.62500000
0.62500000 0.48916665 0.62500000
0.62500000 0.42124999 0.62500000
0.75000000 0.41041669 0.75000000
0.87500000 0.39958328 0.87500000
1.00000000 0.38875002 1.00000000
0.62500000 0.28541660 0.62500000
0.62500000 0.35333329 0.62500000
0.62500000 0.42124996 0.62500000
0.62500000 0.48916665 0.62500000
0.62500000 0.55708331 0.62500000
0.62500000 0.62500000 0.62500000
0.75000000 0.61416668 0.75000000
0.87500000 0.60333335 0.87500000
1.00000000 0.59250003 1.00000000
0.75000000 0.41041666 0.75000000
0.75000000 0.47833323 0.75000000
0.75000000 0.54624999 0.75000000
0.75000000 0.61416662 0.75000000
0.75000000 0.68208331 0.75000000
0.75000000 0.75000000 0.75000000
0.75000000 0.68208337 0.75000000
0.87500000 0.67124999 0.87500000
1.00000000 0.66041672 1.00000000
0.87500000 0.53541660 0.87500000
0.87500000 0.60333318 0.87500000
0.87500000 0.67124993 0.87500000
0.87500000 0.73916662 0.87500000
0.87500000 0.80708331 0.87500000
0.87500000 0.87500000 0.87500000
0.87500000 0.80708337 0.87500000
0.87500000 0.73916668 0.87500000
1.00000000 0.72833335 1.00000000
1.00000000 0.66041660 1.00000000
1.00000000 0.72833335 1.00000000
1.00000000 0.79624993 1.00000000
1.00000000 0.86416656 1.00000000
1.00000000 0.93208331 1.00000000
1.00000000 1.00000000 1.00000000
1.00000000 0.93208337 1.00000000
1.00000000 0.86416674 1.00000000
1.00000000 0.79625005 1.00000000
0.75000000 0.00000000 0.75000000
0.75000000 0.00000000 0.75000000
0.75000000 0.00000000 0.75000000
0.75000000 0.00000000 0.75000000
0.75000000 0.00000000 0.75000000
0.75000000 0.00000000 0.75000000
0.75000000 0.00000000 0.75000000
0.87500000 0.00000000 0.87500000
1.00000000 0.00000000 1.00000000
0.75000000 0.00291659 0.75000000
0.75000000 0.07083325 0.75000000
0.75000000 0.00291663 0.75000000
0.75000000 0.00000000 0.75000000
0.75000000 0.00000000 0.75000000
0.75000000 0.00000000 0.75000000
0.75000000 0.00000000 0.75000000
0.87500000 0.00000000 0.87500000
1.00000000 0.00000000 1.00000000
0.75000000 0.07083330 0.75000000
0.75000000 0.13874987 0.75000000
0.75000000 0.20666657 0.75000000
0.75000000 0.13874996 0.75000000
0.75000000 0.07083330 0.75000000
0.75000000 0.00291659 0.75000000
0.75000000 0.00000000 0.75000000
0.87500000 0.00000000 0.87500000
1.00000000 0.00000000 1.00000000
0.75000000 0.13874987 0.75000000
0.75000000 0.20666657 0.75000000
0.75000000 0.27458328 0.75000000
0.75000000 0.34249994 0.75000000
0.75000000 0.27458334 0.75000000
0.75000000 0.20666662 0.75000000
0.75000000 0.13875000 0.75000000
0.87500000 0.12791666 0.87500000
1.00000000 0.11708337 1.00000000
0.75000000 0.20666657 0.75000000
0.75000000 0.27458328 0.75000000
0.75000000 0.34249991 0.75000000
0.75000000 0.41041666 0.75000000
0.75000000 0.47833329 0.75000000
0.75000000 0.41041666 0.75000000
0.75000000 0.34249997 0.75000000
0.87500000 0.33166662 0.87500000
1.00000000 0.32083338 1.00000000
0.75000000 0.27458322 0.75000000
0.75000000 0.34249991 0.75000000
0.75000000 0.41041657 0.75000000
0.75000000 0.47833329 0.75000000
0.75000000 0.54624993 0.75000000
0.75000000 0.61416662 0.75000000
0.75000000 0.54624999 0.75000000
0.87500000 0.53541666 0.87500000
1.00000000 0.52458334 1.00000000
0.75000000 0.34249994 0.75000000
0.75000000 0.41041663 0.75000000
0.75000000 0.47833329 0.75000000
0.75000000 0.54624999 0.75000000
0.75000000 0.61416662 0.75000000
0.75000000 0.68208331 0.75000000
0.75000000 0.75000000 0.75000000
0.87500000 0.73916668 0.87500000
1.00000000 0.72833335 1.00000000
0.87500000 0.46749985 0.87500000
0.87500000 0.53541660 0.87500000
0.87500000 0.60333323 0.87500000
0.87500000 0.67124999 0.87500000
0.87500000 0.73916662 0.87500000
0.87500000 0.80708331 0.87500000
0.87500000 0.87500000 0.87500000
0.87500000 0.80708337 0.87500000
1.00000000 0.79624999 1.00000000
1.00000000 0.59249997 1.00000000
1.00000000 0.66041660 1.00000000
1.00000000 0.72833323 1.00000000
1.00000000 0.79624999 1.00000000
1.00000000 0.86416662 1.00000000
1.00000000 0.93208331 1.00000000
1.00000000 1.00000000 1.00000000
1.00000000 0.93208337 1.00000000
1.00000000 0.86416674 1.00000000
0.87500000 0.00000000 0.87500000
0.87500000 0.00000000 0.87500000
0.87500000 0.00000000 0.87500000
0.87500000 0.00000000 0.87500000
0.87500000 0.00000000 0.87500000
0.87500000 0.00000000 0.87500000
0.87500000 0.00000000 0.87500000
0.87500000 0.00000000 0.87500000
1.00000000 0.00000000 1.00000000
0.87500000 0.00000000 0.87500000
0.87500000 0.05999981 0.87500000
0.87500000 0.00000000 0.87500000
0.87500000 0.00000000 0.87500000
0.87500000 0.00000000 0.87500000
0.87500000 0.00000000 0.87500000
0.87500000 0.00000000 0.87500000
0.87500000 0.00000000 0.87500000
1.00000000 0.00000000 1.00000000
0.87500000 0.05999986 0.87500000
0.87500000 0.12791650 0.87500000
0.87500000 0.19583319 0.87500000
0.87500000 0.12791660 0.87500000
0.87500000 0.05999986 0.87500000
0.87500000 0.00000000 0.87500000
0.87500000 0.00000000 0.87500000
0.87500000 0.00000000 0.87500000
1.00000000 0.00000000 1.00000000
0.87500000 0.12791646 0.87500000
0.87500000 0.19583324 0.87500000
0.87500000 0.26374984 0.87500000
0.87500000 0.33166659 0.87500000
0.87500000 0.26374999 0.87500000
0.87500000 0.19583330 0.87500000
0.87500000 0.12791654 0.87500000
0.87500000 0.05999997 0.87500000
1.00000000 0.04916674 1.00000000
0.87500000 0.19583319 0.87500000
0.87500000 0.26374978 0.87500000
0.87500000 0.33166653 0.87500000
0.87500000 0.39958328 0.87500000
0.87500000 0.46749991 0.87500000
0.87500000 0.39958328 0.87500000
0.87500000 0.33166659 0.87500000
0.87500000 0.26374993 0.87500000
1.00000000 0.25291669 1.00000000
0.87500000 0.26374993 0.87500000
0.87500000 0.33166647 0.87500000
0.87500000 0.39958328 0.87500000
0.87500000 0.46749988 0.87500000
0.87500000 0.53541660 0.87500000
0.87500000 0.60333329 0.87500000
0.87500000 0.53541666 0.87500000
0.87500000 0.46749997 0.87500000
1.00000000 0.45666671 1.00000000
0.87500000 0.33166653 0.87500000
0.87500000 0.39958322 0.87500000
0.87500000 0.46749988 0.87500000
0.87500000 0.53541660 0.87500000
0.87500000 0.60333323 0.87500000
0.87500000 0.67124993 0.87500000
0.87500000 0.73916662 0.87500000
0.87500000 0.67124999 0.87500000
1.00000000 0.66041672 1.00000000
0.87500000 0.39958328 0.87500000
0.87500000 0.46749991 0.87500000
0.87500000 0.53541660 0.87500000
0.87500000 0.60333329 0.87500000
0.87500000 0.67124993 0.87500000
0.87500000 0.73916662 0.87500000
0.87500000 0.80708331 0.87500000
0.87500000 0.87500000 0.87500000
1.00000000 0.86416668 1.00000000
1.00000000 0.52458322 1.00000000
1.00000000 0.59249985 1.00000000
1.00000000 0.66041666 1.00000000
1.00000000 0.72833323 1.00000000
1.00000000 0.79624999 1.00000000
1.00000000 0.86416662 1.00000000
1.00000000 0.93208331 1.00000000
1.00000000 1.00000000 1.00000000
1.00000000 0.93208337 1.00000000
1.00000000 0.00000000 1.00000000
1.00000000 0.00000000 1.00000000
1.00000000 0.00000000 1.00000000
1.00000000 0.00000000 1.00000000
1.00000000 0.00000000 1.00000000
1.00000000 0.00000000 1.00000000
1.00000000 0.00000000 1.00000000
1.00000000 0.00000000 1.00000000
1.00000000 0.00000000 1.00000000
1.00000000 0.00000000 1.00000000
1.00000000 0.04916656 1.00000000
1.00000000 0.00000000 1.00000000
1.00000000 0.00000000 1.00000000
1.00000000 0.00000000 1.00000000
1.00000000 0.00000000 1.00000000
1.00000000 0.00000000 1.00000000
1.00000000 0.00000000 1.00000000
1.00000000 0.00000000 1.00000000
1.00000000 0.04916662 1.00000000
1.00000000 0.11708313 1.00000000
1.00000000 0.18499994 1.00000000
1.00000000 0.11708337 1.00000000
1.00000000 0.04916668 1.00000000
1.00000000 0.00000000 1.00000000
1.00000000 0.00000000 1.00000000
1.00000000 0.00000000 1.00000000
1.00000000 0.00000000 1.00000000
1.00000000 0.11708319 1.00000000
1.00000000 0.18499988 1.00000000
1.00000000 0.25291663 1.00000000
1.00000000 0.32083327 1.00000000
1.00000000 0.25291669 1.00000000
1.00000000 0.18499994 1.00000000
1.00000000 0.11708337 1.00000000
1.00000000 0.04916662 1.00000000
1.00000000 0.00000000 1.00000000
1.00000000 0.18499982 1.00000000
1.00000000 0.25291646 1.00000000
1.00000000 0.32083333 1.00000000
1.00000000 0.38874990 1.00000000
1.00000000 0.45666659 1.00000000
1.00000000 0.38875002 1.00000000
1.00000000 0.32083333 1.00000000
1.00000000 0.25291657 1.00000000
1.00000000 0.18500000 1.00000000
1.00000000 0.25291657 1.00000000
1.00000000 0.32083321 1.00000000
1.00000000 0.38874990 1.00000000
1.00000000 0.45666659 1.00000000
1.00000000 0.52458334 1.00000000
1.00000000 0.59249997 1.00000000
1.00000000 0.52458334 1.00000000
1.00000000 0.45666665 1.00000000
1.00000000 0.38875002 1.00000000
1.00000000 0.32083321 1.00000000
1.00000000 0.38874996 1.00000000
1.00000000 0.45666659 1.00000000
1.00000000 0.52458334 1.00000000
1.00000000 0.59249991 1.00000000
1.00000000 0.66041666 1.00000000
1.00000000 0.72833329 1.00000000
1.00000000 0.66041666 1.00000000
1.00000000 0.59249997 1.00000000
1.00000000 0.38875002 1.00000000
1.00000000 0.45666653 1.00000000
1.00000000 0.52458328 1.00000000
1.00000000 0.59249991 1.00000000
1.00000000 0.66041660 1.00000000
1.00000000 0.72833329 1.00000000
1.00000000 0.79624999 1.00000000
1.00000000 0.86416662 1.00000000
1.00000000 0.79624999 1.00000000
1.00000000 0.45666659 1.00000000
1.00000000 0.52458328 1.00000000
1.00000000 0.59249997 1.00000000
1.00000000 0.66041660 1.00000000
1.00000000 0.72833329 1.00000000
1.00000000 0.79624999 1.00000000
1.00000000 0.86416662 1.00000000
1.00000000 0.93208331 1.00000000
1.00000000 1.00000000 1.00000000
