input/i70p6y.cube
# VEGAS Pro LUT
TITLE "Overexposed"
LUT_3D_SIZE 5
0.00000000 0.00000000 0.00000000
0.22111925 0.00643151 0.01558516
0.35431570 0.05586643 0.12467764
0.44060683 0.17293614 0.32767573
0.55468708 0.28638625 0.45126492
0.04186558 0.21015641 0.11838003
0.24279220 0.26843238 0.32356521
0.40346757 0.35616100 0.44635826
0.56955892 0.48991001 0.58624578
0.73118544 0.65306127 0.73043877
0.24886784 0.42772546 0.44147533
0.45939794 0.53732771 0.58093011
0.66109908 0.67963564 0.72524625
0.83449054 0.82843024 0.85736430
0.95587075 0.94924724 0.95736623
0.58829647 0.70758396 0.72003758
0.79580349 0.84007442 0.85294604
0.94257212 0.95084381 0.95449615
1.00000000 1.00000000 1.00000000
1.00000000 1.00000000 1.00000000
0.92787361 0.95301503 0.95155573
1.00000000 1.00000000 1.00000000
1.00000000 1.00000000 1.00000000
1.00000000 1.00000000 1.00000000
1.00000000 1.00000000 1.00000000
0.00027931 0.00035818 0.24304953
0.20815758 0.01771632 0.23664859
0.33756727 0.09405180 0.32920450
0.44924009 0.21031131 0.46084940
0.57565242 0.34202960 0.56851095
0.07301135 0.22264868 0.32375404
0.26900533 0.29590261 0.45728636
0.44135493 0.40236372 0.56423080
0.61566335 0.54993355 0.68574756
0.77851844 0.71750116 0.80845881
0.30375695 0.46443793 0.55997103
0.52112430 0.58892530 0.68116039
0.72187155 0.73733717 0.80411470
0.88391721 0.87982988 0.91168106
0.98286819 0.98006964 0.98467886
0.66271168 0.75841957 0.79974991
0.85590124 0.88683295 0.90821719
0.97632843 0.97974676 0.98282778
1.00000000 1.00000000 1.00000000
1.00000000 1.00000000 1.00000000
0.96872526 0.97980195 0.98090535
1.00000000 1.00000000 1.00000000
1.00000000 1.00000000 1.00000000
1.00000000 1.00000000 1.00000000
1.00000000 1.00000000 1.00000000
0.00211937 0.00277672 0.46234995
0.20015697 0.03790867 0.42791066
0.33582002 0.14346215 0.49960163
0.46612239 0.25500834 0.57910359
0.60407913 0.40342990 0.67049885
0.11538614 0.24817730 0.49526429
0.30331376 0.33079636 0.57610345
0.48625728 0.45466942 0.66685474
0.66612226 0.61297369 0.76985991
0.82622713 0.78035223 0.87131298
0.36523828 0.50758386 0.66322780
0.58648705 0.64411128 0.76600134
0.78199005 0.79424846 0.86779964
0.92767942 0.92509359 0.95165515
0.99945205 0.99934137 0.99952531
0.73546779 0.80924881 0.86426210
0.90898979 0.92844009 0.94909906
0.99794400 0.99824536 0.99860024
1.00000000 1.00000000 1.00000000
1.00000000 1.00000000 1.00000000
0.99573702 0.99731892 0.99760485
1.00000000 1.00000000 1.00000000
1.00000000 1.00000000 1.00000000
1.00000000 1.00000000 1.00000000
1.00000000 1.00000000 1.00000000
0.00749104 0.00979665 0.64885795
0.20085785 0.06890327 0.58765161
0.34854406 0.18615979 0.62711835
0.49108350 0.30664125 0.68244243
0.63911825 0.46951962 0.75747955
0.15648441 0.27791387 0.62553859
0.34543771 0.37282038 0.68001211
0.53721660 0.51210356 0.75447118
0.71935606 0.67742956 0.83911622
0.87230629 0.83956939 0.91992038
0.43224472 0.55628157 0.75147706
0.65379286 0.70137370 0.83597428
0.83932590 0.84840405 0.91720384
0.96354473 0.96210551 0.97870892
1.00000000 1.00000000 1.00000000
0.80431372 0.85818642 0.91446048
0.95269907 0.96284688 0.97699201
1.00000000 1.00000000 1.00000000
1.00000000 1.00000000 1.00000000
1.00000000 1.00000000 1.00000000
1.00000000 1.00000000 1.00000000
1.00000000 1.00000000 1.00000000
1.00000000 1.00000000 1.00000000
1.00000000 1.00000000 1.00000000
1.00000000 1.00000000 1.00000000
0.01872375 0.02416407 0.79929352
0.21332307 0.11143534 0.71658033
0.36945021 0.22632591 0.73065180
0.52367002 0.36456507 0.77103007
0.67964500 0.53898013 0.82987612
0.19493236 0.30820259 0.72960794
0.39481497 0.42142314 0.76916718
0.59299755 0.57343924 0.82749283
0.77356607 0.74150234 0.89425159
0.91464376 0.89301157 0.95544952
0.50343084 0.60939634 0.82512134
0.72112638 0.75899982 0.89180052
0.89163876 0.89773810 0.95347720
0.98933089 0.98879898 0.99457741
1.00000000 1.00000000 1.00000000
0.86688077 0.90324265 0.95147693
0.98470253 0.98804700 0.99360633
1.00000000 1.00000000 1.00000000
1.00000000 1.00000000 1.00000000
1.00000000 1.00000000 1.00000000
1.00000000 1.00000000 1.00000000
1.00000000 1.00000000 1.00000000
1.00000000 1.00000000 1.00000000
1.00000000 1.00000000 1.00000000
1.00000000 1.00000000 1.00000000
