input/i70p6y.cube
# VEGAS Pro LUT
TITLE "Overexposed"
LUT_3D_SIZE 33
0.00000000 0.00000000 0.00000000
0.03105061 0.00001951 0.00004126
0.06152108 0.00011260 0.00025195
0.09116826 0.00034179 0.00079228
0.11978673 0.00078182 0.00185291
0.14720762 0.00151706 0.00364395
0.17329741 0.00263909 0.00638484
0.19795676 0.00424428 0.01029497
0.22111925 0.00643151 0.01558516
0.24274994 0.00929991 0.02244990
0.26284418 0.01294669 0.03106044
0.28142598 0.01746508 0.04155869
0.29854667 0.02294229 0.05405189
0.31428352 0.02945757 0.06860816
0.32873783 0.03708037 0.08525278
0.34203357 0.04586849 0.10396533
0.35431570 0.05586643 0.12467764
0.36574847 0.06710371 0.14727250
0.37651336 0.07959331 0.17158329
0.38680786 0.09333016 0.19739427
0.39684308 0.10828973 0.22444178
0.40684214 0.12442671 0.25241628
0.41703805 0.14167371 0.28096512
0.42767191 0.15994003 0.30969608
0.44060683 0.17293614 0.32767573
0.45437983 0.18436953 0.34189269
0.46828440 0.19660461 0.35648873
0.48232681 0.20963664 0.37145191
0.49651128 0.22345814 0.38676891
0.51084024 0.23805869 0.40242526
0.52531403 0.25342491 0.41840509
0.53993094 0.26954055 0.43469110
0.55468708 0.28638625 0.45126492
0.00008514 0.03083652 0.00023944
0.03057515 0.03064754 0.00076442
0.06021923 0.03057687 0.00180227
0.08883318 0.03071571 0.00356258
0.11626818 0.03116255 0.00626461
0.14240968 0.03202077 0.01012792
0.16717604 0.03339633 0.01536377
0.19051719 0.03539551 0.02216739
0.21241334 0.03812280 0.03071099
0.23287348 0.04167871 0.04113766
0.25193405 0.04615786 0.05355601
0.26965722 0.05164696 0.06803567
0.28612953 0.05822298 0.08460353
0.30146015 0.06595133 0.10324092
0.31577924 0.07488416 0.12388142
0.32923627 0.08505870 0.14640969
0.34199834 0.09649569 0.17066085
0.35424823 0.10919791 0.19642103
0.36618257 0.12314869 0.22342828
0.37801006 0.13831067 0.25137466
0.38994947 0.15462436 0.27990907
0.40222752 0.17200714 0.30864072
0.41607013 0.18477222 0.32716006
0.43057844 0.19579911 0.34136289
0.44521716 0.20762829 0.35594520
0.45999193 0.22025546 0.37089506
0.47490644 0.23367353 0.38619930
0.48996267 0.24787247 0.40184346
0.50516033 0.26283941 0.41781163
0.52049726 0.27855834 0.43408674
0.53596914 0.29501042 0.45065027
0.55156964 0.31217372 0.46748251
0.56729019 0.33002332 0.48456237
0.00057177 0.06041221 0.00175261
0.03036717 0.05996059 0.00348249
0.05913689 0.05973767 0.00614596
0.08675109 0.05985382 0.00996273
0.11311293 0.06042207 0.01514450
0.13815722 0.06155590 0.02188723
0.16184905 0.06336699 0.03036409
0.18418244 0.06596321 0.04071933
0.20517872 0.06944655 0.05306293
0.22488523 0.07391118 0.06746601
0.24337356 0.07944159 0.08395709
0.26073810 0.08611080 0.10251922
0.27709424 0.09397858 0.12308777
0.29257688 0.10308991 0.14554921
0.30733836 0.11347330 0.16974048
0.32154685 0.12513931 0.19544949
0.33538473 0.13807920 0.22241601
0.34904605 0.15226346 0.25033385
0.36273533 0.16764066 0.27885333
0.37666509 0.18413609 0.30758503
0.39147907 0.19663715 0.32664490
0.40672287 0.20725751 0.34083360
0.42209578 0.21868074 0.35540211
0.43760300 0.23090297 0.37033871
0.45324779 0.24391747 0.38563016
0.46903145 0.25771469 0.40126207
0.48495328 0.27228212 0.41721863
0.50101060 0.28760421 0.43348277
0.51719856 0.30366248 0.45003605
0.53351021 0.32043546 0.46685877
0.54993665 0.33789852 0.48392990
0.56646669 0.35602421 0.50122714
0.58308697 0.37478182 0.51872694
0.00190406 0.08836417 0.00602887
0.03098145 0.08774317 0.00979939
0.05893036 0.08750854 0.01492735
0.08567044 0.08778086 0.02160943
0.11115169 0.08867911 0.03001974
0.13535304 0.09031846 0.04030371
0.15828092 0.09280825 0.05257264
0.17996764 0.09625015 0.06689917
0.20046999 0.10073616 0.08331346
0.21986750 0.10634686 0.10180023
0.23826087 0.11314974 0.12229670
0.25577015 0.12119742 0.14469105
0.27253318 0.13052619 0.16882217
0.28870365 0.14115447 0.19447964
0.30444926 0.15308133 0.22140507
0.31994981 0.16628528 0.24929385
0.33539534 0.18072273 0.27779788
0.35098416 0.19632711 0.30652910
0.36683375 0.20853092 0.32613027
0.38281298 0.21874470 0.34030482
0.39892027 0.22976190 0.35485953
0.41516012 0.24157912 0.36978281
0.43153533 0.25419000 0.38506147
0.44804668 0.26758540 0.40068114
0.46469295 0.28175312 0.41662607
0.48147091 0.29667819 0.43287915
0.49837524 0.31234244 0.44942215
0.51539850 0.32872480 0.46623537
0.53253126 0.34580117 0.48329768
0.54976177 0.36354432 0.50058705
0.56707627 0.38192409 0.51807976
0.58445883 0.40090728 0.53575122
0.60189152 0.42045766 0.55357528
0.00462876 0.11465546 0.01471231
0.03305721 0.11407021 0.02133396
0.06032153 0.11405900 0.02967792
0.08638560 0.11474430 0.03989076
0.11124083 0.11624286 0.05208514
0.13490464 0.11866379 0.06633517
0.15741891 0.12210661 0.08267263
0.17884836 0.12665951 0.10108399
0.19927891 0.13239759 0.12150818
0.21881600 0.13938123 0.14383529
0.23758271 0.14765443 0.16790594
0.25571829 0.15724346 0.19351155
0.27337593 0.16815528 0.22039543
0.29072094 0.18037623 0.24825469
0.30792910 0.19387081 0.27674270
0.32518435 0.20858036 0.30547288
0.34213406 0.22045353 0.32561621
0.35884890 0.23026070 0.33977652
0.37569058 0.24087185 0.35431749
0.39266321 0.25228396 0.36922741
0.40976900 0.26449111 0.38449323
0.42700821 0.27748451 0.40010062
0.44437921 0.29125243 0.41603386
0.46187815 0.30578029 0.43227595
0.47949922 0.32105029 0.44880864
0.49723449 0.33704185 0.46561226
0.51507401 0.35373122 0.48266584
0.53300542 0.37109160 0.49994722
0.55101460 0.38909319 0.51743293
0.56908500 0.40770334 0.53509820
0.58719832 0.42688608 0.55291712
0.60533381 0.44660282 0.57086253
0.62346905 0.46681172 0.58890605
0.00935890 0.13950647 0.02933864
0.03728035 0.13924059 0.03948051
0.06405867 0.13975026 0.05160043
0.08969636 0.14115202 0.06577399
0.11422040 0.14355293 0.08203462
0.13768071 0.14704874 0.10037047
0.16014843 0.15172219 0.12072225
0.18171433 0.15764138 0.14298187
0.20248687 0.16485810 0.16699177
0.22259068 0.17340642 0.19254518
0.24216445 0.18330112 0.21938713
0.26135916 0.19453655 0.24721636
0.28033617 0.20708509 0.27568787
0.29926518 0.22089612 0.30441642
0.31738007 0.23240499 0.32510266
0.33483052 0.24180552 0.33924875
0.35240674 0.25201058 0.35377592
0.37011227 0.26301751 0.36867249
0.38794881 0.27482077 0.38392547
0.40591618 0.28741208 0.39952055
0.42401209 0.30078006 0.41544211
0.44223228 0.31491050 0.43167317
0.46057045 0.32978606 0.44819552
0.47901815 0.34538653 0.46498945
0.49756473 0.36168861 0.48203424
0.51619762 0.37866598 0.49930769
0.53490198 0.39628917 0.51678634
0.55366087 0.41452584 0.53444541
0.57245523 0.43334064 0.55225921
0.59126413 0.45269519 0.57020044
0.61006451 0.47254822 0.58824080
0.62883115 0.49285567 0.60635102
0.64753723 0.51357043 0.62450039
0.01673465 0.16333035 0.05111850
0.04434295 0.16371477 0.06521565
0.07087456 0.16507503 0.08139942
0.09636458 0.16751449 0.09965967
0.12086940 0.17112353 0.11993891
0.14446506 0.17597793 0.14213084
0.16724543 0.18213727 0.16607970
0.18932055 0.18964340 0.19158055
0.21081460 0.19851902 0.21838018
0.23186418 0.20876634 0.24617893
0.25261626 0.22036572 0.27463338
0.27322623 0.23327458 0.30335975
0.29257178 0.24438529 0.32458967
0.31075788 0.25337917 0.33872151
0.32906872 0.26317805 0.35323486
0.34750730 0.27377975 0.36811808
0.36607480 0.28517911 0.38335821
0.38477045 0.29736811 0.39894095
0.40359160 0.31033599 0.41485074
0.42253339 0.32406881 0.43107074
0.44158894 0.33854979 0.44758272
0.46074933 0.35375896 0.46436703
0.48000354 0.36967355 0.48140302
0.49933830 0.38626748 0.49866840
0.51873827 0.40351194 0.51613992
0.53818613 0.42137489 0.53379285
0.55766225 0.43982133 0.55160141
0.57714522 0.45881340 0.56953841
0.59661126 0.47831008 0.58757573
0.61603487 0.49826783 0.60568386
0.63538867 0.51863998 0.62383240
0.65464330 0.53937721 0.64198977
0.67376775 0.56042743 0.66012329
0.02738149 0.18667288 0.08076704
0.05490002 0.18805675 0.09895162
0.08144179 0.19060162 0.11915817
0.10706814 0.19439092 0.14128217
0.13185830 0.19949199 0.16516973
0.15590774 0.20595452 0.19061768
0.17932615 0.21380907 0.21737455
0.20223567 0.22306576 0.24514237
0.22476897 0.23371293 0.27357930
0.24706712 0.24571593 0.30230287
0.26770914 0.25639439 0.32407716
0.28663099 0.26498163 0.33819482
0.30567652 0.27437434 0.35269427
0.32484823 0.28457069 0.36756414
0.34414688 0.29556596 0.38279134
0.36357111 0.30735266 0.39836177
0.38311768 0.31992024 0.41425988
0.40278134 0.33325532 0.43046874
0.42255464 0.34734142 0.44697028
0.44242817 0.36215913 0.46374500
0.46239033 0.37768590 0.48077208
0.48242745 0.39389622 0.49802941
0.50252360 0.41076162 0.51549375
0.52266097 0.42825046 0.53314054
0.54281944 0.44632819 0.55094379
0.56297696 0.46495730 0.56887656
0.58310938 0.48409733 0.58691072
0.60319066 0.50370497 0.60501677
0.62319291 0.52373397 0.62316436
0.64308619 0.54413551 0.64132202
0.66283894 0.56485796 0.65945697
0.68241787 0.58584702 0.67753583
0.70178825 0.60704607 0.69552416
0.04186558 0.21015641 0.11838003
0.06952345 0.21288034 0.14043590
0.09632532 0.21692233 0.16426189
0.12235203 0.22233987 0.18965660
0.14769879 0.22917143 0.21637031
0.17247334 0.23743498 0.24410677
0.19679393 0.24712686 0.27252558
0.22078738 0.25822043 0.30124584
0.24279220 0.26843238 0.32356521
0.26244980 0.27661288 0.33766860
0.28223011 0.28559935 0.35215425
0.30213517 0.29539031 0.36701065
0.32216507 0.30598146 0.38222501
0.34231809 0.31736565 0.39778307
0.36259037 0.32953286 0.41366938
0.38297614 0.34246996 0.42986715
0.40346757 0.35616100 0.44635826
0.42405459 0.37058696 0.46312326
0.44472516 0.38572568 0.48014143
0.46546504 0.40155214 0.49739072
0.48625791 0.41803816 0.51484793
0.50708526 0.43515256 0.53248835
0.52792662 0.45286125 0.55028641
0.54875940 0.47112706 0.56821489
0.56955892 0.48991001 0.58624578
0.59029853 0.50916708 0.60434973
0.61094987 0.52885246 0.62249637
0.63148260 0.54891783 0.64065415
0.65186441 0.56931186 0.65879053
0.67206174 0.58998078 0.67687207
0.69203913 0.61086816 0.69486439
0.71175981 0.63191533 0.71273196
0.73118544 0.65306127 0.73043877
0.06064638 0.23442835 0.16335618
0.08865327 0.23879954 0.18869731
0.11593235 0.24460620 0.21536747
0.14257689 0.25187415 0.24307205
0.16869080 0.26060772 0.27147228
0.19438665 0.27078828 0.30018866
0.21782094 0.28049919 0.32305378
0.23821434 0.28827298 0.33714285
0.25872955 0.29685318 0.35161465
0.27936801 0.30623865 0.36645764
0.30012938 0.31642556 0.38165909
0.32101136 0.32740715 0.39720476
0.34200960 0.33917376 0.41307929
0.36311784 0.35171279 0.42926595
0.38432765 0.36500859 0.44574657
0.40562856 0.37904257 0.46250185
0.42700791 0.39379299 0.47951111
0.44845104 0.40923527 0.49675232
0.46994105 0.42534161 0.51420230
0.49145904 0.44208124 0.53183639
0.51298386 0.45942050 0.54962903
0.53449249 0.47732261 0.56755328
0.55595964 0.49574804 0.58558095
0.57735837 0.51465410 0.60368276
0.59865963 0.53399551 0.62182838
0.61983240 0.55372417 0.63998634
0.64084429 0.57378930 0.65812409
0.66166079 0.59413743 0.67620826
0.68224609 0.61471260 0.69420445
0.70256281 0.63545656 0.71207726
0.72257221 0.65630853 0.72979063
0.74223435 0.67720556 0.74730766
0.76150817 0.69808286 0.76459062
0.08402652 0.26011345 0.21436603
0.11254600 0.26638341 0.24203829
0.14045924 0.27415568 0.27041942
0.16786447 0.28341967 0.29913130
0.19279537 0.29259485 0.32254291
0.21392462 0.29996192 0.33661771
0.23517478 0.30813575 0.35107562
0.25654680 0.31711569 0.36590517
0.27803981 0.32689828 0.38109362
0.29965094 0.33747715 0.39662692
0.32137540 0.34884304 0.41248965
0.34320635 0.36098379 0.42866513
0.36513492 0.37388414 0.44513530
0.38715005 0.38752592 0.46188086
0.40923864 0.40188780 0.47888112
0.43138546 0.41694558 0.49611419
0.45357311 0.43267193 0.51355690
0.47578219 0.44903654 0.53118473
0.49799106 0.46600598 0.54897201
0.52017611 0.48354402 0.56689191
0.54231167 0.50161153 0.58491623
0.56437010 0.52016610 0.60301584
0.58632195 0.53916317 0.62116039
0.60813582 0.55855459 0.63931841
0.62977839 0.57829034 0.65745759
0.65121490 0.59831715 0.67554432
0.67240906 0.61857957 0.69354439
0.69332278 0.63901961 0.71142238
0.71391696 0.65957695 0.72914219
0.73415089 0.68018913 0.74666709
0.75398308 0.70079160 0.76395941
0.77337104 0.72131777 0.78098089
0.79227132 0.74169946 0.79769266
0.11209884 0.28777093 0.26936701
0.14122044 0.29611483 0.29807386
0.16771545 0.30471933 0.32203251
0.18958059 0.31167966 0.33609304
0.21156579 0.31944716 0.35053706
0.23367150 0.32802147 0.36535317
0.25589630 0.33739960 0.38052869
0.27823681 0.34757563 0.39604950
0.30068773 0.35854068 0.41190040
0.32324171 0.37028295 0.42806467
0.34588933 0.38278764 0.44452435
0.36861902 0.39603698 0.46126011
0.39141726 0.41001013 0.47825140
0.41426823 0.42468315 0.49547634
0.43715402 0.44002923 0.51291174
0.46005470 0.45601839 0.53053319
0.48294818 0.47261775 0.54831517
0.50581032 0.48979133 0.56623060
0.52861488 0.50750041 0.58425158
0.55133384 0.52570325 0.60234904
0.57393700 0.54435527 0.62049246
0.59639251 0.56340915 0.63865060
0.61866671 0.58281487 0.65679097
0.64072424 0.60251993 0.67488027
0.66252804 0.62246901 0.69288409
0.68403971 0.64260447 0.71076721
0.70521951 0.66286665 0.72849351
0.72602636 0.68319327 0.74602628
0.74641806 0.70352018 0.76332784
0.76635146 0.72378129 0.78035992
0.78578281 0.74390852 0.79708380
0.80466735 0.76383239 0.81346005
0.82296014 0.78348172 0.82944894
0.14258121 0.31687266 0.32152268
0.16518229 0.32342625 0.33556890
0.18790264 0.33078730 0.34999901
0.21074212 0.33895594 0.36480165
0.23369884 0.34792960 0.37996417
0.25676894 0.35770261 0.39547262
0.27994657 0.36826667 0.41131163
0.30322385 0.37961033 0.42746466
0.32659084 0.39171916 0.44391379
0.35003555 0.40457585 0.46063977
0.37354380 0.41815993 0.47762203
0.39709935 0.43244797 0.49483877
0.42068377 0.44741344 0.51226687
0.44427663 0.46302685 0.52988195
0.46785527 0.47925568 0.54765838
0.49139506 0.49606451 0.56556940
0.51486933 0.51341486 0.58358711
0.53824937 0.53126538 0.60168225
0.56150460 0.54957199 0.61982447
0.58460259 0.56828773 0.63798261
0.60750920 0.58736306 0.65612429
0.63018847 0.60674572 0.67421603
0.65260291 0.62638086 0.69222367
0.67471349 0.64621139 0.71011186
0.69647998 0.66617775 0.72784460
0.71786070 0.68621814 0.74538511
0.73881292 0.70626891 0.76269579
0.75929290 0.72626406 0.77973855
0.77925646 0.74613625 0.79647440
0.79865813 0.76581603 0.81286418
0.81745243 0.78523278 0.82886803
0.83559346 0.80431443 0.84444582
0.85303521 0.82298768 0.85955715
0.16418524 0.34215626 0.34946147
0.18775865 0.34991920 0.36425063
0.21144749 0.35848817 0.37940010
0.23524737 0.36785811 0.39489609
0.25915191 0.37802103 0.41072327
0.28315279 0.38896590 0.42686507
0.30723950 0.40067869 0.44330361
0.33139953 0.41314253 0.46001974
0.35561821 0.42633730 0.47699299
0.37987876 0.44024006 0.49420151
0.40416235 0.45482463 0.51162225
0.42844784 0.47006196 0.52923083
0.45271224 0.48592001 0.54700184
0.47693032 0.50236356 0.56490844
0.50107485 0.51935476 0.58292270
0.52511668 0.53685260 0.60101551
0.54902482 0.55481333 0.61915660
0.57276607 0.57319051 0.63731468
0.59630591 0.59193492 0.65545756
0.61960775 0.61099458 0.67355174
0.64263368 0.63031530 0.69156307
0.66534412 0.64984018 0.70945626
0.68769825 0.66951013 0.72719544
0.70965374 0.68926376 0.74474370
0.73116755 0.70903760 0.76206350
0.75219542 0.72876632 0.77911675
0.77269220 0.74838257 0.79586458
0.79261220 0.76781762 0.81226784
0.81190932 0.78700101 0.82828659
0.83053690 0.80586106 0.84388071
0.84844857 0.82432479 0.85900998
0.86559772 0.84231842 0.87363356
0.88193810 0.85976720 0.88771081
0.18914215 0.36907542 0.37883654
0.21367203 0.37804219 0.39432004
0.23830375 0.38780379 0.41013530
0.26302844 0.39834967 0.42626581
0.28783521 0.40966624 0.44269380
0.31271091 0.42173699 0.45940012
0.33764046 0.43454224 0.47636423
0.36260647 0.44805938 0.49356449
0.38758963 0.46226281 0.51097786
0.41256836 0.47712374 0.52858007
0.43751904 0.49261057 0.54634553
0.46241599 0.50868857 0.56424761
0.48723149 0.52532017 0.58225834
0.51193589 0.54246485 0.60034883
0.53649747 0.56007928 0.61848867
0.56088281 0.57811737 0.63664675
0.58505654 0.59653032 0.65479070
0.60898191 0.61526662 0.67288733
0.63262022 0.63427234 0.69090229
0.65593141 0.65349096 0.70880049
0.67887419 0.67286390 0.72654593
0.70140558 0.69233006 0.74410182
0.72348213 0.71182632 0.76143080
0.74505872 0.73128784 0.77849454
0.76608998 0.75064760 0.79525435
0.78652948 0.76983726 0.81167096
0.80633062 0.78878653 0.82770455
0.82544613 0.80742419 0.84331506
0.84382898 0.82567757 0.85846210
0.86143196 0.84347332 0.87310499
0.87820834 0.86073697 0.88720304
0.89411193 0.87739354 0.90071541
0.90909696 0.89336789 0.91360122
0.21740207 0.39761496 0.40954778
0.24285093 0.40776169 0.42566702
0.26837799 0.41868186 0.44208437
0.29396975 0.43035924 0.45878080
0.31961054 0.44277474 0.47573581
0.34528247 0.45590603 0.49292779
0.37096569 0.46972796 0.51033372
0.39663813 0.48421219 0.52792943
0.42227566 0.49932748 0.54568928
0.44785210 0.51503950 0.56358689
0.47333923 0.53131115 0.58159417
0.49870673 0.54810226 0.59968221
0.52392256 0.56536996 0.61782080
0.54895276 0.58306849 0.63597876
0.57376134 0.60114944 0.65412390
0.59831107 0.61956179 0.67222279
0.62256253 0.63825190 0.69024140
0.64647549 0.65716374 0.70814455
0.67000782 0.67623901 0.72589624
0.69311619 0.69541711 0.74345982
0.71575630 0.71463525 0.76079774
0.73788291 0.73382884 0.77787191
0.75944978 0.75293142 0.79464364
0.78040993 0.77187473 0.81107348
0.80071628 0.79058921 0.82712185
0.82032096 0.80900377 0.84274870
0.83917630 0.82704610 0.85791355
0.85723460 0.84464306 0.87257570
0.87444842 0.86172074 0.88669449
0.89077091 0.87820435 0.90022910
0.90615582 0.89401901 0.91313881
0.92055815 0.90908957 0.92538285
0.93393379 0.92334080 0.93692106
0.24886784 0.42772546 0.44147533
0.27517599 0.43900934 0.45816183
0.30152839 0.45103481 0.47510773
0.32790670 0.46378002 0.49229136
0.35429046 0.47722015 0.50968987
0.38065714 0.49132735 0.52727902
0.40698209 0.50607073 0.54503334
0.43323863 0.52141643 0.56292635
0.45939794 0.53732771 0.58093011
0.48542935 0.55376482 0.59901571
0.51130015 0.57068527 0.61715299
0.53697586 0.58804375 0.63531077
0.56242013 0.60579228 0.65345693
0.58759493 0.62388009 0.67155814
0.61246067 0.64225411 0.68958032
0.63697624 0.66085863 0.70748836
0.66109908 0.67963564 0.72524625
0.68478531 0.69852495 0.74281740
0.70799029 0.71746433 0.76016432
0.73066783 0.73638928 0.77724886
0.75277144 0.75523388 0.79403234
0.77425355 0.77393037 0.81047553
0.79506624 0.79240918 0.82653874
0.81516141 0.81059968 0.84218174
0.83449054 0.82843024 0.85736430
0.85300541 0.84582770 0.87204570
0.87065810 0.86271852 0.88618523
0.88740093 0.87902832 0.89974195
0.90318722 0.89468247 0.91267538
0.91797119 0.90960610 0.92494464
0.93170822 0.92372429 0.93650955
0.94435513 0.93696278 0.94732988
0.95587075 0.94924724 0.95736623
0.28339404 0.45932245 0.47447997
0.31047910 0.47168130 0.49165523
0.33756387 0.48473936 0.50904626
0.36462530 0.49846920 0.52662885
0.39163828 0.51284033 0.54437751
0.41857547 0.52781934 0.56226593
0.44540769 0.54336989 0.58026612
0.47210360 0.55945253 0.59834921
0.49863011 0.57602531 0.61648512
0.52495217 0.59304333 0.63464278
0.55103284 0.61045885 0.65278995
0.57683361 0.62822163 0.67089343
0.60231447 0.64627892 0.68891913
0.62743348 0.66457546 0.70683199
0.65214783 0.68305373 0.72459602
0.67641312 0.70165366 0.74217474
0.70018375 0.72031355 0.75953054
0.72341353 0.73896927 0.77662545
0.74605489 0.75755525 0.79342067
0.76806009 0.77600396 0.80987710
0.78938049 0.79424649 0.82595497
0.80996734 0.81221241 0.84161419
0.82977158 0.82983017 0.85681432
0.84874445 0.84702730 0.87151492
0.86683726 0.86373037 0.88567513
0.88400197 0.87986553 0.89925402
0.90019119 0.89535826 0.91221106
0.91535836 0.91013402 0.92450553
0.92945832 0.92411846 0.93609703
0.94244736 0.93723702 0.94694549
0.95428336 0.94941628 0.95701140
0.96492630 0.96058315 0.96625549
0.97433865 0.97066569 0.97463953
0.32078597 0.49228561 0.50840288
0.34854269 0.50563776 0.52597880
0.37624416 0.51963633 0.54372197
0.40386266 0.53424823 0.56160569
0.43136835 0.54943758 0.57960224
0.45872948 0.56516546 0.59768283
0.48591244 0.58139014 0.61581737
0.51288152 0.59806705 0.63397479
0.53959942 0.61514920 0.65212291
0.56602705 0.63258648 0.67022854
0.59212375 0.65032649 0.68825775
0.61784732 0.66831452 0.70617539
0.64315408 0.68649322 0.72394556
0.66799933 0.70480323 0.74153173
0.69233686 0.72318298 0.75889647
0.71611983 0.74156880 0.77600163
0.73930025 0.75989544 0.79280859
0.76182961 0.77809578 0.80927819
0.78365892 0.79610121 0.82537061
0.80473864 0.81384158 0.84104592
0.82501942 0.83124590 0.85626376
0.84445155 0.84824181 0.87098342
0.86298603 0.86475635 0.88516414
0.88057405 0.88071597 0.89876527
0.89716744 0.89604634 0.91174591
0.91271943 0.91067350 0.92406541
0.92718393 0.92452306 0.93568349
0.94051659 0.93752092 0.94656003
0.95267469 0.94959402 0.95665538
0.96361768 0.96066928 0.96593046
0.97330701 0.97067523 0.97434682
0.98170698 0.97954148 0.98186684
0.98878455 0.98719919 0.98845375
0.36079973 0.52645874 0.54306650
0.38910007 0.54070318 0.56094557
0.41727990 0.55553091 0.57893848
0.44530696 0.57090354 0.59701651
0.47314703 0.58677965 0.61514962
0.50076389 0.60311520 0.63330668
0.52811986 0.61986327 0.65145576
0.55517519 0.63697445 0.66956365
0.58188868 0.65439677 0.68759620
0.60821760 0.67207563 0.70551860
0.63411796 0.68995434 0.72329485
0.65954405 0.70797378 0.74088848
0.68444949 0.72607267 0.75826198
0.70878673 0.74418795 0.77537739
0.73250729 0.76225460 0.79219604
0.75556207 0.78020573 0.80867875
0.77790141 0.79797328 0.82478577
0.79947543 0.81548738 0.84047711
0.82023382 0.83267742 0.85571247
0.84012675 0.84947145 0.87045121
0.85910416 0.86579657 0.88465250
0.87711680 0.88157976 0.89827567
0.89411610 0.89674699 0.91127980
0.91005433 0.91122448 0.92362446
0.92488480 0.92493820 0.93526900
0.93856281 0.93781459 0.94617343
0.95104474 0.94978029 0.95629823
0.96228933 0.96076304 0.96560419
0.97225755 0.97069138 0.97405285
0.98091280 0.97949523 0.98160648
0.98822147 0.98710597 0.98822844
0.99415326 0.99345696 0.99388272
0.99868119 0.99848360 0.99853486
0.40314239 0.56164998 0.57827485
0.43183601 0.57666695 0.59635031
0.46033388 0.59219396 0.61448187
0.48859939 0.60818756 0.63263869
0.51659411 0.62460113 0.65078861
0.54427797 0.64138579 0.66889858
0.57160920 0.65848976 0.68693459
0.59854442 0.67585897 0.70486164
0.62503904 0.69343704 0.72264391
0.65104717 0.71116519 0.74024487
0.67652154 0.72898269 0.75762719
0.70141411 0.74682665 0.77475274
0.72567594 0.76463258 0.79158300
0.74925733 0.78233385 0.80807877
0.77210796 0.79986274 0.82420027
0.79417741 0.81715000 0.83990771
0.81541491 0.83412486 0.85516053
0.83576977 0.85071599 0.86991829
0.85519159 0.86685103 0.88414007
0.87363034 0.88245690 0.89778519
0.89103693 0.89746004 0.91081285
0.90736300 0.91178697 0.92318237
0.92256123 0.92536402 0.93485343
0.93658602 0.93811774 0.94578588
0.94939339 0.94997531 0.95594001
0.96094137 0.96086460 0.96527678
0.97119015 0.97071427 0.97375762
0.98010242 0.97945464 0.98134494
0.98764414 0.98701739 0.98800170
0.99378401 0.99333584 0.99369228
0.99849427 0.99834603 0.99838185
1.00000000 1.00000000 1.00000000
1.00000000 1.00000000 1.00000000
0.44747293 0.59763312 0.61381418
0.47638780 0.61328429 0.63197064
0.50502211 0.62936294 0.65012139
0.53333533 0.64582044 0.66823339
0.56128508 0.66260546 0.68627274
0.58882755 0.67966443 0.70420444
0.61591756 0.69694126 0.72199267
0.64250857 0.71437758 0.73960096
0.66855294 0.73191297 0.75699198
0.69400203 0.74948508 0.77412766
0.71880621 0.76702952 0.79096949
0.74291527 0.78448027 0.80747825
0.76627851 0.80176985 0.82361430
0.78884465 0.81882924 0.83933765
0.81056243 0.83558828 0.85460794
0.83138067 0.85197580 0.86938453
0.85124826 0.86791974 0.88362682
0.87011468 0.88334739 0.89729387
0.88792998 0.89818567 0.91034502
0.90464526 0.91236120 0.92273951
0.92021275 0.92580056 0.93443692
0.93458611 0.93843079 0.94539720
0.94772053 0.95017922 0.95558071
0.95957357 0.96097386 0.96494818
0.97010463 0.97074395 0.97346121
0.97927588 0.97941983 0.98108202
0.98705232 0.98693341 0.98777378
0.99340212 0.99321848 0.99350041
0.99829686 0.99821097 0.99822742
1.00000000 1.00000000 1.00000000
1.00000000 1.00000000 1.00000000
1.00000000 1.00000000 1.00000000
