input/i70p6y.cube
# VEGAS Pro LUT
TITLE "Overexposed"
LUT_3D_SIZE 9
0.00000000 0.00000000 0.00000000
0.11978673 0.00078182 0.00185291
0.22111925 0.00643151 0.01558516
0.29854667 0.02294229 0.05405189
0.35431570 0.05586643 0.12467764
0.39684308 0.10828973 0.22444178
0.44060683 0.17293614 0.32767573
0.49651128 0.22345814 0.38676891
0.55468708 0.28638625 0.45126492
0.00462876 0.11465546 0.01471231
0.11124083 0.11624286 0.05208514
0.19927891 0.13239759 0.12150818
0.27337593 0.16815528 0.22039543
0.34213406 0.22045353 0.32561621
0.40976900 0.26449111 0.38449323
0.47949922 0.32105029 0.44880864
0.55101460 0.38909319 0.51743293
0.62346905 0.46681172 0.58890605
0.04186558 0.21015641 0.11838003
0.14769879 0.22917143 0.21637031
0.24279220 0.26843238 0.32356521
0.32216507 0.30598146 0.38222501
0.40346757 0.35616100 0.44635826
0.48625791 0.41803816 0.51484793
0.56955892 0.48991001 0.58624578
0.65186441 0.56931186 0.65879053
0.73118544 0.65306127 0.73043877
0.14258121 0.31687266 0.32152268
0.23369884 0.34792960 0.37996417
0.32659084 0.39171916 0.44391379
0.42068377 0.44741344 0.51226687
0.51486933 0.51341486 0.58358711
0.60750920 0.58736306 0.65612429
0.69647998 0.66617775 0.72784460
0.77925646 0.74613625 0.79647440
0.85303521 0.82298768 0.85955715
0.24886784 0.42772546 0.44147533
0.35429046 0.47722015 0.50968987
0.45939794 0.53732771 0.58093011
0.56242013 0.60579228 0.65345693
0.66109908 0.67963564 0.72524625
0.75277144 0.75523388 0.79403234
0.83449054 0.82843024 0.85736430
0.90318722 0.89468247 0.91267538
0.95587075 0.94924724 0.95736623
0.40314239 0.56164998 0.57827485
0.51659411 0.62460113 0.65078861
0.62503904 0.69343704 0.72264391
0.72567594 0.76463258 0.79158300
0.81541491 0.83412486 0.85516053
0.89103693 0.89746004 0.91081285
0.94939339 0.94997531 0.95594001
0.98764414 0.98701739 0.98800170
1.00000000 1.00000000 1.00000000
0.58829647 0.70758396 0.72003758
0.69796586 0.77433443 0.78912634
0.79580349 0.84007442 0.85294604
0.87844104 0.90043807 0.90893608
0.94257212 0.95084381 0.95449615
0.98518962 0.98671031 0.98708189
1.00000000 1.00000000 1.00000000
1.00000000 1.00000000 1.00000000
1.00000000 1.00000000 1.00000000
0.77565175 0.84628147 0.85072094
0.86539418 0.90361953 0.90704519
0.93540090 0.95185590 0.95303470
0.98249799 0.98648196 0.98614126
1.00000000 1.00000000 1.00000000
1.00000000 1.00000000 1.00000000
1.00000000 1.00000000 1.00000000
1.00000000 1.00000000 1.00000000
1.00000000 1.00000000 1.00000000
0.92787361 0.95301503 0.95155573
0.97956270 0.98633575 0.98517996
1.00000000 1.00000000 1.00000000
1.00000000 1.00000000 1.00000000
1.00000000 1.00000000 1.00000000
1.00000000 1.00000000 1.00000000
1.00000000 1.00000000 1.00000000
1.00000000 1.00000000 1.00000000
1.00000000 1.00000000 1.00000000
0.00004459 0.00005557 0.12364046
0.11705028 0.00205197 0.12043212
0.21426660 0.01111169 0.12962385
0.28864864 0.03331813 0.16462961
0.34428999 0.07350553 0.23112950
0.39081988 0.13334961 0.32332021
0.44389251 0.19069426 0.39612162
0.50293398 0.24603273 0.45139939
0.56419516 0.31343165 0.51180434
0.00809665 0.11398488 0.12889387
0.11326355 0.12033827 0.16278662
0.20134965 0.14356247 0.22815502
0.27822512 0.18730637 0.31964618
0.34982008 0.23573232 0.39419785
0.42054161 0.28461808 0.44926861
0.49325752 0.34571978 0.50950402
0.56742561 0.41770688 0.57372409
0.64196622 0.49847817 0.64042383
0.05606420 0.21483430 0.22521728
0.16355315 0.24234708 0.31598511
0.25488013 0.28123108 0.39228237
0.33729315 0.32365757 0.44714493
0.42148563 0.37844872 0.50720918
0.50678408 0.44437930 0.57130742
0.59197742 0.51945317 0.63794619
0.67533863 0.60092479 0.70532906
0.75468528 0.68535691 0.77139276
0.15907240 0.32719067 0.39037499
0.25318766 0.36315167 0.44502831
0.34887785 0.41161937 0.50491983
0.44533822 0.47147378 0.56889421
0.54122639 0.54082394 0.63546950
0.63468218 0.61702788 0.70286006
0.72338790 0.69674933 0.76901162
0.80466604 0.77604878 0.83165020
0.87561870 0.85051149 0.88834435
0.27543280 0.44523257 0.50263608
0.38308606 0.49899161 0.56648451
0.48971024 0.56259203 0.63299406
0.59331274 0.63349581 0.70038950
0.69143975 0.70846748 0.76662564
0.78127432 0.78366488 0.82943594
0.85977232 0.85476464 0.88639307
0.92383951 0.91712451 0.93498427
0.97054654 0.96598011 0.97269922
0.43742660 0.58475900 0.63051975
0.55122691 0.65033031 0.69791728
0.65883732 0.72051370 0.76423514
0.75730079 0.79156387 0.82721359
0.84342802 0.85924977 0.88443029
0.91397172 0.91901422 0.93337411
0.96584141 0.96617055 0.97153282
0.99635637 0.99613380 0.99649358
1.00000000 1.00000000 1.00000000
0.62557667 0.73289001 0.76184016
0.73274124 0.79974842 0.82498360
0.82658058 0.86396962 0.88245642
0.90369529 0.92108214 0.93174934
0.96083373 0.96647698 0.97034860
0.99514419 0.99563795 0.99583548
1.00000000 1.00000000 1.00000000
1.00000000 1.00000000 1.00000000
1.00000000 1.00000000 1.00000000
0.80922520 0.86892712 0.88047147
0.89300466 0.92333144 0.93011016
0.95551735 0.96690297 0.96914655
0.99374074 0.99519461 0.99515665
1.00000000 1.00000000 1.00000000
1.00000000 1.00000000 1.00000000
1.00000000 1.00000000 1.00000000
1.00000000 1.00000000 1.00000000
1.00000000 1.00000000 1.00000000
0.94988590 0.96745187 0.96792680
0.99213910 0.99480748 0.99445707
1.00000000 1.00000000 1.00000000
1.00000000 1.00000000 1.00000000
1.00000000 1.00000000 1.00000000
1.00000000 1.00000000 1.00000000
1.00000000 1.00000000 1.00000000
1.00000000 1.00000000 1.00000000
1.00000000 1.00000000 1.00000000
0.00027931 0.00035818 0.24304953
0.11442424 0.00433931 0.23275781
0.20815758 0.01771632 0.23664859
0.28063610 0.04634092 0.26766729
0.33756727 0.09405180 0.32920450
0.38953120 0.16088128 0.41261151
0.44924009 0.21031131 0.46084940
0.51141161 0.27036843 0.51224953
0.57565242 0.34202960 0.56851095
0.01307481 0.11479916 0.23608045
0.11740231 0.12691858 0.26597100
0.20642701 0.15775940 0.32646346
0.28699559 0.20934892 0.40935743
0.35955492 0.25287747 0.45906398
0.43333769 0.30652881 0.51026583
0.50891542 0.37197962 0.56636834
0.58551145 0.44760525 0.62614262
0.66181576 0.53101456 0.68804193
0.07301135 0.22264868 0.32375404
0.18255341 0.25881308 0.40610820
0.26900533 0.29590261 0.45728636
0.35441464 0.34313899 0.50828886
0.44135493 0.40236372 0.56423080
0.52891845 0.47205740 0.62389553
0.61566335 0.54993355 0.68574756
0.69965029 0.63297427 0.74796045
0.77851844 0.71750116 0.80845881
0.17759080 0.33938700 0.45551673
0.27464139 0.38019970 0.50631857
0.37296939 0.43318287 0.56209838
0.47153580 0.49692237 0.62165141
0.56876719 0.56923658 0.68345362
0.66259027 0.64721030 0.74568880
0.75050712 0.72726446 0.80628932
0.82970852 0.80526155 0.86299026
0.89722741 0.87664610 0.91339558
0.30375695 0.46443793 0.55997103
0.41336125 0.52220148 0.61941046
0.52112430 0.58892530 0.68116039
0.62483948 0.66179693 0.74341482
0.72187155 0.73733717 0.80411470
0.80926925 0.81150341 0.86100090
0.88391721 0.87982988 0.91168106
0.94272709 0.93760234 0.95370936
0.98286819 0.98006964 0.98467886
0.47273207 0.60900140 0.67886776
0.58639461 0.67673635 0.74113876
0.69260770 0.74772143 0.80193478
0.78827852 0.81800961 0.85900301
0.87014359 0.88322449 0.90995491
0.93495870 0.93873465 0.95234466
0.97972798 0.97986269 0.98376226
1.00000000 1.00000000 1.00000000
1.00000000 1.00000000 1.00000000
0.66271168 0.75841957 0.79974991
0.76673180 0.82478255 0.85699701
0.85590124 0.88683295 0.90821719
0.92682022 0.94002193 0.95096511
0.97632843 0.97974676 0.98282778
1.00000000 1.00000000 1.00000000
1.00000000 1.00000000 1.00000000
1.00000000 1.00000000 1.00000000
1.00000000 1.00000000 1.00000000
0.84118497 0.89065826 0.90646791
0.91830605 0.94146758 0.94957078
0.97266293 0.97972530 0.98187542
1.00000000 1.00000000 1.00000000
1.00000000 1.00000000 1.00000000
1.00000000 1.00000000 1.00000000
1.00000000 1.00000000 1.00000000
1.00000000 1.00000000 1.00000000
1.00000000 1.00000000 1.00000000
0.96872526 0.97980195 0.98090535
1.00000000 1.00000000 1.00000000
1.00000000 1.00000000 1.00000000
1.00000000 1.00000000 1.00000000
1.00000000 1.00000000 1.00000000
1.00000000 1.00000000 1.00000000
1.00000000 1.00000000 1.00000000
1.00000000 1.00000000 1.00000000
1.00000000 1.00000000 1.00000000
0.00089346 0.00116297 0.35639423
0.11229077 0.00799204 0.33789539
0.20329268 0.02655869 0.33617470
0.27504241 0.06217805 0.36286545
0.33461747 0.11743251 0.41870755
0.39356244 0.17941509 0.47993469
0.45665425 0.23176272 0.52184486
0.52190751 0.29639897 0.56931984
0.58897954 0.37207082 0.62140036
0.01986204 0.11751620 0.33577669
0.12399217 0.13625956 0.36133462
0.21478623 0.17502722 0.41623384
0.29652861 0.22599682 0.47850811
0.37133634 0.27187020 0.52019960
0.44811368 0.33016273 0.56748474
0.52638656 0.39972657 0.61941677
0.60514355 0.47864273 0.67471981
0.68284976 0.56423581 0.73180974
0.09278762 0.23374982 0.41378623
0.19862613 0.27303976 0.47708994
0.28515860 0.31243393 0.51856196
0.37347928 0.36437112 0.56565607
0.46298248 0.42780858 0.61743772
0.55252576 0.50093257 0.67264301
0.64044172 0.58117163 0.72969854
0.72458994 0.66524565 0.78675437
0.80244803 0.74925029 0.84172982
0.19812025 0.35345435 0.51693189
0.29800284 0.39902490 0.56383371
0.39876550 0.45631793 0.61546338
0.49913439 0.52362502 0.67056870
0.59730995 0.59847885 0.72758746
0.69101679 0.67770100 0.78467888
0.77759331 0.75748503 0.83976984
0.85412061 0.83351558 0.89061391
0.91759074 0.90112269 0.93486255
0.33373359 0.48525575 0.61349368
0.44496697 0.54672158 0.66849709
0.55345142 0.61615920 0.72547644
0.65677667 0.69049197 0.78260064
0.75214237 0.76601154 0.83780414
0.83648527 0.83849573 0.88884568
0.90664625 0.90336132 0.93337905
0.95957673 0.95585322 0.96903849
0.99258363 0.99126881 0.99353623
0.50886303 0.63421446 0.72336566
0.62186599 0.70362067 0.78051984
0.72609079 0.77483237 0.83583289
0.81833029 0.84372044 0.88706869
0.89527452 0.90578902 0.93188357
0.95371556 0.95636225 0.96791083
0.99079168 0.99080831 0.99285787
1.00000000 1.00000000 1.00000000
1.00000000 1.00000000 1.00000000
0.69943440 0.78394985 0.83385611
0.79965097 0.84919262 0.88528299
0.88346988 0.90840876 0.93037617
0.94752485 0.95700258 0.96676809
0.98878527 0.99041289 0.99216157
1.00000000 1.00000000 1.00000000
1.00000000 1.00000000 1.00000000
1.00000000 1.00000000 1.00000000
1.00000000 1.00000000 1.00000000
0.87122715 0.91122371 0.92885691
0.94099844 0.95777744 0.96561044
0.98655754 0.99008626 0.99144751
1.00000000 1.00000000 1.00000000
1.00000000 1.00000000 1.00000000
1.00000000 1.00000000 1.00000000
1.00000000 1.00000000 1.00000000
1.00000000 1.00000000 1.00000000
1.00000000 1.00000000 1.00000000
0.98410213 0.98983222 0.99071574
1.00000000 1.00000000 1.00000000
1.00000000 1.00000000 1.00000000
1.00000000 1.00000000 1.00000000
1.00000000 1.00000000 1.00000000
1.00000000 1.00000000 1.00000000
1.00000000 1.00000000 1.00000000
1.00000000 1.00000000 1.00000000
1.00000000 1.00000000 1.00000000
0.00211937 0.00277672 0.46234995
0.11104789 0.01335920 0.43522614
0.20015697 0.03790867 0.42791066
0.27235013 0.08091555 0.45006517
0.33582002 0.14346215 0.49960163
0.39992124 0.19787629 0.54095596
0.46612239 0.25500834 0.57910359
0.53436708 0.32404175 0.62262082
0.60407913 0.40342990 0.67049885
0.02874299 0.12251197 0.42768347
0.13331872 0.14855689 0.44871491
0.22661370 0.19529302 0.49742281
0.30728415 0.24198082 0.53966475
0.38514501 0.29267603 0.57759982
0.46480834 0.35544324 0.62093544
0.54556674 0.42884097 0.66867471
0.62617636 0.51065820 0.71949804
0.70488507 0.59794229 0.77178860
0.11538614 0.24817730 0.49526429
0.21378054 0.28654546 0.53838170
0.30331376 0.33079636 0.57610345
0.39441887 0.38728303 0.61925602
0.48625728 0.45466942 0.66685474
0.57745355 0.53084946 0.71759152
0.66612226 0.61297369 0.76985991
0.74993527 0.69751221 0.82179254
0.82622713 0.78035223 0.87131298
0.22062774 0.36936986 0.57461452
0.32319719 0.41956219 0.61758268
0.42614850 0.48091668 0.66503906
0.52797467 0.55143219 0.71568716
0.62665737 0.62836266 0.76793081
0.71973193 0.70827872 0.81991160
0.80439192 0.78716367 0.86955941
0.87763327 0.86054689 0.91465670
0.93643725 0.92367142 0.95291489
0.36523828 0.50758386 0.66322780
0.47773719 0.57240796 0.71378499
0.58648705 0.64411128 0.76600134
0.68888706 0.71936488 0.81802738
0.78199005 0.79424846 0.86779964
0.86264509 0.86438239 0.91310471
0.92767942 0.92509359 0.95165515
0.97411966 0.97161853 0.98117959
0.99945205 0.99934137 0.99952531
0.54560804 0.66022146 0.76407170
0.65739673 0.73077291 0.81614006
0.75901675 0.80160934 0.86603379
0.84717077 0.86844194 0.91154361
0.91853225 0.92668200 0.95038319
0.96996480 0.97164243 0.98027879
0.99878186 0.99877399 0.99907160
1.00000000 1.00000000 1.00000000
1.00000000 1.00000000 1.00000000
0.73546779 0.80924881 0.86426210
0.83120537 0.87272847 0.90997338
0.90898979 0.92844009 0.94909906
0.96552235 0.97177303 0.97936296
0.99794400 0.99824536 0.99860024
1.00000000 1.00000000 1.00000000
1.00000000 1.00000000 1.00000000
1.00000000 1.00000000 1.00000000
1.00000000 1.00000000 1.00000000
0.89904642 0.93037093 0.94780290
0.96078604 0.97201371 0.97843224
0.99693131 0.99775898 0.99811125
1.00000000 1.00000000 1.00000000
1.00000000 1.00000000 1.00000000
1.00000000 1.00000000 1.00000000
1.00000000 1.00000000 1.00000000
1.00000000 1.00000000 1.00000000
1.00000000 1.00000000 1.00000000
0.99573702 0.99731892 0.99760485
1.00000000 1.00000000 1.00000000
1.00000000 1.00000000 1.00000000
1.00000000 1.00000000 1.00000000
1.00000000 1.00000000 1.00000000
1.00000000 1.00000000 1.00000000
1.00000000 1.00000000 1.00000000
1.00000000 1.00000000 1.00000000
1.00000000 1.00000000 1.00000000
0.00422250 0.00553773 0.56001872
0.11109811 0.02077309 0.52439183
0.19920716 0.05197745 0.51172966
0.27297637 0.10254533 0.52924657
0.34116280 0.16886024 0.56982613
0.40833777 0.21818899 0.59827328
0.47761473 0.27999198 0.63263088
0.54871786 0.35319778 0.67217314
0.62083614 0.43596527 0.71584284
0.03997519 0.13010521 0.51166892
0.14560351 0.16391337 0.52808827
0.24116395 0.21698710 0.56889832
0.32008219 0.25982589 0.59711862
0.40094411 0.31524473 0.63126957
0.48334220 0.38227704 0.67063785
0.56633425 0.45918691 0.71417809
0.64844787 0.54347533 0.76053077
0.72772366 0.63192189 0.80805171
0.14029588 0.26557541 0.56797916
0.23096363 0.30192086 0.59597206
0.32342720 0.35094544 0.62991536
0.41714734 0.41178745 0.66910827
0.51105070 0.48281634 0.71251726
0.60353273 0.56163752 0.75879395
0.69249994 0.64513278 0.80630404
0.77545160 0.72953653 0.85317075
0.84960049 0.81054723 0.89733070
0.24506281 0.38709483 0.62856835
0.35013145 0.44173011 0.66758430
0.45498291 0.50685483 0.71086025
0.55788076 0.58017892 0.75705874
0.65659726 0.65868664 0.80455542
0.74849373 0.73871124 0.85148144
0.83063996 0.81604552 0.89577907
0.89997321 0.88608789 0.93527079
0.95349640 0.94402385 0.96774101
0.39812857 0.53130388 0.70920730
0.51148891 0.59910142 0.75532544
0.62001193 0.67258567 0.80280614
0.72092128 0.74818879 0.84978855
0.81114376 0.82179809 0.89422095
0.88746738 0.88890028 0.93392879
0.94673765 0.94476211 0.96669632
0.98609418 0.98464638 0.99036139
1.00000000 1.00000000 1.00000000
0.58274055 0.68683177 0.80105609
0.69273007 0.75797141 0.84809232
0.79110724 0.82780749 0.89265656
0.87451053 0.89191538 0.93257737
0.93962884 0.94564325 0.96563911
0.98343521 0.98432672 0.98967594
1.00000000 1.00000000 1.00000000
1.00000000 1.00000000 1.00000000
1.00000000 1.00000000 1.00000000
0.77052540 0.83407652 0.89108574
0.86109746 0.89513624 0.93121672
0.93216407 0.94667065 0.96456981
0.98053241 0.98408836 0.98897547
1.00000000 1.00000000 1.00000000
1.00000000 1.00000000 1.00000000
1.00000000 1.00000000 1.00000000
1.00000000 1.00000000 1.00000000
1.00000000 1.00000000 1.00000000
0.92433751 0.94784755 0.96348834
0.97737932 0.98393500 0.98826015
1.00000000 1.00000000 1.00000000
1.00000000 1.00000000 1.00000000
1.00000000 1.00000000 1.00000000
1.00000000 1.00000000 1.00000000
1.00000000 1.00000000 1.00000000
1.00000000 1.00000000 1.00000000
1.00000000 1.00000000 1.00000000
1.00000000 1.00000000 1.00000000
1.00000000 1.00000000 1.00000000
1.00000000 1.00000000 1.00000000
1.00000000 1.00000000 1.00000000
1.00000000 1.00000000 1.00000000
1.00000000 1.00000000 1.00000000
1.00000000 1.00000000 1.00000000
1.00000000 1.00000000 1.00000000
1.00000000 1.00000000 1.00000000
0.00749104 0.00979665 0.64885795
0.11283634 0.03053246 0.60525012
0.20085785 0.06890327 0.58765161
0.27725744 0.12695341 0.60053742
0.34854406 0.18615979 0.62711835
0.41880596 0.24032274 0.65188730
0.49108350 0.30664125 0.68244243
0.56486923 0.38375175 0.71800745
0.63911825 0.46951962 0.75747955
0.05377545 0.14054307 0.58774912
0.16098888 0.18232694 0.59957719
0.25294828 0.23180634 0.62632418
0.33490974 0.27950743 0.65086979
0.41867924 0.33950961 0.68122387
0.50361812 0.41055468 0.71662205
0.58854991 0.49061304 0.75597358
0.67178005 0.57690376 0.79788297
0.75115418 0.66594976 0.84068543
0.15648441 0.27791387 0.62553859
0.25015563 0.31914708 0.64986026
0.34543771 0.37282038 0.68001211
0.44156057 0.43778062 0.71524209
0.53721660 0.51210356 0.75447118
0.63057840 0.59311175 0.79631436
0.71935606 0.67742956 0.83911622
0.80089384 0.76107162 0.88099831
0.87230629 0.83956939 0.91992038
0.27135742 0.40657434 0.67880726
0.37869471 0.46543083 0.71386760
0.48511571 0.53399253 0.75297236
0.58866042 0.60968608 0.79474711
0.68690348 0.68923676 0.83754581
0.77704960 0.76875687 0.87949705
0.85606766 0.84386963 0.91856551
0.92086512 0.90986890 0.95262569
0.96850121 0.96191448 0.97954881
0.43224472 0.55628157 0.75147706
0.54602301 0.62662852 0.79318136
0.65379286 0.70137370 0.83597428
0.75261921 0.77672708 0.87799191
0.83932590 0.84840405 0.91720384
0.91066831 0.91178417 0.95148617
0.96354473 0.96210551 0.97870892
0.99524796 0.99469340 0.99683487
1.00000000 1.00000000 1.00000000
0.62002021 0.71384251 0.83440167
0.72759831 0.78498471 0.87648302
0.82207626 0.85317534 0.91583544
0.90005732 0.91388011 0.95033711
0.95827937 0.96241510 0.97785658
0.99386489 0.99417514 0.99635124
1.00000000 1.00000000 1.00000000
1.00000000 1.00000000 1.00000000
1.00000000 1.00000000 1.00000000
0.80431372 0.85818642 0.91446048
0.88902652 0.91615975 0.94917858
0.95269907 0.96284688 0.97699201
0.99228364 0.99371213 0.99585295
1.00000000 1.00000000 1.00000000
1.00000000 1.00000000 1.00000000
1.00000000 1.00000000 1.00000000
1.00000000 1.00000000 1.00000000
1.00000000 1.00000000 1.00000000
0.94679755 0.96340406 0.97611523
0.99049735 0.99330807 0.99533987
1.00000000 1.00000000 1.00000000
1.00000000 1.00000000 1.00000000
1.00000000 1.00000000 1.00000000
1.00000000 1.00000000 1.00000000
1.00000000 1.00000000 1.00000000
1.00000000 1.00000000 1.00000000
1.00000000 1.00000000 1.00000000
1.00000000 1.00000000 1.00000000
1.00000000 1.00000000 1.00000000
1.00000000 1.00000000 1.00000000
1.00000000 1.00000000 1.00000000
1.00000000 1.00000000 1.00000000
1.00000000 1.00000000 1.00000000
1.00000000 1.00000000 1.00000000
1.00000000 1.00000000 1.00000000
1.00000000 1.00000000 1.00000000
0.01222484 0.01589825 0.72861832
0.11663727 0.04288677 0.67783999
0.20546740 0.08873814 0.65583515
0.28543329 0.15390900 0.66423208
0.35797316 0.20532194 0.68072504
0.43130261 0.26423141 0.70180845
0.50646311 0.33486733 0.72856367
0.58271301 0.41557196 0.76016486
0.65877640 0.50392038 0.79546738
0.07030571 0.15398762 0.65607911
0.17952228 0.20367980 0.66346860
0.26676989 0.24849425 0.68006498
0.35173672 0.30098498 0.70092833
0.43827796 0.36538783 0.72748744
0.52552080 0.44015038 0.75892884
0.61205751 0.52295238 0.79411888
0.69597977 0.61073905 0.83163166
0.77495241 0.69978976 0.86978865
0.17470112 0.29212603 0.67941332
0.27131951 0.33818954 0.70005584
0.36926597 0.39634413 0.72641790
0.46753663 0.46514267 0.75769782
0.56459200 0.54236984 0.79277360
0.65839022 0.62507349 0.83022922
0.74645907 0.70963311 0.86839479
0.82600760 0.79186237 0.90539908
0.89407742 0.86714840 0.93923634
0.29942554 0.42773715 0.72535503
0.40875825 0.49055022 0.75647199
0.51637709 0.56217420 0.79143155
0.62010646 0.63976026 0.82882780
0.71733749 0.71978754 0.86699933
0.80513740 0.79816520 0.90408134
0.88039964 0.87037033 0.93807149
0.94003320 0.93162060 0.96690911
0.98119009 0.97708356 0.98856688
0.46740994 0.58236730 0.79009277
0.58112520 0.65480125 0.82742739
0.68758357 0.73025531 0.86560243
0.78371096 0.80473447 0.90275931
0.86625326 0.87380540 0.93689972
0.93196362 0.93276900 0.96596324
0.97783005 0.97686744 0.98791981
1.00000000 1.00000000 1.00000000
1.00000000 1.00000000 1.00000000
0.65719348 0.74103886 0.86420411
0.76172400 0.81157255 0.90143323
0.85163277 0.87745661 0.93572098
0.92351830 0.93407500 0.96500778
0.97420406 0.97674495 0.98726058
1.00000000 1.00000000 1.00000000
1.00000000 1.00000000 1.00000000
1.00000000 1.00000000 1.00000000
1.00000000 1.00000000 1.00000000
0.83653325 0.88132685 0.93453556
0.91469133 0.93554187 0.96404278
0.97030568 0.97671968 0.98658919
1.00000000 1.00000000 1.00000000
1.00000000 1.00000000 1.00000000
1.00000000 1.00000000 1.00000000
1.00000000 1.00000000 1.00000000
1.00000000 1.00000000 1.00000000
1.00000000 1.00000000 1.00000000
0.96612865 0.97679508 0.98590583
0.99987054 0.99991018 0.99993974
1.00000000 1.00000000 1.00000000
1.00000000 1.00000000 1.00000000
1.00000000 1.00000000 1.00000000
1.00000000 1.00000000 1.00000000
1.00000000 1.00000000 1.00000000
1.00000000 1.00000000 1.00000000
1.00000000 1.00000000 1.00000000
1.00000000 1.00000000 1.00000000
1.00000000 1.00000000 1.00000000
1.00000000 1.00000000 1.00000000
1.00000000 1.00000000 1.00000000
1.00000000 1.00000000 1.00000000
1.00000000 1.00000000 1.00000000
1.00000000 1.00000000 1.00000000
1.00000000 1.00000000 1.00000000
1.00000000 1.00000000 1.00000000
0.01872375 0.02416407 0.79929352
0.12284214 0.05802134 0.74235713
0.21332307 0.11143534 0.71658033
0.29509971 0.17516603 0.71935701
0.36945021 0.22632591 0.73065180
0.44578683 0.28985271 0.74805725
0.52367002 0.36456507 0.77103007
0.60212338 0.44851097 0.79869729
0.67964500 0.53898013 0.82987612
0.08965822 0.17050347 0.71695453
0.19654050 0.22235700 0.71906179
0.28262195 0.26703575 0.73012567
0.37051550 0.32420215 0.74731398
0.45964992 0.39277998 0.77009541
0.54891771 0.47092244 0.79760909
0.63668472 0.55602324 0.82868302
0.72083968 0.64476383 0.86186618
0.79888302 0.73319542 0.89547437
0.19493236 0.30820259 0.72960794
0.29440084 0.35899758 0.74657822
0.39481497 0.42142314 0.76916718
0.49493596 0.49373764 0.79652578
0.59299755 0.57343924 0.82749283
0.68675369 0.65731096 0.86062700
0.77356607 0.74150234 0.89425159
0.85053074 0.82164639 0.92651248
0.91464376 0.89301157 0.95544952
0.32916325 0.45049560 0.76824552
0.44017577 0.51695812 0.79544735
0.54858065 0.59122968 0.82630551
0.65199721 0.67019534 0.85938841
0.74764866 0.75010300 0.89302695
0.83248693 0.82667905 0.92537230
0.90335763 0.89527911 0.95446688
0.95720387 0.95107532 0.97832799
0.99130976 0.98927861 0.99504507
0.50343084 0.60939634 0.82512134
0.61656648 0.68341905 0.85815066
0.72112638 0.75899982 0.89180052
0.81391871 0.83195841 0.92422777
0.89163876 0.89773810 0.95347720
0.95107090 0.95159096 0.97756547
0.98933089 0.98879898 0.99457741
1.00000000 1.00000000 1.00000000
1.00000000 1.00000000 1.00000000
0.69399512 0.76819521 0.89057249
0.79482138 0.83748728 0.92307889
0.87948161 0.90039158 0.95248049
0.94460213 0.95224047 0.97679329
0.98713064 0.98838717 0.99409783
1.00000000 1.00000000 1.00000000
1.00000000 1.00000000 1.00000000
1.00000000 1.00000000 1.00000000
1.00000000 1.00000000 1.00000000
0.86688077 0.90324265 0.95147693
0.93779159 0.95302713 0.97601163
0.98470253 0.98804700 0.99360633
1.00000000 1.00000000 1.00000000
1.00000000 1.00000000 1.00000000
1.00000000 1.00000000 1.00000000
1.00000000 1.00000000 1.00000000
1.00000000 1.00000000 1.00000000
1.00000000 1.00000000 1.00000000
0.98203981 0.98778200 0.99310303
1.00000000 1.00000000 1.00000000
1.00000000 1.00000000 1.00000000
1.00000000 1.00000000 1.00000000
1.00000000 1.00000000 1.00000000
1.00000000 1.00000000 1.00000000
1.00000000 1.00000000 1.00000000
1.00000000 1.00000000 1.00000000
1.00000000 1.00000000 1.00000000
1.00000000 1.00000000 1.00000000
1.00000000 1.00000000 1.00000000
1.00000000 1.00000000 1.00000000
1.00000000 1.00000000 1.00000000
1.00000000 1.00000000 1.00000000
1.00000000 1.00000000 1.00000000
1.00000000 1.00000000 1.00000000
1.00000000 1.00000000 1.00000000
1.00000000 1.00000000 1.00000000
