input/InvertLuminosity.cube
TITLE "Photo Curves LUT"
LUT_3D_SIZE 5
1.0 1.0 0.996078431372549
1.0 0.807843137254902 0.7843137254901961
1.0 0.5686274509803921 0.4588235294117647
1.0 0.3254901960784314 0.20392156862745098
0.9098039215686274 0.0 0.0
0.5882352941176471 0.8117647058823529 0.5294117647058824
0.7490196078431373 0.7254901960784313 0.4666666666666667
0.8627450980392157 0.5529411764705883 0.3137254901960784
0.8705882352941177 0.34901960784313724 0.11764705882352941
0.8196078431372549 0.0 0.0
0.16862745098039217 0.5803921568627451 0.11764705882352941
0.30196078431372547 0.5529411764705883 0.08627450980392157
0.4627450980392157 0.4666666666666667 0.0
0.5529411764705883 0.33725490196078434 0.0
0.5803921568627451 0.14901960784313725 0.0
0.0 0.3764705882352941 0.0
0.0 0.3607843137254902 0.0
0.01568627450980392 0.3215686274509804 0.0
0.22745098039215686 0.25098039215686274 0.0
0.3058823529411765 0.1450980392156863 0.0
0.0 0.19607843137254902 0.0
0.0 0.19215686274509805 0.0
0.0 0.16862745098039217 0.0
0.023529411764705882 0.13333333333333333 0.0
0.1450980392156863 0.06274509803921569 0.0
0.996078431372549 0.9176470588235294 1.0
1.0 0.7725490196078432 1.0
1.0 0.5568627450980392 0.7098039215686275
0.9882352941176471 0.3176470588235294 0.4235294117647059
0.9058823529411765 0.0 0.1803921568627451
0.5647058823529412 0.7803921568627451 0.7764705882352941
0.7058823529411765 0.7058823529411765 0.7058823529411765
0.8274509803921568 0.5411764705882353 0.5333333333333333
0.8509803921568627 0.33725490196078434 0.3254901960784314
0.8117647058823529 0.0 0.11764705882352941
0.14901960784313725 0.5725490196078431 0.3137254901960784
0.2901960784313726 0.5450980392156862 0.28627450980392155
0.4549019607843137 0.4588235294117647 0.20784313725490197
0.5529411764705883 0.32941176470588235 0.0784313725490196
0.5764705882352941 0.13725490196078433 0.0
0.0 0.3686274509803922 0.0
0.0 0.3568627450980392 0.0
0.00392156862745098 0.3176470588235294 0.0
0.2196078431372549 0.24705882352941178 0.0
0.30196078431372547 0.1411764705882353 0.0
0.0 0.19607843137254902 0.0
0.0 0.18823529411764706 0.0
0.0 0.16862745098039217 0.0
0.0 0.12941176470588237 0.0
0.12941176470588237 0.06274509803921569 0.0
0.9490196078431372 0.7490196078431373 1.0
0.9529411764705882 0.6745098039215687 1.0
0.9568627450980393 0.5058823529411764 0.9372549019607843
0.9333333333333333 0.2823529411764706 0.6588235294117647
0.8745098039215686 0.0 0.4
0.5843137254901961 0.6941176470588235 0.996078431372549
0.6666666666666666 0.6392156862745098 0.9294117647058824
0.7725490196078432 0.5019607843137255 0.7686274509803922
0.8117647058823529 0.3058823529411765 0.5529411764705883
0.792156862745098 0.0 0.3333333333333333
0.10980392156862745 0.5411764705882353 0.5372549019607843
0.2627450980392157 0.5137254901960784 0.5137254901960784
0.43529411764705883 0.43529411764705883 0.43529411764705883
0.5372549019607843 0.3058823529411765 0.30980392156862746
0.5725490196078431 0.10588235294117647 0.1607843137254902
0.0 0.3568627450980392 0.1450980392156863
0.0 0.3411764705882353 0.13333333333333333
0.027450980392156862 0.30196078431372547 0.08627450980392157
0.21568627450980393 0.23529411764705882 0.0
0.2901960784313726 0.12941176470588237 0.0
0.0 0.18823529411764706 0.0
0.0 0.1843137254901961 0.0
0.0 0.16470588235294117 0.0
0.0 0.12549019607843137 0.0
0.09803921568627451 0.054901960784313725 0.0
0.8313725490196079 0.596078431372549 1.0
0.8392156862745098 0.5490196078431373 1.0
0.8549019607843137 0.4196078431372549 1.0
0.8549019607843137 0.20392156862745098 0.8470588235294118
0.8274509803921568 0.0 0.596078431372549
0.5647058823529412 0.5803921568627451 1.0
0.615686274509804 0.5411764705882353 1.0
0.6980392156862745 0.42745098039215684 0.9490196078431372
0.7490196078431373 0.24705882352941178 0.7490196078431373
0.7490196078431373 0.0 0.5294117647058824
0.0 0.4823529411764706 0.7333333333333333
0.19607843137254902 0.4588235294117647 0.7098039215686275
0.3843137254901961 0.38823529411764707 0.6313725490196078
0.4980392156862745 0.2627450980392157 0.5019607843137255
0.5490196078431373 0.01568627450980392 0.34901960784313724
0.0 0.32941176470588235 0.33725490196078434
0.0 0.3176470588235294 0.3254901960784314
0.0 0.2784313725490196 0.2823529411764706
0.20784313725490197 0.20784313725490197 0.20784313725490197
0.28627450980392155 0.10196078431372549 0.11372549019607843
0.0 0.17647058823529413 0.0
0.0 0.16862745098039217 0.0
0.0 0.14901960784313725 0.0
0.0 0.11372549019607843 0.0
0.050980392156862744 0.03529411764705882 0.0
0.6862745098039216 0.44313725490196076 1.0
0.7019607843137254 0.4117647058823529 1.0
0.7294117647058823 0.30196078431372547 1.0
0.7529411764705882 0.01568627450980392 1.0
0.7490196078431373 0.0 0.7647058823529411
0.4823529411764706 0.4549019607843137 1.0
0.5176470588235295 0.4235294117647059 1.0
0.592156862745098 0.32941176470588235 1.0
0.6549019607843137 0.13333333333333333 0.9098039215686274
0.6784313725490196 0.0 0.6980392156862745
0.0 0.40784313725490196 0.8980392156862745
0.0 0.38823529411764707 0.8745098039215686
0.2823529411764706 0.3254901960784314 0.8
0.42745098039215684 0.20392156862745098 0.6745098039215687
0.4980392156862745 0.0 0.5176470588235295
0.0 0.29411764705882354 0.5098039215686274
0.0 0.2823529411764706 0.49411764705882355
0.0 0.24705882352941178 0.45098039215686275
0.1411764705882353 0.17647058823529413 0.3764705882352941
0.25882352941176473 0.050980392156862744 0.27450980392156865
0.0 0.1568627450980392 0.16862745098039217
0.0 0.14901960784313725 0.1568627450980392
0.0 0.13333333333333333 0.13333333333333333
0.0 0.09411764705882353 0.09019607843137255
0.0 0.0 0.0
